<?xml version="1.0" encoding="UTF-8"?>
<map version="1.10" tiledversion="1.12.2" orientation="orthogonal" renderorder="right-down" width="128" height="96" tilewidth="16" tileheight="16" infinite="0" nextlayerid="13" nextobjectid="69">
 <properties>
  <property name="outdoor" type="bool" value="true"/>
  <property name="particles" value="leafs,rain"/>
  <property name="gen_seed" type="int" value="20260823"/>
  <property name="gen_brief" value="4836fc5246dc"/>
 </properties>
 <tileset firstgid="1" source="../tilesets/Water.tsx"/>
 <tileset firstgid="477" source="../tilesets/Floor.tsx"/>
 <tileset firstgid="1049" source="../tilesets/Field.tsx"/>
 <tileset firstgid="1124" source="../tilesets/Nature.tsx"/>
 <tileset firstgid="1628" source="../tilesets/House.tsx"/>
 <tileset firstgid="2387" source="../tilesets/Element.tsx"/>
 <tileset firstgid="2627" source="../tilesets/FloorDetail.tsx"/>
 <tileset firstgid="2707" source="../../items/items.tsx"/>
 <tileset firstgid="2817" source="../tilesets/CharacterTileset.tsx"/>
 <layer id="1" name="ground" width="128" height="96">
  <data encoding="csv">
742,742,722,745,744,722,742,742,741,745,741,741,741,742,745,742,744,741,722,744,741,743,742,741,741,722,722,745,722,745,745,743,721,721,744,722,744,745,721,721,722,744,745,722,743,744,741,741,741,722,722,721,741,742,744,743,742,721,744,721,744,744,741,722,743,721,743,745,721,742,722,743,744,745,722,741,741,743,745,721,743,744,742,743,743,722,743,745,743,745,742,742,744,741,722,721,742,744,744,722,745,745,744,742,743,722,744,744,741,722,745,741,741,721,722,745,721,742,722,721,743,743,721,745,745,722,745,741,
743,741,722,742,741,743,722,741,741,721,722,745,745,741,745,745,744,741,721,745,743,743,722,743,721,744,742,741,721,741,742,743,743,743,741,721,742,743,744,721,721,721,744,722,722,743,721,721,741,744,741,745,721,741,741,722,742,722,743,722,742,741,742,745,722,741,721,742,742,741,744,742,743,742,721,742,745,741,745,745,741,744,743,722,722,721,722,743,744,745,742,741,742,722,722,745,743,722,743,741,745,721,741,741,745,722,721,743,721,745,741,745,722,742,722,744,721,742,743,721,745,743,743,745,744,743,743,741,
722,745,742,742,745,744,743,742,744,743,741,721,744,721,742,722,741,745,743,745,743,741,742,742,742,745,742,745,745,743,744,722,741,722,744,745,741,721,742,721,745,745,741,721,741,744,722,742,745,721,742,743,722,722,744,722,741,745,741,743,743,743,745,722,721,742,744,744,722,741,741,745,743,721,743,745,742,745,721,721,722,742,743,721,743,744,744,742,722,744,745,744,721,743,743,745,741,741,744,722,721,744,741,743,743,745,743,722,741,745,744,743,722,741,742,742,744,745,744,722,741,743,742,743,722,721,742,743,
745,744,744,721,742,741,722,741,722,743,742,743,744,744,721,744,741,721,741,722,721,741,722,743,743,745,742,743,742,744,742,743,722,722,722,742,745,721,745,721,741,745,742,745,721,742,742,721,742,741,744,742,743,722,741,745,745,741,744,741,722,721,743,722,721,722,744,744,741,721,741,741,743,743,745,743,743,741,721,722,744,745,744,722,722,745,722,742,743,722,722,742,744,743,745,741,743,745,744,745,722,745,722,742,721,721,741,745,744,741,721,745,722,721,742,741,721,743,721,743,744,741,742,721,745,741,722,743,
741,745,745,743,741,721,743,722,744,745,741,722,744,742,722,721,721,741,721,744,744,741,742,742,741,741,741,721,743,743,745,721,741,721,721,742,742,743,722,741,741,745,741,744,722,743,743,744,741,721,743,743,742,742,722,721,745,743,745,744,743,721,721,743,745,742,742,743,721,741,741,744,741,744,721,745,742,741,743,741,722,744,744,745,742,721,743,745,721,743,741,742,744,722,722,741,743,741,721,721,744,741,744,743,722,721,721,721,744,745,744,743,742,743,741,744,745,743,722,745,744,722,722,743,743,744,722,742,
721,744,742,744,744,722,742,742,745,742,745,722,745,741,744,743,743,722,743,742,741,743,743,743,722,743,743,721,742,745,743,742,744,745,722,741,744,743,744,742,721,743,743,743,744,743,745,741,744,742,742,745,743,742,743,722,742,742,745,744,744,722,745,744,743,742,745,742,744,741,741,722,721,745,722,741,721,742,742,742,742,741,721,741,744,722,721,745,744,745,743,721,721,745,721,721,722,742,721,741,721,745,742,745,743,743,743,745,744,743,721,745,745,743,741,743,745,743,745,743,744,744,742,744,722,742,741,742,
744,745,745,742,722,721,741,745,743,721,742,745,742,742,744,745,742,742,742,744,741,744,741,742,742,721,744,745,721,744,744,722,721,745,722,744,722,745,743,744,743,744,745,721,743,741,742,745,743,742,744,745,744,744,745,744,744,741,722,722,743,745,742,742,743,721,722,744,742,721,742,722,745,741,743,721,744,741,721,745,741,744,743,742,742,722,721,743,744,742,744,741,721,722,743,741,742,744,721,722,745,745,744,744,745,745,742,722,741,743,722,741,744,742,722,742,721,741,744,722,745,744,742,743,742,743,742,744,
722,745,741,743,721,722,743,741,721,741,721,721,743,742,721,743,745,721,721,745,743,742,741,741,743,745,741,745,742,741,742,742,741,722,741,743,741,745,744,721,743,722,722,745,721,722,745,741,722,745,722,745,741,741,742,745,722,745,722,744,721,721,721,722,745,742,743,741,722,744,721,743,721,743,722,741,721,741,745,722,744,742,722,721,722,743,741,741,743,742,722,745,744,721,741,744,742,743,742,744,742,744,743,721,741,743,741,744,722,741,741,741,741,721,721,744,722,721,741,722,742,722,742,742,745,744,742,741,
745,743,722,744,744,721,741,742,741,722,742,722,744,722,742,743,721,744,745,721,744,741,721,741,722,722,721,741,721,745,743,743,742,741,743,743,742,743,722,722,742,745,742,741,743,742,742,721,742,741,745,722,745,722,741,741,745,741,722,722,721,744,722,721,742,742,745,722,744,741,744,744,743,742,741,722,744,741,744,743,741,745,742,745,744,722,743,744,745,742,722,743,743,722,722,741,721,741,741,741,745,745,744,745,743,742,721,741,745,741,741,743,722,721,722,721,741,742,743,745,745,722,743,741,744,744,744,743,
721,741,743,744,721,744,744,745,745,743,721,742,722,742,745,741,742,743,744,745,722,742,722,742,743,721,741,721,744,741,741,741,742,741,721,742,741,722,742,741,742,741,741,742,721,722,745,744,721,745,741,721,722,721,741,743,741,745,743,743,742,745,721,745,741,743,745,744,743,741,745,744,722,742,743,745,743,741,742,741,743,744,722,745,745,721,745,743,742,721,742,745,741,742,741,742,744,721,741,743,721,742,743,744,744,743,721,741,741,744,742,743,722,745,745,722,721,743,742,741,741,741,722,721,721,741,722,744,
721,721,741,741,743,745,741,741,721,721,741,743,722,743,743,721,743,744,744,722,721,721,745,722,741,741,722,743,742,742,745,742,722,741,742,741,744,745,742,721,722,745,741,743,745,741,743,721,721,743,722,741,743,721,745,741,741,722,741,721,742,722,745,721,744,745,743,741,745,721,721,741,745,721,745,722,742,745,722,745,722,742,722,743,743,722,743,721,741,721,741,742,721,744,744,744,741,743,741,745,741,741,744,744,742,741,721,741,745,722,721,722,721,741,741,741,745,745,721,742,743,743,742,742,745,742,743,743,
745,721,744,721,741,743,721,743,742,741,744,744,741,722,721,745,722,741,743,722,745,721,722,742,741,744,721,722,744,744,742,743,742,741,743,743,722,721,722,741,744,743,743,722,743,741,745,743,722,721,721,722,742,745,722,744,742,745,742,722,745,743,741,742,745,742,722,745,721,744,721,744,742,743,744,742,744,744,722,722,745,743,744,722,744,721,742,722,743,744,722,744,721,743,744,741,741,722,722,722,743,745,741,745,742,721,741,741,743,721,743,744,744,743,745,743,744,744,744,721,741,743,742,743,742,721,744,743,
743,743,721,743,741,721,721,743,744,743,722,745,721,721,743,741,721,742,743,741,743,741,722,741,722,741,743,745,742,743,743,722,744,745,722,741,721,742,744,722,741,741,742,742,744,722,745,745,744,744,741,722,743,743,721,722,722,742,743,745,744,722,722,721,722,745,722,744,744,721,743,721,742,742,721,745,743,744,744,721,722,742,741,741,742,721,721,721,743,742,742,722,745,722,745,745,722,741,741,743,744,743,741,741,742,742,744,745,722,741,745,742,722,744,721,745,741,744,742,742,745,743,745,744,743,721,744,744,
741,744,722,744,742,721,721,743,722,744,741,743,742,721,722,745,721,743,721,742,722,722,722,721,742,722,742,743,742,722,745,742,745,745,721,741,721,741,743,722,745,745,721,745,721,742,741,741,741,744,722,741,745,722,745,743,741,744,744,744,721,743,745,743,741,741,745,743,743,741,745,742,743,721,744,742,744,745,742,722,742,745,721,743,744,743,741,741,743,745,741,741,743,743,743,745,741,745,741,741,745,743,721,743,744,721,745,742,743,744,742,742,721,744,742,745,722,742,741,722,722,742,744,745,743,745,742,722,
721,742,745,745,722,721,742,741,745,744,722,721,743,742,744,722,722,745,721,744,721,745,742,744,721,744,742,722,741,721,744,745,744,741,741,721,742,745,742,742,721,743,743,744,743,744,742,722,721,743,744,741,722,745,722,741,721,741,721,722,722,721,741,743,744,741,744,722,722,744,722,722,741,721,722,744,742,745,743,743,743,745,721,743,742,721,742,743,745,722,745,721,744,742,742,743,721,721,741,721,745,742,741,745,741,744,722,743,743,721,745,743,741,741,744,741,742,721,742,745,722,743,721,722,722,741,742,722,
744,722,741,742,721,745,721,744,744,743,745,743,721,743,742,745,742,742,745,722,721,741,721,721,741,741,744,743,722,741,721,745,743,721,742,742,721,743,722,744,744,741,744,722,721,741,745,742,742,743,744,742,741,742,743,722,722,742,742,744,742,722,743,741,721,744,743,742,742,722,745,742,745,742,745,721,721,721,743,744,721,744,721,722,721,741,742,743,722,742,741,721,722,722,745,744,744,742,743,744,745,743,741,745,743,722,721,741,741,742,722,721,721,721,741,742,741,722,744,721,744,745,721,722,722,742,722,741,
742,744,743,742,742,745,745,745,744,722,721,742,742,745,741,744,722,722,743,745,741,745,743,743,721,744,742,741,742,744,722,744,742,742,745,743,744,741,744,741,742,741,743,741,742,722,722,721,741,741,741,742,745,745,742,742,743,722,741,721,722,742,741,745,722,721,722,745,745,722,742,721,721,722,742,744,741,741,745,743,745,742,743,745,721,721,721,741,742,721,742,741,743,744,722,742,722,721,721,722,722,745,721,722,744,721,721,744,742,745,721,742,722,722,745,742,722,741,721,745,743,744,741,744,722,741,742,744,
745,743,744,721,742,721,745,722,721,721,722,745,744,722,722,742,743,745,744,744,744,743,742,745,744,742,743,742,745,741,744,745,742,741,745,721,722,743,744,743,742,742,743,744,741,741,741,742,742,722,743,744,744,744,741,745,721,741,742,743,742,744,743,741,743,742,721,722,744,721,745,741,745,721,745,722,743,741,742,741,744,743,722,745,722,745,745,743,745,741,745,741,722,721,743,721,743,721,744,742,743,742,741,722,745,743,742,721,745,741,744,741,722,741,721,721,745,722,745,742,741,741,742,722,742,722,745,742,
744,742,721,742,722,744,721,743,744,745,741,745,722,745,745,743,722,743,745,721,721,741,744,742,631,633,741,741,744,742,743,743,721,722,722,742,741,742,722,721,743,742,722,742,631,633,741,722,741,743,742,745,742,741,742,744,741,741,722,742,745,744,741,743,741,742,744,741,742,721,722,745,744,742,744,741,722,743,742,742,745,742,745,741,721,722,721,744,742,722,745,722,742,744,745,741,722,744,722,744,741,741,742,744,741,742,721,741,722,742,745,742,744,744,741,743,741,745,744,745,744,741,721,742,741,742,721,742,
742,741,722,721,721,722,741,742,743,741,721,744,742,744,741,721,744,742,745,744,722,743,722,742,653,655,721,741,742,741,722,743,721,744,745,745,743,743,744,741,744,721,721,722,653,655,745,744,722,744,745,743,722,744,745,744,721,745,745,742,721,744,745,741,744,742,744,743,741,745,742,741,722,722,722,744,722,741,745,742,742,741,743,741,744,742,741,744,745,721,745,722,745,741,721,741,744,742,722,744,722,722,721,721,722,722,741,742,741,722,744,745,744,721,721,744,742,722,743,742,742,743,721,721,721,743,744,741,
744,745,742,744,721,741,741,721,744,721,722,743,741,741,741,722,722,721,744,742,722,722,745,743,653,655,743,743,742,742,721,744,742,744,721,741,745,742,721,744,721,722,744,742,653,655,744,743,744,745,745,742,745,722,743,741,722,744,743,722,722,743,743,743,721,743,722,741,742,741,745,742,743,742,722,741,722,722,722,721,742,745,722,741,742,742,745,721,744,741,745,721,745,742,743,722,745,721,743,741,745,741,743,634,742,743,742,742,744,722,721,742,744,721,743,743,744,743,742,742,742,741,743,741,745,721,744,722,
722,741,742,742,722,741,742,743,745,745,744,743,743,741,742,742,743,743,741,742,741,741,722,742,653,655,721,745,722,742,741,721,742,741,742,722,722,721,722,722,741,722,742,745,653,655,741,722,743,722,745,743,721,722,745,722,722,741,745,741,722,741,743,743,741,741,744,745,745,745,741,744,744,742,744,743,741,744,744,742,744,741,722,722,745,721,743,741,741,742,745,744,742,745,745,742,744,742,721,721,744,741,722,656,745,721,742,721,742,742,742,742,722,721,743,741,741,722,742,741,742,742,741,722,744,744,741,722,
722,721,744,721,721,742,721,745,744,721,745,745,721,743,742,722,721,742,744,741,722,743,721,745,653,655,744,742,743,745,742,744,741,745,722,745,743,742,741,745,745,745,721,745,653,655,722,743,722,722,744,742,722,722,745,743,743,722,722,742,743,742,745,742,721,742,742,742,721,742,721,722,721,745,742,743,741,722,741,742,721,741,744,744,744,742,741,742,743,743,743,721,744,744,722,743,742,741,741,722,742,722,721,656,742,744,741,741,722,744,744,742,742,744,742,744,742,745,741,722,745,722,742,742,741,721,744,744,
743,722,722,745,742,741,743,745,741,742,742,743,745,741,722,742,721,722,742,722,743,745,744,744,653,655,742,745,721,742,743,745,722,722,741,721,742,745,743,722,745,745,722,721,653,655,745,744,741,744,743,745,743,721,722,745,745,742,744,745,721,721,741,722,745,744,743,722,745,744,741,721,742,743,741,743,742,741,722,721,743,745,745,721,743,743,745,722,745,744,743,721,743,742,742,742,742,744,745,722,697,698,698,661,698,698,698,699,721,745,721,744,722,743,744,722,743,721,745,744,743,742,743,743,721,742,745,744,
743,721,743,743,741,721,742,741,744,743,745,722,743,742,744,722,744,745,745,745,721,722,745,742,653,655,743,745,745,744,744,744,743,741,741,744,741,743,722,721,743,742,721,722,653,655,741,722,741,721,722,722,743,741,741,745,742,742,742,721,743,742,722,743,722,722,745,743,722,722,744,744,745,741,721,722,721,742,741,741,745,744,742,744,745,634,721,745,722,742,722,743,722,744,722,721,741,745,745,745,743,722,743,656,721,744,743,742,745,721,721,741,721,743,743,745,722,721,744,743,743,744,742,722,741,721,741,722,
741,722,721,741,741,741,721,743,721,744,742,722,721,741,745,744,722,722,743,743,745,743,745,745,653,655,743,721,721,743,745,742,744,743,742,745,721,743,744,741,745,721,745,722,653,655,744,722,745,741,742,722,743,742,743,722,721,741,744,742,742,743,741,743,744,741,722,742,744,743,722,721,741,743,743,742,722,741,741,722,722,743,742,742,721,656,721,741,742,743,742,722,634,741,722,741,745,722,721,743,742,745,722,656,745,721,742,721,744,744,744,742,745,743,744,741,745,744,742,743,744,721,744,722,721,721,722,745,
744,722,721,745,741,744,721,722,745,745,741,721,744,722,722,722,721,721,631,632,632,632,632,632,681,680,632,632,632,632,632,633,721,744,722,742,744,722,631,632,632,632,632,632,681,680,632,632,632,632,632,633,742,741,742,721,745,743,722,722,742,721,722,742,722,722,722,721,743,745,721,721,721,742,744,745,744,743,722,721,721,743,744,722,745,656,721,721,744,721,743,721,656,745,742,743,745,744,745,722,742,741,743,656,721,744,744,744,742,744,743,742,744,722,742,743,721,744,741,745,742,743,742,721,743,742,721,743,
742,722,741,742,744,722,721,741,722,744,744,745,744,722,722,721,722,745,675,676,676,676,676,676,659,658,676,676,676,676,676,677,745,722,722,744,721,742,675,676,676,676,676,676,659,658,676,676,676,676,676,677,722,722,742,745,745,722,742,744,745,745,741,744,742,721,745,742,741,721,745,742,722,742,721,721,722,741,745,745,722,721,722,742,722,701,698,698,698,698,698,698,705,698,698,698,698,698,698,698,698,698,698,705,698,638,743,741,744,722,741,741,721,744,721,722,745,721,743,744,745,744,722,745,744,745,721,744,
741,742,721,721,721,722,721,721,745,743,743,743,742,741,743,722,741,742,721,744,722,741,721,744,653,655,741,745,721,721,742,721,745,742,741,742,721,744,721,743,743,744,742,722,653,655,744,741,745,744,722,744,745,743,742,722,722,741,743,722,745,743,744,722,741,742,744,722,722,744,745,742,742,743,744,745,745,744,722,744,744,743,742,722,741,741,745,743,741,722,722,745,722,721,721,745,743,744,742,741,741,743,743,721,745,656,744,721,745,743,744,743,744,722,745,722,745,721,722,721,721,743,742,741,722,721,721,722,
743,722,722,721,721,741,722,745,745,742,742,742,743,722,741,742,722,742,742,744,722,722,722,744,653,655,744,721,745,744,722,743,743,722,742,721,721,742,742,722,742,745,745,744,653,655,742,743,741,721,745,742,744,722,741,722,741,741,722,721,744,742,742,744,721,744,722,721,745,743,745,742,741,721,741,745,742,743,721,721,741,722,745,741,743,744,721,742,742,744,741,743,722,741,721,745,721,721,741,721,741,743,722,743,721,634,745,741,743,744,744,741,742,745,721,721,742,721,745,743,741,741,744,745,745,743,741,745,
742,744,741,744,741,721,721,744,745,745,741,741,742,743,744,744,741,743,721,742,742,742,745,741,653,655,722,741,743,741,721,721,742,741,743,741,722,744,722,743,743,721,722,741,653,655,742,745,742,721,744,743,722,745,722,721,741,741,745,743,741,745,721,722,741,721,743,743,744,741,721,742,745,745,744,743,745,744,744,721,721,743,721,743,743,743,721,744,743,722,743,743,743,722,722,744,744,742,722,722,745,743,741,743,742,656,743,745,721,721,721,741,742,744,721,744,741,722,721,742,722,741,742,745,743,743,742,744,
722,745,721,744,743,745,721,743,721,743,741,744,722,722,744,745,744,741,745,743,745,721,742,742,653,655,721,742,742,744,742,742,742,744,742,721,741,744,745,721,745,721,744,741,653,655,722,721,744,743,744,743,721,721,744,742,721,745,721,721,721,743,741,741,742,745,743,742,721,721,743,745,743,742,742,743,744,744,745,741,721,721,742,744,742,744,745,721,741,742,721,745,741,745,745,742,722,721,743,722,722,722,742,741,745,656,722,742,743,745,743,741,722,741,743,744,744,745,721,742,744,745,742,721,741,722,744,721,
744,743,743,745,743,744,741,721,743,743,741,721,721,742,741,722,744,721,744,722,722,741,722,722,653,655,721,741,722,742,745,745,744,721,722,742,744,741,742,722,721,721,741,722,653,655,721,742,722,742,743,721,743,744,722,745,741,744,744,745,722,721,744,743,741,742,742,722,743,742,721,744,721,745,722,745,721,722,745,742,741,741,742,744,743,745,631,632,632,632,632,632,632,632,632,632,633,742,745,744,741,744,741,745,741,656,721,721,744,745,744,721,743,745,721,722,744,744,721,743,743,743,742,741,721,745,722,745,
721,743,721,721,743,744,721,722,743,722,722,743,745,722,722,742,745,741,744,741,744,722,745,745,653,655,741,722,722,741,722,722,742,744,722,722,741,722,721,741,722,743,744,742,653,655,742,721,745,742,745,744,741,722,721,745,743,744,722,721,743,722,741,741,743,742,722,742,741,741,743,722,722,742,721,721,741,742,741,744,741,722,721,743,743,631,681,719,654,720,720,654,719,720,720,720,680,632,632,632,632,633,741,743,741,656,741,744,722,741,744,722,742,741,722,745,742,745,722,722,743,745,721,741,742,744,721,721,
722,741,744,722,722,741,745,721,741,741,721,741,745,721,745,742,722,745,722,743,743,742,744,741,653,655,742,742,722,743,744,742,745,721,744,721,741,722,742,742,721,722,744,742,653,655,744,744,741,741,722,722,745,722,743,745,743,722,744,744,743,742,721,741,741,744,742,744,743,722,721,745,744,741,745,741,744,741,722,743,741,742,722,631,632,681,654,654,719,654,654,720,719,654,654,719,654,720,654,720,720,680,633,743,741,723,698,698,698,699,744,744,741,741,722,743,741,745,744,745,721,741,743,745,721,721,742,721,
744,745,741,721,742,742,741,745,721,741,743,742,742,721,744,722,741,744,722,744,722,742,722,742,675,677,743,741,745,745,745,721,742,743,744,744,722,722,743,721,744,741,721,745,675,677,721,743,745,741,742,721,744,742,742,743,743,721,744,745,722,721,721,744,742,721,742,745,745,745,722,721,744,744,743,741,721,742,722,744,631,632,632,681,654,720,654,719,720,720,720,720,654,654,720,719,720,720,719,720,654,654,680,633,743,678,721,742,744,722,742,745,743,721,722,743,721,721,745,722,721,745,742,722,743,742,742,745,
722,744,721,721,722,742,742,745,744,744,742,743,743,722,721,722,742,721,745,745,722,744,743,741,722,697,638,744,744,722,745,744,721,743,745,743,741,721,742,745,743,721,722,744,741,634,745,745,745,744,745,722,743,743,745,744,741,743,744,722,742,722,745,741,745,721,744,721,742,741,742,742,722,722,742,743,745,741,722,631,681,720,654,720,719,720,658,676,676,676,676,676,676,676,676,659,720,719,719,654,719,654,720,680,632,632,633,742,741,742,722,721,722,745,721,742,744,742,742,741,742,721,742,743,745,744,745,743,
742,743,721,744,741,743,744,741,745,722,743,742,742,721,721,743,741,741,722,743,721,721,742,745,742,742,656,722,721,742,721,721,745,744,721,745,721,744,722,743,743,742,741,742,742,656,741,741,744,741,745,742,742,744,742,743,743,742,744,742,722,745,745,744,744,741,721,745,721,742,741,743,742,745,742,721,631,632,632,681,719,720,654,720,720,658,677,722,721,742,721,722,634,745,742,675,676,676,659,720,654,719,654,654,720,719,655,744,745,744,721,721,743,745,741,743,744,721,743,742,742,745,743,721,742,742,722,742,
743,722,721,741,742,742,745,722,743,742,741,743,742,721,745,721,743,722,743,742,745,744,743,742,742,741,701,698,698,638,745,741,722,721,743,722,721,745,721,744,743,744,742,742,744,656,745,741,741,745,744,741,722,745,745,744,741,744,721,744,741,745,744,744,722,745,721,745,745,745,743,745,722,741,741,631,681,719,720,719,654,720,719,654,658,677,744,721,744,721,745,722,656,742,743,743,743,744,675,676,659,719,719,720,719,654,680,633,722,722,743,721,744,721,722,745,744,745,743,742,742,743,744,741,721,743,745,744,
745,744,741,721,745,745,722,722,741,721,741,744,721,742,722,745,741,743,742,744,722,745,742,741,741,742,743,744,744,701,698,638,744,743,722,744,741,744,722,744,745,722,745,743,745,656,743,722,744,743,722,742,744,741,741,745,721,745,721,745,742,742,742,722,745,744,743,743,743,741,745,745,744,631,632,681,719,654,720,720,654,654,658,676,677,744,745,742,743,743,741,743,678,722,721,722,742,741,745,722,675,659,719,654,720,720,719,680,632,633,721,741,721,743,742,745,742,745,741,744,721,744,721,745,722,742,745,742,
743,742,741,745,742,741,721,742,743,743,744,742,722,722,744,722,722,722,743,742,744,742,722,721,721,743,743,744,722,742,745,656,742,742,721,744,741,742,745,741,745,742,743,722,721,656,745,722,722,745,744,741,721,742,744,721,744,741,631,632,632,632,633,722,721,741,721,742,744,744,721,722,631,681,720,719,654,719,719,654,719,658,677,741,742,721,745,741,743,742,721,743,721,634,722,745,742,721,744,741,745,675,676,676,659,720,719,719,654,680,633,722,741,742,745,744,742,722,722,722,744,722,744,742,741,742,741,741,
743,722,745,745,722,742,721,744,742,745,745,745,745,741,745,742,722,721,745,722,742,721,722,742,742,744,743,744,721,745,722,701,638,722,742,743,745,721,721,721,721,745,744,721,721,656,722,722,744,721,743,743,722,741,721,721,743,631,681,654,719,719,680,632,633,721,744,745,741,745,742,631,681,654,720,719,654,720,719,658,676,677,722,742,743,721,743,745,743,745,741,745,742,678,744,745,744,744,744,745,744,745,742,744,675,659,654,719,720,719,655,744,745,742,742,741,741,742,741,721,743,745,742,721,741,722,722,721,
721,722,745,722,721,743,744,744,743,722,742,741,722,721,744,721,742,743,721,743,745,742,744,721,741,742,745,745,743,741,721,722,656,743,743,744,745,722,742,745,743,745,745,742,742,656,741,742,721,745,743,743,741,721,742,631,632,681,654,654,720,720,719,720,680,633,745,722,722,745,631,681,654,720,719,719,654,658,676,677,744,721,741,721,743,743,745,634,742,631,632,632,632,632,632,633,722,742,742,741,742,745,721,742,744,653,654,654,719,719,655,745,745,744,722,745,745,742,721,721,744,743,744,743,743,745,742,745,
745,744,744,722,744,744,743,722,722,722,745,722,722,721,721,741,743,744,743,721,722,721,744,745,721,745,722,741,721,741,721,721,656,741,722,741,722,722,743,743,721,744,721,744,635,704,722,721,721,722,745,721,721,742,631,681,654,719,654,654,720,720,720,720,720,680,633,742,631,632,681,720,720,719,654,720,658,677,745,741,745,721,742,744,743,722,742,678,632,681,720,720,720,719,654,680,632,632,633,742,741,722,745,741,743,675,659,719,720,719,680,633,745,722,721,722,722,722,741,745,743,722,743,745,722,743,722,743,
721,722,745,722,743,742,742,744,743,743,741,741,743,745,743,744,744,722,743,743,743,743,743,744,721,722,721,722,745,743,741,721,656,722,741,745,745,742,745,745,745,742,741,743,656,745,742,743,722,722,722,721,741,631,681,719,654,720,719,720,654,719,720,654,720,654,680,632,681,654,654,719,654,720,720,658,677,745,742,743,742,745,742,722,744,721,744,653,720,720,719,720,654,720,720,654,654,720,680,633,741,744,722,744,744,744,653,654,719,654,719,680,633,742,722,745,741,745,721,744,744,745,722,741,742,745,741,721,
744,722,744,721,744,741,743,743,742,741,745,722,745,741,722,744,742,743,743,721,743,722,742,722,744,722,741,741,745,742,722,743,656,744,743,744,742,722,722,741,744,721,745,721,656,741,742,744,722,745,745,742,745,653,654,720,654,720,658,676,676,659,654,719,720,720,719,720,720,654,720,654,654,654,658,677,722,745,745,745,721,722,742,745,741,742,631,681,654,720,654,720,743,722,722,654,719,654,720,680,632,633,741,744,721,722,675,676,659,720,654,654,655,742,742,722,741,741,742,741,744,722,721,743,744,744,744,741,
742,743,742,743,721,741,722,744,745,742,744,741,744,721,741,742,721,744,743,742,721,721,743,742,741,721,745,743,744,745,745,741,721,744,741,743,631,632,632,632,632,633,721,742,678,721,722,743,742,721,744,722,631,681,719,719,720,658,677,743,722,675,659,654,654,720,719,654,720,720,654,720,654,658,677,741,743,721,743,721,742,742,742,744,722,741,653,720,719,654,719,720,742,722,742,654,654,654,654,719,720,655,742,722,744,741,744,742,675,659,719,720,655,721,743,742,722,745,722,721,721,744,722,741,722,744,741,721,
743,743,722,722,722,741,721,741,742,744,743,742,722,722,745,744,745,745,743,721,742,742,745,744,722,744,721,634,721,742,722,745,701,638,744,631,681,720,720,654,719,680,633,721,741,722,741,743,741,744,721,741,653,719,720,654,654,655,721,741,742,722,675,676,659,720,719,654,654,720,720,658,676,677,742,745,742,722,744,635,698,698,698,698,698,699,653,654,719,720,654,719,722,745,741,719,654,720,720,654,654,655,697,699,721,722,744,743,745,653,654,654,680,633,745,744,743,745,742,741,743,744,745,743,745,741,742,722,
722,742,742,741,741,744,743,743,743,741,741,721,742,744,742,741,721,742,722,722,745,741,721,744,744,722,745,656,742,745,744,742,745,678,631,681,654,654,654,720,719,720,680,633,721,744,745,722,742,721,743,745,653,654,654,654,658,697,638,743,744,743,743,722,675,676,659,720,654,720,658,677,742,722,743,721,721,697,698,704,722,721,744,745,741,721,653,720,719,654,720,720,654,654,654,719,719,654,658,676,676,677,721,741,700,741,744,745,745,653,654,720,719,680,633,744,742,742,722,721,741,741,745,743,741,743,741,722,
742,722,741,741,741,742,741,722,741,744,721,742,744,743,721,743,741,741,722,634,743,743,722,744,722,722,721,656,744,721,743,741,631,632,681,720,654,654,720,720,654,654,654,680,633,745,721,741,743,634,744,631,681,719,654,720,655,721,656,721,721,741,741,745,745,742,675,676,676,676,677,745,722,742,741,635,699,741,743,744,745,721,722,745,744,745,675,676,676,676,676,676,676,676,676,676,676,676,677,743,722,722,743,722,721,744,742,721,721,653,654,720,654,719,655,721,742,743,742,742,722,721,722,721,722,745,721,721,
744,721,741,741,742,742,722,741,745,745,741,745,742,742,742,743,722,742,722,656,721,722,742,744,742,741,743,656,741,745,741,742,653,720,654,654,720,654,719,719,654,654,720,719,680,633,742,743,745,701,699,681,720,720,719,658,677,745,656,742,742,744,743,742,721,744,741,744,744,722,742,741,742,744,743,704,742,721,742,722,742,721,741,741,722,745,744,721,744,741,744,722,721,634,741,722,721,722,721,721,721,741,741,743,744,745,722,745,742,675,659,720,720,719,655,721,742,744,741,721,721,744,722,721,742,744,742,744,
745,743,743,722,722,744,744,742,721,721,722,741,745,742,741,744,742,741,744,656,742,721,721,744,721,743,745,656,744,741,742,631,681,654,719,719,720,719,658,676,659,654,654,719,720,680,633,744,722,742,653,654,720,654,658,677,742,741,656,744,743,722,722,745,745,741,745,741,745,742,745,721,744,745,678,722,745,744,742,744,743,722,743,741,742,745,743,743,721,744,722,721,722,656,742,744,742,742,744,743,744,745,722,744,741,744,721,742,742,721,653,654,720,720,655,721,721,722,722,744,721,741,744,744,742,745,743,721,
743,745,743,722,721,721,744,743,741,741,742,743,741,745,745,744,742,721,743,656,741,741,742,743,741,721,743,656,744,741,721,653,719,654,719,654,658,676,677,745,675,659,719,719,719,654,680,633,745,631,681,719,654,719,655,743,742,745,656,741,741,722,744,743,743,721,743,743,742,745,721,745,741,744,742,744,744,744,741,741,743,721,741,745,722,743,744,745,743,744,722,743,721,656,743,742,741,741,744,745,741,743,722,721,744,744,742,744,721,745,653,719,720,654,655,742,745,744,741,721,745,745,722,745,742,745,721,744,
744,745,721,741,744,721,721,745,743,741,741,743,721,743,741,742,722,721,745,701,698,639,698,698,698,698,698,704,743,741,631,681,654,720,654,658,677,742,721,743,741,653,719,654,654,654,719,680,632,681,719,720,719,719,655,721,721,721,701,698,698,699,721,743,742,722,721,745,743,722,722,743,631,632,632,632,632,633,741,745,741,744,721,741,741,742,721,744,722,742,742,742,722,743,742,745,722,743,741,721,721,745,721,741,635,698,698,698,698,699,653,719,720,720,655,741,721,722,744,744,745,721,741,722,721,722,745,745,
744,742,721,722,741,744,741,743,744,745,743,721,743,745,744,745,744,721,741,742,722,656,721,744,741,744,722,722,721,631,681,719,654,720,654,655,743,741,742,742,742,675,659,654,654,720,654,654,720,654,720,654,720,658,677,744,721,721,744,743,743,721,742,722,744,743,745,741,722,631,632,632,681,720,719,654,654,680,632,632,633,742,721,741,721,741,741,741,742,745,722,741,722,656,742,722,721,722,722,743,742,744,744,743,656,742,743,744,721,722,653,720,654,654,655,745,745,721,741,721,741,742,742,741,745,744,745,741,
722,743,722,745,743,742,744,631,632,632,632,633,742,741,722,721,721,745,742,722,744,697,698,698,698,698,698,698,699,653,720,719,719,720,658,677,722,721,742,745,744,743,675,659,654,654,719,654,720,720,719,719,658,677,741,744,741,744,742,745,741,744,743,743,722,741,744,745,743,653,720,720,654,720,719,719,719,654,654,719,680,632,632,632,633,743,722,722,722,721,721,741,721,656,721,745,744,743,722,722,742,721,697,698,704,741,745,745,744,742,653,720,719,654,655,742,742,721,745,741,722,741,631,632,632,632,632,633,
741,721,741,743,744,744,631,681,720,719,720,680,633,745,741,744,742,741,744,742,721,742,742,744,745,745,722,745,721,653,720,654,654,720,655,722,743,744,721,743,743,745,744,675,659,720,654,720,720,719,720,658,677,741,722,744,742,722,721,722,721,742,745,741,744,741,741,744,743,653,720,719,720,720,719,719,719,719,719,654,719,719,719,720,680,632,632,632,633,741,744,743,743,678,722,744,744,741,721,744,744,741,743,722,742,722,745,744,743,744,653,719,720,720,655,743,721,741,745,744,722,631,681,719,720,654,654,655,
745,722,743,631,632,632,681,719,719,654,719,719,680,633,743,744,721,741,743,742,721,722,745,741,741,722,721,721,631,681,720,719,654,658,677,721,741,721,745,745,742,743,721,741,675,676,659,719,720,654,658,677,744,743,721,742,742,745,741,745,745,721,741,743,722,743,745,742,722,653,654,719,720,720,654,658,659,654,719,654,654,654,720,720,654,719,654,720,680,632,632,633,741,745,722,745,742,744,744,743,741,744,742,744,745,745,722,743,721,631,681,720,654,654,655,721,744,741,722,631,632,681,719,654,720,719,654,655,
745,631,632,681,719,654,720,654,720,719,719,720,719,680,633,744,744,743,743,741,722,741,744,722,721,745,631,632,681,654,720,720,658,677,742,744,742,722,745,742,721,745,742,743,721,744,675,676,676,676,677,743,743,741,742,744,745,722,745,745,745,745,742,742,741,722,744,721,741,675,659,720,719,719,720,655,675,676,676,659,719,720,719,719,719,719,720,654,719,720,720,680,632,632,633,743,742,722,745,721,742,721,743,745,741,743,742,744,744,653,720,719,719,719,680,632,632,632,632,681,720,654,654,719,720,654,720,655,
631,681,654,720,654,720,654,720,719,719,720,719,720,719,680,633,741,741,741,741,745,721,743,741,745,721,653,654,720,719,720,658,677,741,743,743,721,745,721,745,744,722,743,745,743,721,744,744,721,745,721,742,744,743,741,745,722,722,744,721,721,742,743,745,742,741,721,745,743,741,653,720,719,654,720,655,742,743,745,675,676,676,676,659,654,719,654,720,654,720,654,719,720,720,680,632,632,633,722,741,743,742,721,742,741,721,741,722,721,653,720,654,720,654,654,654,720,719,719,719,654,719,720,654,719,658,676,677,
653,719,654,654,720,654,720,658,676,676,676,659,720,654,720,680,633,744,744,741,743,722,745,721,741,631,681,654,654,654,658,677,744,745,745,743,722,742,742,743,721,744,722,743,743,722,721,744,745,742,722,741,722,744,742,743,744,744,743,721,744,745,744,743,722,742,721,743,745,721,653,720,720,720,719,680,633,743,722,745,743,741,741,675,676,676,676,659,720,654,719,719,720,719,654,719,654,680,632,632,632,632,633,722,721,742,742,745,631,681,654,654,654,654,654,720,719,654,719,720,719,720,654,654,658,677,742,722,
653,720,719,654,654,654,658,677,743,741,745,675,659,719,720,719,680,633,741,745,721,722,722,741,631,681,719,720,719,654,655,721,741,745,744,745,741,743,722,743,745,744,743,745,721,745,721,745,721,744,745,745,721,743,721,721,744,744,722,744,722,721,745,721,744,743,741,744,744,742,675,659,654,720,654,720,655,721,742,745,741,745,742,745,743,722,743,675,676,659,719,719,719,719,654,720,720,720,720,654,719,654,680,632,632,632,632,632,681,654,720,719,720,654,654,720,720,719,720,654,654,658,676,676,677,722,742,743,
653,720,719,654,658,676,677,721,745,745,743,722,675,659,654,654,719,680,633,721,743,745,742,631,681,719,719,654,654,658,677,745,743,744,741,743,721,741,721,744,721,742,742,741,722,722,742,743,744,741,722,721,744,743,743,742,722,741,721,744,743,743,722,741,721,745,742,743,744,722,742,653,720,654,719,719,680,633,722,722,742,722,745,743,741,741,741,721,741,675,676,676,659,654,654,654,654,654,719,720,719,654,654,720,719,654,654,720,654,719,719,720,719,654,719,720,654,654,658,676,676,677,742,743,741,722,721,742,
653,719,720,658,677,745,744,722,744,743,744,722,744,653,654,720,654,720,680,633,741,631,632,681,719,654,654,719,658,677,745,745,741,745,722,743,721,722,742,721,743,742,722,741,742,721,742,722,742,721,743,744,721,743,743,744,722,745,742,742,722,722,722,742,721,745,741,741,721,722,745,675,659,654,720,720,720,655,722,722,744,745,742,741,742,742,744,722,743,743,721,741,675,676,676,659,719,654,719,654,720,654,719,654,654,720,654,654,654,654,720,654,719,654,720,658,676,676,677,741,721,722,742,741,721,721,744,743,
653,654,720,655,744,744,742,741,745,743,743,744,721,675,659,719,719,654,654,680,632,681,719,719,720,654,719,658,677,741,722,743,722,745,722,745,745,744,721,743,721,722,741,741,722,745,744,742,741,745,742,722,742,745,744,743,741,742,745,743,721,745,744,722,742,744,743,745,745,744,744,722,675,659,719,720,654,680,633,722,722,744,742,744,741,743,744,741,741,745,722,721,722,721,741,675,676,676,676,676,659,719,719,654,719,720,719,654,654,654,719,658,676,676,676,677,743,742,743,745,742,722,741,743,741,743,745,721,
675,676,676,677,742,741,745,721,721,742,721,744,721,741,675,659,654,719,719,654,654,654,720,720,654,720,719,655,743,741,741,721,744,721,722,743,744,744,742,744,722,741,743,742,743,722,722,721,742,744,745,722,743,744,722,744,742,743,744,745,742,741,742,743,721,741,722,744,744,741,743,741,745,653,654,719,654,719,680,633,742,745,742,745,721,741,742,743,722,744,742,722,744,722,745,741,745,745,721,744,675,676,676,659,720,654,719,720,720,720,658,677,745,745,721,744,742,721,742,741,743,742,741,745,744,741,742,742,
744,741,741,721,741,744,722,744,721,722,741,721,742,722,744,675,659,654,719,719,654,719,719,654,720,658,676,677,721,741,743,743,721,745,741,743,743,744,721,722,744,741,743,721,741,742,721,721,743,744,742,743,721,721,741,741,744,745,744,744,745,741,721,741,721,745,742,745,635,698,698,722,722,653,654,654,654,720,720,680,633,722,741,721,722,634,742,742,721,721,744,742,745,721,741,744,721,721,741,722,742,721,744,653,654,654,719,654,654,720,655,745,743,744,741,742,743,745,721,741,745,721,742,722,743,743,722,745,
722,722,722,744,743,742,744,745,745,743,745,742,744,745,722,742,675,659,719,654,719,720,654,654,658,677,744,741,744,744,743,721,744,741,722,744,743,742,721,745,743,722,744,744,722,721,743,744,742,721,741,742,721,722,743,722,742,744,741,744,745,741,741,721,743,743,743,745,656,744,744,744,743,675,659,719,654,719,719,719,680,633,722,742,745,656,742,741,743,744,745,741,744,742,745,722,721,722,722,744,743,631,632,681,719,719,654,654,654,658,677,744,744,745,743,745,742,744,743,741,722,744,744,745,745,721,745,745,
741,744,741,744,744,744,741,743,743,722,741,744,741,721,722,722,742,675,659,720,720,654,720,658,677,722,741,721,742,744,743,721,743,744,745,745,743,741,721,741,721,745,741,743,721,744,745,722,744,741,742,745,742,742,721,742,743,722,743,745,742,721,743,745,742,744,744,722,656,741,744,722,742,742,675,659,720,719,720,720,719,680,632,633,745,656,721,722,745,745,745,722,743,722,743,745,743,722,742,743,631,681,720,720,654,720,719,654,658,677,742,722,741,721,742,745,722,742,742,744,743,743,741,722,742,743,743,721,
721,741,721,744,745,744,745,745,742,742,742,722,744,721,722,742,742,744,675,676,676,676,676,677,744,722,722,742,744,741,745,744,745,741,741,741,743,741,744,722,742,744,743,745,744,721,742,721,742,744,744,745,743,722,741,743,721,722,743,744,741,722,722,742,741,721,722,722,656,722,743,721,741,722,743,675,659,719,654,719,720,719,654,680,633,678,745,741,721,745,742,743,722,744,742,744,700,721,631,632,681,719,654,654,720,719,719,720,655,722,742,722,741,744,745,741,722,721,741,745,722,745,745,741,722,742,743,743,
743,743,722,745,743,744,741,742,721,743,744,744,744,744,743,722,741,721,741,743,745,744,634,721,721,744,744,743,741,722,722,741,721,743,745,744,742,742,744,745,745,744,742,721,741,721,722,745,744,745,722,722,742,745,721,742,745,743,744,744,745,722,722,722,721,745,744,743,656,744,742,721,721,741,722,722,675,659,719,654,720,654,654,654,680,632,633,743,744,741,745,721,741,745,744,631,632,632,681,654,720,719,654,719,654,654,658,676,677,722,744,743,721,741,741,722,742,722,741,721,744,743,742,743,742,722,745,744,
744,744,745,745,743,743,722,742,743,744,745,743,741,745,742,741,742,743,745,721,721,745,656,743,743,721,745,721,721,744,743,745,742,745,721,745,722,744,745,741,721,721,742,745,722,721,743,722,722,742,741,742,745,743,743,742,742,722,743,744,722,722,745,744,741,721,742,743,656,743,743,721,743,722,744,745,744,675,659,719,720,720,719,719,720,654,680,632,632,633,631,632,632,632,632,681,654,654,719,719,719,654,719,658,676,676,677,634,744,744,721,744,743,721,721,742,743,743,722,742,742,722,743,745,722,744,745,745,
745,743,741,745,722,743,742,742,741,744,721,721,742,745,745,721,721,722,743,742,742,741,656,722,721,745,743,721,722,745,745,742,721,741,744,741,721,722,745,743,745,745,743,741,742,722,743,741,744,745,721,743,742,741,743,742,722,744,744,741,743,744,721,742,721,722,721,741,656,743,722,744,721,743,743,744,741,744,675,676,676,676,659,654,719,720,719,654,654,680,681,654,719,719,654,720,654,719,720,719,719,719,658,677,744,745,742,701,698,698,699,744,743,744,721,742,743,743,744,743,722,742,741,743,743,744,741,745,
743,722,743,745,741,743,742,744,744,744,742,743,745,744,742,745,722,742,742,744,743,743,656,741,745,741,744,722,743,722,744,745,722,721,743,722,744,741,741,744,745,722,721,741,722,742,741,741,721,721,745,744,745,721,721,741,722,721,745,741,744,743,741,721,722,744,743,743,656,743,722,742,744,743,741,744,741,742,741,722,744,722,675,676,659,654,654,654,720,719,719,719,654,719,719,654,719,654,720,720,658,676,677,722,745,722,742,742,742,742,722,744,742,744,721,722,741,722,722,722,742,744,743,745,744,721,722,742,
721,722,721,743,741,743,743,722,743,741,742,741,745,722,743,722,743,745,743,741,722,743,656,744,722,744,741,744,741,721,744,743,745,743,722,743,743,744,745,744,721,742,741,741,742,744,743,743,743,722,741,743,721,742,741,722,743,743,745,745,741,741,721,721,745,743,742,742,656,721,744,722,721,722,721,742,743,743,722,742,742,721,722,722,675,659,720,654,654,658,659,720,720,654,720,720,720,720,658,676,677,744,722,741,721,745,722,742,744,741,744,722,741,742,721,741,721,742,743,745,744,722,721,742,721,741,721,721,
721,722,722,743,742,743,743,741,722,742,744,722,745,743,722,744,722,744,721,722,743,635,704,721,741,722,722,721,744,744,743,744,745,722,722,745,743,741,742,743,742,745,722,745,722,741,745,744,745,742,721,721,741,745,742,745,743,743,743,741,721,745,745,744,741,742,721,743,656,742,743,721,745,742,744,741,745,745,741,721,722,722,743,722,744,675,676,676,676,677,675,676,676,676,676,676,676,676,677,742,744,741,722,742,743,745,742,721,743,722,744,721,744,742,742,722,721,742,745,722,745,744,741,721,721,721,722,742,
744,743,741,741,741,743,741,721,722,722,741,721,721,721,742,745,721,721,744,722,742,656,744,741,741,741,744,722,741,744,722,721,745,743,722,722,722,743,743,721,722,721,721,744,721,743,742,721,722,744,741,721,721,741,741,743,741,743,722,741,745,741,744,745,741,745,741,741,656,743,742,745,745,744,744,722,742,742,741,743,742,741,721,741,741,721,744,721,744,743,743,744,742,742,722,744,741,745,722,721,743,722,722,743,743,744,744,744,744,741,741,742,721,745,744,742,722,741,741,743,744,745,745,744,745,745,744,745,
745,745,743,721,741,742,722,741,721,722,744,743,743,745,744,722,721,722,742,745,721,656,722,744,743,742,744,744,741,722,745,722,722,742,745,743,744,741,721,742,721,721,744,721,743,743,722,742,721,742,742,742,721,722,743,744,744,741,721,741,745,745,743,634,745,741,744,742,656,721,741,721,743,721,721,743,744,742,743,721,742,741,745,722,745,743,742,741,745,743,742,742,721,744,742,745,744,742,722,744,742,722,741,745,745,745,744,743,745,721,722,743,744,744,743,722,741,745,721,745,722,722,743,721,741,722,745,745,
744,743,743,741,741,744,743,742,741,722,743,742,741,741,744,721,744,722,741,743,721,656,721,742,741,721,741,743,745,722,742,721,742,721,744,745,743,744,745,741,721,743,721,742,721,745,722,722,741,744,744,743,721,721,721,742,741,721,745,743,745,745,721,656,742,722,742,741,656,745,743,744,722,745,722,743,745,743,743,741,743,742,721,742,742,721,741,745,744,744,721,721,741,741,745,743,741,742,721,722,745,741,722,722,722,745,744,741,722,741,741,741,722,722,721,743,745,742,722,743,741,745,743,743,721,743,744,741,
744,745,722,741,721,744,745,744,741,741,742,743,722,721,744,741,722,741,744,743,721,701,698,699,745,743,744,741,745,722,745,721,743,743,722,722,745,721,745,742,744,745,721,722,742,744,745,744,721,742,742,741,721,721,721,721,744,744,722,744,742,744,742,656,742,742,741,745,656,741,743,745,744,741,722,741,722,741,744,743,742,741,741,721,743,744,744,722,742,742,743,741,741,722,745,743,745,744,742,743,741,745,742,722,741,741,721,744,744,743,722,743,722,741,744,745,745,721,722,744,744,741,741,745,743,744,741,743,
745,745,742,742,722,744,741,742,721,742,745,742,743,743,744,721,744,722,742,745,741,742,744,721,742,741,745,745,743,742,745,745,745,745,745,742,741,722,745,722,741,744,744,741,743,741,721,744,741,742,743,743,722,741,742,744,721,744,722,743,722,744,741,656,743,743,742,721,656,744,742,721,742,741,721,722,721,741,742,743,742,743,721,722,743,742,721,743,744,741,721,722,745,721,744,742,722,744,744,743,745,744,721,722,741,744,743,745,742,741,721,744,721,741,743,743,721,741,721,742,742,741,745,721,744,743,743,722,
745,721,721,721,744,744,721,722,745,744,744,722,742,721,741,742,743,721,722,745,743,745,743,742,742,721,742,742,744,743,722,722,743,722,745,744,722,722,743,722,741,741,744,722,744,744,745,745,743,722,742,743,743,742,743,744,741,744,721,742,722,741,744,701,698,698,698,698,704,721,721,741,745,721,742,745,721,743,743,743,721,722,722,741,745,742,722,722,745,741,721,721,741,721,741,742,741,741,744,721,744,741,745,745,744,742,745,741,743,721,742,742,745,744,743,743,743,744,741,743,744,745,741,742,744,744,721,743,
744,744,745,721,722,721,721,742,743,744,745,722,722,722,744,745,722,721,744,721,722,742,741,743,744,721,742,744,744,722,742,722,722,743,721,744,741,745,745,743,744,745,744,745,742,743,744,741,745,745,741,742,741,741,743,743,742,741,741,744,722,742,745,721,742,745,743,743,741,722,745,722,743,744,722,721,722,741,722,745,742,721,721,744,743,742,745,721,721,721,744,721,741,743,722,744,721,722,721,721,743,742,743,722,741,722,722,742,745,745,741,722,743,745,742,741,722,721,745,745,743,741,722,744,744,741,722,721,
745,744,741,744,721,744,722,741,744,744,744,742,722,721,741,722,721,741,722,743,745,744,721,722,722,745,722,742,722,721,721,722,722,741,743,721,722,721,744,722,744,722,743,744,742,745,745,741,722,741,744,741,743,742,744,741,744,744,745,745,741,744,741,744,741,743,742,722,741,744,743,722,744,744,722,741,745,744,741,742,721,722,745,745,741,722,745,741,745,741,741,742,722,745,722,722,743,721,721,742,743,744,743,743,721,742,744,744,741,744,744,722,741,741,741,741,743,743,745,742,741,742,722,742,741,742,744,722,
743,745,721,721,742,741,743,745,744,721,745,742,721,745,743,744,741,741,744,742,744,745,744,745,745,742,745,743,745,741,741,721,742,741,722,743,722,743,722,722,744,743,741,742,744,745,743,745,742,741,742,742,742,745,745,743,745,721,721,745,743,722,742,741,722,721,745,744,742,745,742,721,721,721,741,721,743,741,745,741,741,722,741,745,721,742,742,744,743,721,722,722,744,743,744,742,721,743,745,743,742,741,742,722,721,745,744,721,744,741,742,742,721,742,721,742,722,745,722,742,722,722,722,744,745,742,741,745,
722,721,742,722,743,743,743,744,745,741,745,721,744,721,745,721,745,721,721,744,744,743,743,744,722,722,745,721,721,722,744,721,745,741,742,743,744,741,744,721,745,742,721,741,745,744,743,722,742,741,741,741,744,741,721,744,744,722,744,745,745,743,745,743,744,745,742,722,742,744,741,745,722,722,721,741,744,745,745,744,721,721,744,721,743,741,722,745,741,741,745,722,745,743,741,744,722,742,721,742,744,745,741,743,744,721,744,721,742,744,745,745,745,744,743,722,722,744,743,741,721,722,721,742,745,743,741,721,
742,745,744,742,743,745,745,745,743,721,741,721,742,745,745,742,721,741,742,745,741,745,741,744,722,721,721,744,722,743,741,744,744,741,743,721,742,721,721,721,721,742,742,741,744,745,741,743,743,743,744,741,742,742,743,721,721,743,743,741,744,721,745,741,744,743,745,745,721,742,721,745,721,742,741,742,741,722,741,745,743,721,741,721,745,743,741,745,741,743,744,721,743,742,721,722,744,742,743,722,744,743,741,742,722,743,743,744,745,741,721,741,743,743,742,743,721,741,745,745,743,744,744,743,745,722,721,744,
743,742,722,741,742,721,722,722,722,741,741,745,721,743,744,743,722,741,742,721,721,744,742,742,743,741,745,741,742,743,742,743,721,744,742,721,743,745,745,722,742,722,744,743,744,743,743,722,741,744,744,744,745,721,741,744,745,744,743,721,745,722,741,745,745,742,743,722,722,745,745,744,721,722,721,744,743,745,744,744,742,743,743,744,742,745,722,744,742,744,745,744,744,741,721,744,721,741,722,743,743,721,744,745,744,721,722,741,722,744,741,744,744,742,744,721,743,743,722,745,741,743,722,745,745,741,743,745,
744,721,721,744,745,722,721,741,722,721,744,745,745,742,741,743,722,742,722,741,741,742,745,742,741,741,745,743,744,721,744,745,744,744,744,742,745,741,743,743,745,742,742,745,742,722,745,742,743,745,745,722,742,742,745,744,742,742,744,745,721,744,721,745,745,745,722,721,721,722,721,745,741,742,745,744,722,744,742,721,722,722,722,743,742,741,722,743,745,741,742,742,745,743,741,743,743,722,722,744,744,742,745,743,743,743,744,741,745,743,743,744,721,742,743,743,744,745,745,722,741,722,742,742,741,721,744,742,
721,721,744,745,741,722,721,741,741,745,744,742,744,722,743,722,745,741,745,721,743,741,743,742,745,722,745,745,745,744,722,721,722,743,722,722,722,742,742,743,744,743,743,721,743,745,744,722,742,722,722,721,745,721,722,742,743,743,743,722,743,742,744,745,744,742,742,721,741,721,742,722,741,742,721,744,744,742,741,721,742,745,722,741,744,742,743,745,743,743,722,744,745,721,745,722,742,742,741,743,742,742,722,722,742,741,742,721,743,745,742,745,722,744,741,742,722,743,722,721,743,744,722,722,722,722,722,722,
741,745,722,744,744,722,742,743,741,745,742,722,722,744,745,745,722,745,744,722,744,745,744,721,721,745,742,745,741,745,742,721,722,742,722,745,744,721,742,744,743,745,744,745,741,741,741,745,745,743,742,722,741,742,722,744,722,721,744,743,743,745,745,745,722,722,745,743,722,745,722,745,743,744,742,744,742,744,721,741,743,745,722,745,722,743,744,722,743,744,721,721,744,722,742,743,745,743,743,744,743,745,745,744,743,722,743,745,741,722,722,741,742,743,722,721,742,745,741,741,744,721,744,722,721,722,742,741,
742,742,741,744,744,721,744,721,741,722,742,745,741,721,745,745,742,744,741,744,743,742,743,744,721,721,741,743,741,742,745,744,741,721,741,743,721,744,741,744,721,742,743,744,744,722,722,743,742,745,745,742,722,741,722,742,744,721,722,722,722,742,744,721,721,742,743,741,742,744,744,741,745,722,741,743,741,744,744,742,741,743,743,745,741,741,722,744,743,745,722,741,745,743,741,745,743,745,742,741,743,722,742,742,741,722,745,745,721,742,741,744,741,742,742,744,744,742,721,722,744,742,744,744,741,745,742,744,
722,742,742,744,745,722,741,742,744,742,722,743,741,745,741,742,745,745,744,722,742,742,721,721,744,742,721,722,741,743,743,741,741,743,722,742,722,722,741,741,721,722,743,745,745,721,741,744,744,721,745,721,742,744,722,744,721,745,742,722,744,745,742,745,744,745,741,742,722,742,742,721,745,722,745,741,742,742,742,743,742,741,742,745,744,745,721,722,743,743,721,742,721,742,722,742,722,741,741,722,722,745,745,721,721,743,741,722,744,721,722,741,722,744,745,745,745,741,743,722,721,743,743,721,722,744,743,745,
743,721,745,721,741,742,742,744,741,743,722,743,743,721,721,744,742,721,722,722,721,744,742,745,742,745,721,721,721,743,741,745,741,742,744,721,721,721,743,741,742,741,742,743,744,744,743,722,721,721,722,741,721,742,742,744,741,742,722,742,721,744,721,745,744,745,722,744,722,721,722,743,741,742,745,741,744,743,722,743,722,722,721,744,742,743,744,745,721,741,741,741,745,745,721,744,721,743,721,722,741,743,745,722,742,721,721,744,741,745,742,722,743,745,721,744,743,745,744,722,744,745,722,743,745,742,742,745,
721,721,744,743,743,741,744,744,742,721,742,745,721,721,722,722,745,743,744,721,743,745,743,721,745,721,744,721,742,721,741,721,742,722,742,741,744,744,745,721,743,745,722,742,745,744,721,744,722,722,722,742,742,743,744,745,743,744,743,741,721,745,745,743,742,722,741,743,745,744,722,741,741,742,741,722,744,743,722,744,741,722,741,742,745,722,721,721,741,742,742,722,742,741,744,744,721,741,721,744,745,722,721,742,742,745,721,722,721,722,745,741,722,721,721,745,721,743,744,741,742,743,742,744,741,721,721,744,
742,744,721,744,742,742,721,743,744,722,741,742,742,722,744,741,721,721,744,743,722,743,742,722,744,741,721,721,742,721,741,741,742,743,741,744,745,744,742,722,744,722,742,744,721,742,722,741,744,742,742,722,743,742,742,742,741,721,743,745,744,742,742,742,744,742,745,743,745,741,722,722,743,745,721,745,744,745,721,742,742,745,721,745,745,744,721,742,745,721,742,721,722,722,744,744,741,722,741,742,742,721,744,741,722,742,745,722,721,744,745,744,743,722,741,744,721,721,743,722,744,744,741,742,743,721,722,741
</data>
 </layer>
 <layer id="2" name="foliage" width="128" height="96">
  <data encoding="csv">
0,0,0,0,0,0,0,0,0,0,0,0,0,0,0,0,0,0,0,0,0,0,0,0,0,0,0,0,0,0,0,0,0,0,0,0,0,0,0,0,0,0,0,0,0,0,0,0,0,0,0,0,0,0,0,0,0,0,0,0,0,0,0,0,0,0,0,0,0,0,0,0,0,0,0,0,0,0,0,0,0,0,0,0,0,0,0,0,0,0,0,0,0,0,0,0,0,0,0,0,0,0,0,0,0,0,0,0,0,0,0,0,0,0,0,0,0,0,0,0,0,0,0,0,0,0,0,0,
0,0,0,0,0,0,0,0,0,0,0,0,0,0,0,0,0,0,0,0,0,0,0,0,0,0,0,0,0,0,0,0,0,0,0,0,0,0,0,0,0,0,0,0,0,0,0,0,0,0,0,0,0,0,0,0,0,0,0,0,0,0,0,0,0,0,0,0,0,0,0,0,0,0,0,0,0,0,0,0,0,0,0,0,0,0,0,0,0,0,0,0,0,0,0,0,0,0,0,0,0,0,0,0,0,0,0,0,0,0,0,0,0,0,0,0,0,0,0,0,0,0,0,0,0,0,0,0,
0,0,0,0,0,0,0,0,0,0,0,0,0,0,0,0,0,0,0,0,0,0,0,0,0,0,0,0,0,0,0,0,0,0,0,0,0,0,0,0,0,0,0,0,0,0,0,0,0,0,0,0,0,0,0,0,0,0,0,0,0,0,0,0,0,0,0,0,0,0,0,0,0,0,0,0,0,0,0,0,0,0,0,0,0,0,0,0,0,0,0,0,0,0,0,0,0,0,0,0,0,0,0,0,0,0,0,0,0,0,0,0,0,0,0,0,0,0,0,0,0,0,0,0,0,0,0,0,
0,0,0,0,0,0,0,0,0,0,0,0,0,0,0,0,0,0,0,0,0,0,0,0,0,0,0,0,0,0,0,0,0,0,0,0,0,0,0,0,0,0,0,0,0,0,0,0,0,0,0,0,0,0,0,0,0,0,0,0,0,0,0,0,0,0,0,0,0,0,0,0,0,0,0,0,0,0,0,0,0,0,0,0,0,0,0,0,0,0,0,0,0,0,0,0,0,0,0,0,0,0,0,0,0,0,0,0,0,0,0,0,0,0,0,0,0,0,0,0,0,0,0,0,0,0,0,0,
0,0,0,0,0,0,0,0,0,0,0,0,0,0,0,0,0,0,0,0,0,0,0,0,0,0,0,0,0,0,0,0,0,0,0,0,0,0,0,0,0,0,0,0,0,0,0,0,0,0,0,0,0,0,0,0,0,0,0,0,0,0,0,0,0,0,0,0,0,0,0,0,0,0,0,0,0,0,0,0,0,0,0,0,0,0,0,0,0,0,0,0,0,0,0,0,0,0,0,0,0,0,0,0,0,0,0,0,0,0,0,0,0,0,0,0,0,0,0,0,0,0,0,0,0,0,0,0,
0,0,0,0,0,0,0,0,0,0,0,0,0,0,0,0,0,0,0,0,0,0,0,0,0,0,0,0,0,0,0,0,0,0,0,0,0,0,0,0,0,0,0,0,0,0,0,0,0,0,0,0,0,0,0,0,0,0,0,0,0,0,0,0,0,0,0,0,0,0,0,0,0,0,0,0,0,0,0,0,0,0,0,0,0,0,0,0,0,0,0,0,0,0,0,0,0,0,0,0,0,0,0,0,0,0,0,0,0,0,0,0,0,0,0,0,0,0,0,0,0,0,0,0,0,0,0,0,
0,0,0,0,0,0,0,0,0,0,0,0,0,0,0,0,0,0,0,0,0,0,0,0,0,0,0,0,0,0,0,0,0,0,0,0,0,0,0,0,0,0,0,0,0,0,0,0,0,0,0,0,0,0,0,0,0,0,0,0,0,0,0,0,0,0,0,0,0,0,0,0,0,0,0,0,0,0,0,0,0,0,0,0,0,0,0,0,0,0,0,0,0,0,0,0,0,0,0,0,0,0,0,0,0,0,0,0,0,0,0,0,0,0,0,0,0,0,0,0,0,0,0,0,0,0,0,0,
0,0,0,0,0,0,0,0,0,0,0,0,0,0,0,0,0,0,0,0,0,0,0,0,0,0,0,0,0,0,0,0,0,0,0,0,0,0,0,0,0,0,0,0,0,0,0,0,0,0,0,0,0,0,0,0,0,0,0,0,0,0,0,0,0,0,0,0,0,0,0,0,0,0,0,0,0,0,0,0,0,0,0,0,0,0,0,0,0,0,0,0,0,0,0,0,0,0,0,0,0,0,0,0,0,0,0,0,0,0,0,0,0,0,0,0,0,0,0,0,0,0,0,0,0,0,0,0,
0,0,0,0,0,0,0,0,0,0,0,0,0,0,0,0,0,0,0,0,0,0,0,0,0,0,0,0,0,0,0,0,0,0,0,0,0,0,0,0,0,0,0,0,0,0,0,0,0,0,0,0,0,0,0,0,0,0,0,0,0,0,0,0,0,0,0,0,0,0,0,0,0,0,0,0,0,0,0,0,0,0,0,0,0,0,0,0,0,0,0,0,0,0,0,0,0,0,0,0,0,0,0,0,0,0,0,0,0,0,0,0,0,0,0,0,0,0,0,0,0,0,0,0,0,0,0,0,
0,0,0,0,0,0,0,0,0,0,0,0,0,0,0,0,0,0,0,0,0,0,0,0,0,0,0,0,0,0,0,0,0,0,0,0,0,0,0,0,0,0,0,0,0,0,0,0,0,0,0,0,0,0,0,0,0,0,0,0,0,0,0,0,0,0,0,0,0,0,0,0,0,0,0,0,0,0,0,0,0,0,0,0,0,0,0,0,0,0,0,0,0,0,0,0,0,0,0,0,0,0,0,0,0,0,0,0,0,0,0,0,0,0,0,0,0,0,0,0,0,0,0,0,0,0,0,0,
0,0,0,0,0,0,0,0,0,0,0,0,0,0,0,0,0,0,0,0,0,0,0,0,0,0,0,0,0,0,0,0,0,0,0,0,0,0,0,0,0,0,0,0,0,0,0,0,0,0,0,0,0,0,0,0,0,0,0,0,0,0,0,0,0,0,0,0,0,0,0,0,0,0,0,0,0,0,0,0,0,0,0,0,0,0,0,0,0,0,0,0,0,0,0,0,0,0,0,0,0,0,0,0,0,0,0,0,0,0,0,0,0,0,0,0,0,0,0,0,0,0,0,0,0,0,0,0,
0,0,0,0,0,0,0,0,0,0,0,0,0,0,0,0,0,0,0,0,0,0,0,0,0,0,0,0,0,0,0,0,0,0,0,0,0,0,0,0,0,0,0,0,0,0,0,0,0,0,0,0,0,0,0,0,0,0,0,0,0,0,0,0,0,0,0,0,0,0,0,0,0,0,0,0,0,0,0,0,0,0,0,0,0,0,0,0,0,0,0,0,0,0,0,0,0,0,0,0,0,0,0,0,0,0,0,0,0,0,0,0,0,0,0,0,0,0,0,0,0,0,0,0,0,0,0,0,
0,0,0,0,0,0,0,0,0,0,0,0,0,0,0,0,0,0,0,0,0,0,0,0,0,0,0,0,0,0,0,0,0,0,0,0,0,0,0,0,0,0,0,0,0,0,0,0,0,0,0,0,0,0,0,0,0,0,0,0,0,0,0,0,0,0,0,0,0,0,0,0,0,0,0,0,0,0,0,0,0,0,0,0,0,0,0,0,0,0,0,0,0,0,0,0,0,0,0,0,0,0,0,0,0,0,0,0,0,0,0,0,0,0,0,0,0,0,0,0,0,0,0,0,0,0,0,0,
0,0,0,0,0,0,0,0,0,0,0,0,0,0,0,0,0,0,0,0,0,0,0,0,0,0,0,0,0,0,0,0,0,0,0,0,0,0,0,0,0,0,0,0,0,0,0,0,0,0,0,0,0,0,0,0,0,0,0,0,0,0,0,0,0,0,0,0,0,0,0,0,0,0,0,0,0,0,0,0,0,0,0,0,0,0,0,0,0,0,0,0,0,0,0,0,0,0,0,0,0,0,0,0,0,0,0,0,0,0,0,0,0,0,0,0,0,0,0,0,0,0,0,0,0,0,0,0,
0,0,0,0,0,0,0,0,0,0,0,0,0,0,0,0,0,0,0,0,0,0,0,0,0,0,0,0,0,0,0,0,0,0,0,0,0,0,0,0,0,0,0,0,0,0,0,0,0,0,0,0,0,0,0,0,0,0,0,0,0,0,0,0,0,0,0,0,0,0,0,0,0,0,0,0,0,0,0,0,0,0,0,0,0,0,0,0,0,0,0,0,0,0,0,0,0,0,0,0,0,0,0,0,0,0,0,0,0,0,0,0,0,0,0,0,0,0,0,0,0,0,0,0,0,0,0,0,
0,0,0,0,0,0,0,0,0,0,0,0,0,0,0,0,0,0,0,0,0,0,0,0,0,0,0,0,0,0,0,0,0,0,0,0,0,0,0,0,0,0,0,0,0,0,0,0,0,0,0,0,0,0,0,0,0,0,0,0,0,0,0,0,0,0,0,0,0,0,0,0,0,0,0,0,0,0,0,0,0,0,0,0,0,0,0,0,0,0,0,0,0,0,0,0,0,0,0,0,0,0,0,0,0,0,0,0,0,0,0,0,0,0,0,0,0,0,0,0,0,0,0,0,0,0,0,0,
0,0,0,0,0,0,0,0,0,0,0,0,0,0,0,0,0,0,0,0,0,0,0,0,0,0,0,0,0,0,0,0,0,0,0,0,0,0,0,0,0,0,0,0,0,0,0,0,0,0,0,0,0,0,0,0,0,0,0,0,0,0,0,0,0,0,0,0,0,0,0,0,0,0,0,0,0,0,0,0,0,0,0,0,0,0,0,0,0,0,0,0,0,0,0,0,0,0,0,0,0,0,0,0,0,0,0,0,0,0,0,0,0,0,0,0,0,0,0,0,0,0,0,0,0,0,0,0,
0,0,0,0,0,0,0,0,0,0,0,0,0,0,0,0,0,0,0,0,0,0,0,0,0,0,0,0,0,0,0,0,0,0,0,0,0,0,0,0,0,0,0,0,0,0,0,0,0,0,0,0,0,0,0,0,0,0,0,0,0,0,0,0,0,0,0,0,0,0,0,0,0,0,0,0,0,0,0,0,0,0,0,0,0,0,0,0,0,0,0,0,0,0,0,0,0,0,0,0,0,0,0,0,0,0,0,0,0,0,0,0,0,0,0,0,0,0,0,0,0,0,0,0,0,0,0,0,
0,0,0,0,0,0,0,0,0,0,0,0,0,0,0,0,0,0,1049,1050,1050,1050,1050,1051,0,0,1049,1050,1050,1050,1050,1051,0,0,0,0,0,0,1079,1080,1080,1080,1080,1081,0,0,1079,1080,1080,1080,1080,1081,0,0,0,0,0,0,0,0,0,0,0,0,0,0,0,0,0,0,0,0,0,0,0,0,0,0,0,0,0,0,0,0,0,0,0,0,0,0,0,0,0,0,0,0,0,0,0,0,0,0,0,0,0,0,0,0,0,0,0,0,0,0,0,0,0,0,0,0,0,0,0,0,0,0,0,0,
0,0,0,0,0,0,0,0,0,0,0,0,0,0,0,0,0,0,1054,1055,1055,1055,1055,1056,0,0,1054,1055,1055,1055,1055,1056,0,0,0,0,0,0,1084,1085,1085,1085,1085,1086,0,0,1084,1085,1085,1085,1085,1086,0,0,0,0,0,0,0,0,0,0,0,0,0,0,0,0,0,0,0,0,0,0,0,0,0,0,0,0,0,0,0,0,0,0,0,0,0,0,0,0,0,0,0,0,0,0,0,0,0,0,0,0,0,0,0,0,0,0,0,0,0,0,0,0,0,0,0,0,0,0,0,0,0,0,0,0,
0,0,0,0,0,0,0,0,0,0,0,0,0,0,0,0,0,0,1054,1055,1055,1055,1055,1056,0,0,1054,1055,1055,1055,1055,1056,0,0,0,0,0,0,1084,1085,1085,1085,1085,1086,0,0,1084,1085,1085,1085,1085,1086,0,0,0,0,0,0,0,0,0,0,0,0,0,0,0,0,0,0,0,0,0,0,0,0,0,0,0,0,0,0,0,0,0,0,0,0,0,0,0,0,0,0,0,0,0,0,0,0,0,0,0,0,2664,2664,2664,2664,0,0,0,0,0,0,0,0,0,0,0,0,0,0,0,0,0,0,0,0,
0,0,0,0,0,0,0,0,0,0,0,0,0,0,0,0,0,0,1054,1055,1055,1055,1055,1056,0,0,1054,1055,1055,1055,1055,1056,0,0,0,0,0,0,1084,1085,1085,1085,1085,1086,0,0,1084,1085,1085,1085,1085,1086,0,0,0,0,0,0,0,0,0,0,0,0,0,0,0,0,0,0,0,0,0,0,0,0,0,0,0,0,0,0,0,0,0,0,0,0,0,0,0,0,0,0,0,0,0,0,0,0,0,0,0,0,2664,2664,2664,2664,0,0,0,0,0,0,0,0,0,0,0,0,0,0,0,0,0,0,0,0,
0,0,0,0,0,0,0,0,0,0,0,0,0,0,0,0,0,0,1054,1055,1055,1055,1055,1056,0,0,1054,1055,1055,1055,1055,1056,0,0,0,0,0,0,1084,1085,1085,1085,1085,1086,0,0,1084,1085,1085,1085,1085,1086,0,0,0,0,0,0,0,0,0,0,0,0,0,0,0,0,0,0,0,0,0,0,0,0,0,0,0,0,0,0,0,0,0,0,0,0,0,0,0,0,0,0,0,0,0,0,0,0,0,0,0,0,2664,2664,2664,2664,0,0,0,0,0,0,0,0,0,0,0,0,0,0,0,0,0,0,0,0,
0,0,0,0,0,0,0,0,0,0,0,0,0,0,0,0,0,0,1054,1055,1055,1055,1055,1056,0,0,1054,1055,1055,1055,1055,1056,0,0,0,0,0,0,1084,1085,1085,1085,1085,1086,0,0,1084,1085,1085,1085,1085,1086,0,0,0,0,0,0,0,0,0,0,0,0,0,0,0,0,0,0,0,0,0,0,0,0,0,0,0,0,0,0,0,0,0,0,0,0,0,0,0,0,0,0,0,0,0,0,0,0,0,0,0,0,0,0,0,0,0,0,0,0,0,0,0,0,0,0,0,0,0,0,0,0,0,0,0,0,
0,0,0,0,0,0,0,0,0,0,0,0,0,0,0,0,0,0,1054,1055,1055,1055,1055,1056,0,0,1054,1055,1055,1055,1055,1056,0,0,0,0,0,0,1084,1085,1085,1085,1085,1086,0,0,1084,1085,1085,1085,1085,1086,0,0,0,0,0,0,0,0,0,0,0,0,0,0,0,0,0,0,0,0,0,0,0,0,0,0,0,0,0,0,0,0,0,0,0,0,0,0,0,0,0,0,0,0,0,0,0,0,0,0,0,0,0,0,0,0,0,0,0,0,0,0,0,0,0,0,0,0,0,0,0,0,0,0,0,0,
0,0,0,0,0,0,0,0,0,0,0,0,0,0,0,0,0,0,1059,1060,1060,1060,1060,1061,0,0,1059,1060,1060,1060,1060,1061,0,0,0,0,0,0,1089,1090,1090,1090,1090,1091,0,0,1089,1090,1090,1090,1090,1091,0,0,0,0,0,0,0,0,0,0,0,0,0,0,0,0,0,0,0,0,0,0,0,0,0,0,0,0,0,0,0,0,0,0,0,0,0,0,0,0,0,0,0,0,0,0,0,0,0,0,0,0,0,0,0,0,0,0,0,0,0,0,0,0,0,0,0,0,0,0,0,0,0,0,0,0,
0,0,0,0,0,0,0,0,0,0,0,0,0,0,0,0,0,0,0,0,0,0,0,0,0,0,0,0,0,0,0,0,0,0,0,0,0,0,0,0,0,0,0,0,0,0,0,0,0,0,0,0,0,0,0,0,0,0,0,0,0,0,0,0,0,0,0,0,0,0,0,0,0,0,0,0,0,0,0,0,0,0,0,0,0,0,0,0,0,0,0,0,0,0,0,0,0,0,0,0,0,0,0,0,0,0,0,0,0,0,0,0,0,0,0,0,0,0,0,0,0,0,0,0,0,0,0,0,
0,0,0,0,0,0,0,0,0,0,0,0,0,0,0,0,0,0,0,0,0,0,0,0,0,0,0,0,0,0,0,0,0,0,0,0,0,0,0,0,0,0,0,0,0,0,0,0,0,0,0,0,0,0,0,0,0,0,0,0,0,0,0,0,0,0,0,0,0,0,0,0,0,0,0,0,0,0,0,0,0,0,0,0,0,0,0,0,0,0,0,0,0,0,0,0,0,0,0,0,0,0,0,0,0,0,0,0,0,0,0,0,0,0,0,0,0,0,0,0,0,0,0,0,0,0,0,0,
0,0,0,0,0,0,0,0,0,0,0,0,0,0,0,0,0,0,1049,1050,1050,1050,1050,1051,0,0,1049,1050,1050,1050,1050,1051,0,0,0,0,0,0,1079,1080,1080,1080,1080,1081,0,0,1079,1080,1080,1080,1080,1081,0,0,0,0,0,0,0,0,0,0,0,2666,0,0,0,0,0,0,0,0,0,0,0,0,0,0,0,0,0,0,0,0,0,0,0,0,0,0,0,0,0,0,0,0,0,0,0,0,0,0,0,0,0,0,0,0,0,0,0,0,0,0,0,0,0,0,0,0,0,0,0,0,0,0,0,0,
0,0,0,0,0,0,0,0,0,0,0,0,0,0,0,0,0,0,1054,1055,1055,1055,1055,1056,0,0,1054,1055,1055,1055,1055,1056,0,0,0,0,0,0,1084,1085,1085,1085,1085,1086,0,0,1084,1085,1085,1085,1085,1086,0,0,0,0,0,0,0,0,0,0,0,0,0,0,0,0,0,0,0,0,0,0,0,0,0,0,0,0,0,0,0,0,0,0,0,0,0,0,0,0,0,0,0,0,0,0,0,0,0,0,0,0,0,0,0,0,0,0,0,0,0,0,0,0,0,0,0,0,0,0,0,0,0,0,0,0,
0,0,0,0,0,0,0,0,0,0,0,0,0,0,0,0,0,0,1054,1055,1055,1055,1055,1056,0,0,1054,1055,1055,1055,1055,1056,0,0,0,2661,0,0,1084,1085,1085,1085,1085,1086,0,0,1084,1085,1085,1085,1085,1086,0,0,0,0,0,0,0,0,0,0,0,0,0,0,0,0,0,0,0,0,0,0,0,0,0,0,0,0,0,0,0,0,0,0,0,0,0,0,0,0,0,0,0,0,0,0,0,0,0,0,0,0,0,0,0,0,0,0,0,0,0,0,0,0,0,0,0,0,0,0,0,0,0,0,0,0,
0,0,0,0,0,0,0,0,0,0,0,0,0,0,0,0,0,0,1054,1055,1055,1055,1055,1056,0,0,1054,1055,1055,1055,1055,1056,0,0,0,0,0,0,1084,1085,1085,1085,1085,1086,0,0,1084,1085,1085,1085,1085,1086,0,0,0,0,0,0,0,0,0,0,0,0,0,0,0,0,0,0,0,0,0,0,0,0,2663,0,0,0,0,0,0,0,0,0,0,0,0,0,0,0,0,0,0,0,0,0,0,0,0,0,0,0,0,0,0,0,0,0,0,0,0,0,0,0,0,0,0,0,0,0,0,0,0,0,0,0,
0,0,0,0,0,0,0,0,0,0,0,0,0,0,0,0,0,0,1054,1055,1055,1055,1055,1056,0,0,1054,1055,1055,1055,1055,1056,0,0,0,0,0,0,1084,1085,1085,1085,1085,1086,0,0,1084,1085,1085,1085,1085,1086,0,0,0,0,0,0,0,0,0,0,0,0,0,0,0,0,0,0,0,0,0,0,0,0,0,0,0,0,0,0,0,0,0,0,0,0,0,0,0,0,0,0,0,0,0,0,0,0,0,0,0,0,0,0,0,0,0,0,0,0,0,0,0,0,0,0,0,0,0,0,0,0,0,0,0,0,
0,0,0,0,0,0,0,0,0,0,0,0,0,0,0,0,0,0,1054,1055,1055,1055,1055,1056,0,0,1054,1055,1055,1055,1055,1056,0,0,0,0,0,0,1084,1085,1085,1085,1085,1086,0,0,1084,1085,1085,1085,1085,1086,0,0,0,0,0,0,0,0,0,0,0,0,0,0,0,0,0,0,0,0,0,1425,0,0,0,0,0,0,0,0,0,0,0,0,0,0,0,0,0,0,0,0,0,0,0,0,0,0,0,0,0,0,0,0,0,0,0,0,0,0,0,0,0,0,0,0,0,0,0,0,0,0,0,0,0,0,
0,0,0,0,0,0,0,0,0,0,0,0,0,0,0,0,0,0,1054,1055,1055,1055,1055,1056,0,0,1054,1055,1055,1055,1055,1056,0,0,0,0,0,0,1084,1085,1085,1085,1085,1086,0,0,1084,1085,1085,1085,1085,1086,0,0,0,0,0,0,0,0,0,0,0,0,0,0,0,0,0,0,0,0,0,0,0,0,0,0,0,0,0,0,0,0,0,0,0,0,0,0,0,0,0,0,0,0,0,0,0,0,0,0,0,0,0,0,0,0,0,0,0,0,0,0,0,0,0,0,0,0,0,0,0,0,0,0,0,0,
0,0,0,0,0,0,0,0,0,0,0,0,0,0,0,0,0,0,1059,1060,1060,1060,1060,1061,0,0,1059,1060,1060,1060,1060,1061,0,0,0,0,0,0,1089,1090,1090,1090,1090,1091,0,0,1089,1090,1090,1090,1090,1091,0,0,0,0,0,0,0,0,0,0,0,0,0,0,0,0,0,0,0,0,0,0,0,0,0,0,0,0,0,0,0,0,0,0,0,0,0,0,0,0,0,0,0,0,0,0,0,0,0,0,0,0,0,0,0,0,0,0,0,0,0,0,0,0,0,0,0,0,0,0,0,0,0,0,0,0,
0,0,0,0,0,0,0,0,0,0,0,0,0,0,0,0,0,0,0,0,0,0,0,0,0,0,0,0,0,0,0,0,0,0,0,0,0,0,0,0,0,0,0,0,0,0,0,0,0,0,0,0,0,0,0,0,0,0,0,0,0,0,0,0,0,0,0,0,0,0,0,0,0,0,0,0,0,0,0,0,0,0,0,0,0,0,0,0,0,0,0,0,0,0,0,0,0,0,0,0,0,0,0,0,0,0,0,0,0,0,0,0,0,0,0,0,0,0,0,0,0,0,0,0,0,0,0,0,
0,0,0,0,0,0,0,0,0,0,0,0,0,0,0,0,0,0,0,0,0,0,0,0,0,0,0,0,0,0,0,0,0,0,0,0,0,0,0,0,0,0,0,0,0,0,0,0,0,0,0,0,0,0,0,0,0,0,0,0,0,0,0,0,0,0,0,0,0,0,0,0,0,0,0,0,0,0,0,0,0,0,0,0,0,0,0,0,0,0,0,0,0,0,0,0,0,0,0,0,0,0,0,0,0,0,0,0,0,0,0,0,0,0,0,0,0,0,0,0,0,0,0,0,0,0,0,0,
0,0,0,0,0,0,0,0,0,0,0,0,0,0,0,0,0,0,0,0,0,0,0,0,0,0,0,0,0,0,0,0,0,0,0,0,0,0,0,0,0,0,0,0,0,0,0,0,0,0,0,0,0,0,0,0,0,0,0,0,0,0,0,0,0,0,0,0,0,0,0,0,0,0,0,0,0,0,0,0,0,0,0,0,0,0,0,0,0,0,0,0,0,0,0,0,0,0,0,0,0,0,0,0,0,0,0,0,0,0,0,0,0,0,0,0,0,0,0,0,0,0,0,0,0,0,0,0,
0,0,0,0,0,0,0,0,0,0,0,0,0,0,0,0,0,0,0,0,0,0,0,0,0,0,0,0,0,0,0,0,2663,0,0,0,0,0,0,0,0,0,0,0,0,0,0,0,0,0,0,0,0,0,0,0,0,0,0,0,0,0,0,0,0,0,0,0,0,0,0,0,0,0,0,0,0,0,0,0,0,0,0,0,0,0,0,0,0,0,0,0,0,0,0,0,0,0,0,0,0,0,0,0,0,0,0,0,0,0,0,0,0,0,0,0,0,0,0,0,0,0,0,0,0,0,0,0,
0,0,0,0,0,0,0,0,0,0,0,0,0,0,0,0,0,0,0,0,0,0,0,0,0,0,0,0,0,0,0,0,0,0,0,0,0,0,0,0,0,0,0,0,0,0,0,0,0,0,0,0,0,0,0,0,0,0,0,0,0,0,0,0,0,0,0,0,0,0,0,0,0,0,0,0,0,0,0,0,0,0,0,0,0,0,0,0,0,0,0,0,0,0,0,0,0,0,0,0,0,0,0,0,0,0,0,0,0,0,0,0,0,0,0,0,0,0,0,0,0,0,0,0,0,0,0,0,
0,0,0,0,0,0,0,0,0,0,0,0,0,0,0,0,0,0,0,0,0,0,0,0,0,0,0,0,0,0,0,0,0,0,0,0,0,0,0,0,0,0,0,0,0,0,0,0,0,0,0,0,0,0,0,0,0,0,0,0,0,0,0,0,0,0,0,0,0,0,0,0,0,0,0,0,0,0,0,0,0,0,0,0,0,0,0,0,0,0,0,0,0,0,0,0,0,0,0,0,0,0,0,0,0,0,0,0,0,0,0,0,0,0,0,0,0,0,0,0,0,0,0,0,0,0,0,0,
0,0,0,0,0,0,0,0,0,0,0,0,0,0,0,0,0,0,0,0,0,0,0,0,0,0,0,0,0,0,0,0,0,0,0,0,0,0,0,0,0,0,0,0,0,0,0,0,0,0,0,0,0,0,0,0,0,0,0,0,0,0,0,0,0,0,0,0,0,0,0,0,0,0,0,0,0,0,0,0,0,0,0,0,0,0,0,0,0,0,0,0,0,0,0,0,0,0,1425,0,0,0,0,0,0,0,0,0,0,0,0,0,0,0,0,0,0,0,0,0,0,0,0,0,0,0,0,0,
0,0,0,0,0,0,0,0,0,0,0,0,0,0,0,0,0,0,0,0,0,0,0,0,0,0,0,0,0,0,0,0,0,0,0,0,0,0,0,0,0,0,0,0,0,0,0,0,0,0,0,0,0,0,0,0,0,0,0,0,0,0,0,0,0,0,0,0,0,0,0,0,0,0,0,0,0,0,0,0,0,0,0,0,0,0,0,0,0,0,0,0,0,0,0,0,0,0,0,0,0,0,0,0,0,0,0,0,0,0,0,0,0,0,0,0,0,0,0,0,0,0,0,0,0,0,0,0,
0,0,0,0,0,0,0,0,0,0,0,0,0,0,0,0,0,0,0,0,0,0,0,0,0,0,0,0,0,0,0,0,0,0,0,0,0,0,0,0,0,0,0,0,0,0,0,0,0,0,0,0,0,0,0,0,0,0,0,0,0,0,0,0,0,0,0,0,0,0,0,0,0,0,0,0,0,0,0,0,0,0,0,0,0,0,0,0,0,0,0,0,0,0,0,0,0,0,0,0,0,0,0,0,0,0,0,0,0,0,0,0,0,0,0,0,0,0,0,0,0,0,0,0,0,0,0,0,
0,0,0,0,0,0,0,0,0,0,0,0,0,0,0,0,0,0,0,0,0,0,0,0,0,0,0,0,0,1425,0,0,0,0,0,0,0,0,0,0,0,0,0,0,0,0,0,0,0,0,0,0,0,0,0,0,0,0,0,0,0,0,0,0,0,0,0,0,0,0,0,0,0,0,0,0,0,0,0,0,0,0,0,0,0,0,0,0,0,0,0,0,0,0,0,0,0,0,0,0,0,0,0,0,0,0,0,0,0,0,0,0,0,0,0,0,0,0,0,0,0,0,0,0,0,0,0,0,
0,0,0,0,0,0,0,0,0,0,0,0,0,0,0,0,0,0,0,0,0,0,0,0,0,0,0,0,0,0,0,0,0,0,0,0,0,0,0,0,0,0,0,0,0,0,0,0,0,0,0,0,0,0,0,0,0,0,0,0,0,0,0,0,0,0,0,0,0,0,0,0,0,0,0,0,0,0,0,0,0,0,0,0,0,0,0,0,0,0,0,0,0,0,0,0,0,0,0,0,0,0,0,0,0,0,0,0,0,0,0,0,0,0,0,0,0,0,0,0,0,0,0,0,0,0,0,0,
0,0,0,0,0,0,0,0,0,0,0,0,0,0,0,0,0,0,0,0,0,0,0,0,0,0,0,0,0,0,0,0,0,0,0,0,0,0,0,0,0,0,0,0,0,0,0,0,0,0,0,0,0,0,0,0,0,0,0,0,0,0,0,0,0,0,0,0,0,0,0,0,0,0,0,0,0,0,0,0,0,0,0,0,0,0,0,0,0,0,0,0,0,0,0,0,0,0,0,0,0,0,0,0,0,0,0,0,0,0,0,0,0,0,0,0,0,0,0,0,0,0,0,0,0,0,0,0,
0,0,0,0,0,0,0,0,0,0,0,0,0,0,0,0,0,0,0,0,0,0,0,0,0,0,0,0,0,0,0,0,0,0,0,0,0,0,0,0,0,0,0,0,0,0,0,0,0,0,0,0,0,0,0,0,0,0,0,0,0,0,0,0,0,0,0,0,0,0,0,0,0,0,0,0,0,0,0,0,0,0,0,0,0,0,0,0,0,0,0,0,0,0,0,0,0,0,0,0,0,0,0,0,0,0,0,0,0,0,0,0,0,0,0,0,0,0,0,0,0,0,0,0,0,0,0,0,
0,0,0,0,0,0,0,0,0,0,0,0,0,0,0,0,0,0,0,0,0,0,0,0,0,0,0,0,0,0,0,0,0,0,0,0,0,0,0,0,0,0,0,0,0,0,0,0,0,0,0,0,0,0,0,0,0,0,0,0,0,0,0,0,0,0,0,0,0,0,0,0,0,0,0,0,0,0,0,0,0,0,0,0,0,0,0,0,0,0,0,0,0,0,0,0,0,0,0,0,0,0,0,0,0,0,0,0,0,0,0,0,0,0,0,0,0,0,0,0,0,0,0,0,0,0,0,0,
0,0,0,0,0,0,0,0,0,0,0,0,0,0,0,0,0,0,0,0,0,0,0,0,0,0,0,0,0,0,0,0,0,0,0,0,0,0,0,0,0,0,0,0,0,0,0,0,0,0,0,0,0,0,0,0,0,0,0,0,0,0,0,0,0,0,0,0,0,0,0,0,0,0,0,0,0,0,0,0,1425,0,0,2661,0,0,0,0,0,0,0,0,0,0,0,0,0,0,0,0,0,0,0,0,0,0,0,0,0,0,0,0,0,0,0,0,0,0,0,0,0,0,0,0,0,0,0,0,
0,0,0,0,0,0,0,0,0,0,0,0,0,0,0,0,0,0,0,0,0,0,0,0,0,0,0,0,0,0,0,0,0,0,0,0,0,0,0,0,0,0,0,0,0,0,0,0,0,0,0,0,0,0,0,0,0,0,0,0,0,0,0,0,0,0,0,0,0,0,0,0,0,0,0,0,0,0,0,0,0,0,0,0,0,0,0,0,0,0,0,0,0,0,0,0,0,0,0,0,0,0,0,0,0,0,0,0,0,0,0,0,0,0,0,0,0,0,0,0,0,0,0,0,0,0,0,0,
0,0,0,0,0,0,0,0,0,0,0,0,0,0,0,0,0,0,0,0,0,0,0,0,0,0,0,0,0,0,0,0,0,0,0,0,0,0,0,0,0,0,0,0,0,0,0,0,0,0,0,0,0,0,0,0,0,0,0,0,0,0,0,0,0,0,0,0,0,0,0,0,0,0,0,0,0,0,0,0,0,0,0,0,0,0,0,0,0,0,0,0,0,0,0,0,0,0,0,0,0,0,0,0,0,0,0,0,0,0,0,0,0,0,0,0,0,0,0,0,0,0,0,0,0,0,0,0,
0,0,0,0,0,0,0,0,0,0,0,0,0,0,0,0,0,0,0,0,0,0,0,0,0,0,0,0,0,0,0,0,0,0,0,0,0,0,0,0,0,0,0,0,0,0,0,0,0,0,0,0,0,0,0,0,0,0,0,0,0,0,0,0,0,0,0,0,0,0,0,0,0,0,0,0,0,0,0,0,0,0,0,0,0,0,0,0,0,0,0,0,0,0,2659,0,0,0,0,0,0,0,0,0,0,0,0,0,0,0,0,0,0,0,0,0,0,0,0,0,0,0,0,0,0,0,0,0,
0,0,0,0,0,0,0,0,0,0,0,0,0,0,0,0,0,0,0,0,0,1729,0,0,0,0,0,0,0,0,0,0,0,0,0,0,0,0,0,0,0,0,0,0,0,0,0,0,0,0,0,0,0,0,0,0,0,0,0,0,0,0,0,0,0,0,0,0,0,0,0,0,0,0,0,0,0,0,0,0,0,0,0,0,2627,0,0,0,0,0,0,0,0,0,0,0,0,0,0,0,0,0,0,0,0,0,0,0,0,0,0,0,0,0,0,0,0,0,0,0,0,0,0,0,0,0,0,0,
0,0,0,0,0,0,0,0,0,0,0,0,0,0,0,0,0,0,0,0,0,0,0,0,0,0,0,0,0,0,0,0,0,0,0,0,0,0,0,0,0,0,0,0,0,0,0,0,0,0,0,0,0,0,0,0,0,0,0,0,0,0,0,0,0,0,0,0,0,0,0,0,0,0,0,0,0,0,0,0,0,0,0,0,0,0,0,0,0,0,0,0,0,0,0,0,0,0,0,0,0,0,0,0,0,0,0,0,0,0,0,0,0,0,0,0,0,0,0,0,0,0,0,0,0,0,0,0,
0,0,0,0,0,0,0,0,0,0,0,0,0,0,0,0,2662,0,0,0,0,0,0,0,0,0,0,0,0,0,0,0,0,0,0,0,0,0,0,0,0,0,0,0,0,0,0,0,0,0,0,0,0,0,0,0,0,0,0,0,0,0,0,0,0,0,0,0,0,0,0,0,0,0,0,0,0,0,0,0,0,0,0,0,0,0,0,0,0,0,0,0,0,0,0,0,0,0,0,0,0,0,0,0,0,0,0,0,0,0,0,0,0,0,0,0,0,0,0,0,0,0,0,0,0,0,0,0,
0,0,0,0,0,0,0,0,0,0,0,0,0,0,0,0,0,0,0,0,0,0,0,0,0,0,0,0,0,0,0,0,0,0,0,0,0,0,0,0,0,0,0,0,0,0,0,0,0,0,0,0,0,0,0,0,0,0,0,0,0,0,0,0,0,0,0,0,0,0,0,0,0,0,0,0,0,0,0,0,0,0,0,0,0,0,0,0,0,0,0,0,0,0,0,0,0,0,0,0,0,0,0,0,0,0,0,0,0,0,0,0,0,0,0,0,0,0,0,0,0,0,0,0,0,0,0,0,
0,0,0,0,0,0,0,0,0,0,0,0,0,0,0,0,0,0,0,0,0,0,0,0,0,0,0,0,0,0,0,0,0,0,0,0,0,0,0,0,0,0,0,0,0,0,0,0,0,0,0,0,0,0,0,0,0,0,0,0,0,0,0,0,0,0,0,0,0,0,0,0,0,0,0,0,0,0,0,0,0,0,0,0,0,0,0,0,0,0,0,0,0,0,0,0,0,0,0,0,0,0,0,0,0,0,0,0,0,0,0,0,0,0,0,0,0,0,0,0,0,0,0,0,0,0,0,0,
0,0,0,0,0,0,0,0,0,0,0,0,0,0,0,0,0,0,0,0,0,0,0,0,0,0,0,0,0,0,0,0,0,0,0,0,0,0,0,0,0,0,0,0,0,0,0,0,0,0,0,0,0,0,0,0,0,0,0,0,0,0,0,0,0,0,0,0,0,0,0,0,0,0,0,0,0,0,0,0,0,0,0,0,0,0,0,0,0,0,0,0,0,0,0,0,0,0,0,0,0,0,0,0,0,0,0,0,0,0,0,0,0,0,0,0,0,0,0,0,0,0,0,0,0,0,0,0,
0,0,0,0,0,0,0,0,0,0,0,0,0,0,0,0,0,0,0,0,0,0,0,0,0,0,0,0,0,0,0,0,0,0,0,0,0,0,0,0,0,0,0,0,0,0,0,0,0,0,0,0,0,0,0,0,0,0,0,0,0,0,0,0,0,0,0,0,0,0,0,0,0,0,0,0,0,0,0,0,0,0,0,0,0,0,0,0,0,0,0,0,0,0,0,0,0,0,0,0,0,0,0,0,0,0,0,0,0,0,0,0,0,0,0,0,0,0,0,0,0,0,0,0,0,0,0,0,
0,0,0,0,0,0,0,0,0,0,0,0,0,0,0,0,0,0,0,0,0,0,0,0,0,0,0,0,0,0,0,0,0,0,0,0,0,0,0,0,0,0,0,0,0,0,0,0,0,0,0,0,0,0,0,0,0,0,0,0,0,0,2632,0,0,0,0,0,0,0,0,0,0,0,0,0,0,0,0,0,0,0,0,0,0,0,0,0,0,0,0,0,0,0,0,0,0,0,0,0,0,0,0,0,0,0,0,0,0,0,0,0,0,0,0,0,0,0,0,0,0,0,0,0,0,0,0,0,
0,0,0,0,0,0,0,0,0,0,0,0,0,0,0,0,0,0,0,0,0,0,0,0,0,0,0,0,0,0,0,0,0,0,0,0,0,0,0,0,0,0,0,0,0,0,0,0,0,0,0,0,0,0,0,0,0,0,0,0,0,0,0,0,0,0,0,0,0,0,0,0,0,0,0,0,0,0,0,0,0,0,0,0,0,0,0,0,0,0,0,0,0,0,0,0,0,0,0,0,0,0,0,0,0,0,0,0,0,0,0,0,0,0,0,0,0,0,0,0,0,0,0,0,0,0,0,0,
0,0,0,0,0,0,0,0,0,0,0,0,0,0,0,0,0,0,0,0,0,0,0,0,0,0,0,0,0,0,0,0,0,0,0,0,0,0,2662,0,0,0,0,0,0,0,0,0,0,0,0,0,0,0,0,0,0,0,0,0,0,0,0,0,0,0,0,0,0,0,0,0,0,0,0,0,0,0,0,0,0,0,0,0,0,0,0,0,0,0,0,0,0,0,0,0,0,0,0,0,0,0,0,0,0,0,0,0,0,0,0,0,0,0,0,0,0,0,0,0,0,0,0,0,0,0,0,0,
0,0,0,0,0,0,0,0,0,0,0,0,0,0,0,0,0,0,0,0,0,0,0,0,0,0,0,0,0,0,0,0,0,0,0,0,0,0,0,0,0,0,0,0,0,0,0,0,0,0,0,0,0,0,0,0,0,0,0,0,0,0,0,0,0,0,0,0,0,0,0,0,0,0,0,0,0,0,0,0,0,0,0,0,0,0,0,0,0,0,0,0,0,0,0,0,0,0,0,0,0,0,0,0,0,0,0,0,0,0,0,0,0,0,0,0,0,0,0,0,0,0,0,0,0,0,0,0,
0,0,0,0,0,0,0,0,0,0,0,0,0,0,0,0,0,0,0,0,0,0,0,0,0,0,0,0,0,0,0,0,0,0,0,0,0,0,0,0,0,0,0,0,0,0,0,0,0,0,0,0,0,0,0,0,0,0,0,0,0,0,0,0,0,0,0,0,0,0,0,0,0,0,0,0,0,0,0,0,0,0,0,0,0,0,0,0,0,0,0,0,0,0,0,0,0,0,0,0,0,0,0,0,0,0,0,0,0,0,0,0,0,0,0,0,0,0,0,0,0,0,0,0,0,0,0,0,
0,0,0,0,0,0,0,0,0,0,0,0,0,0,0,0,0,0,0,0,0,0,0,0,0,0,0,0,0,0,0,0,0,0,0,0,0,0,0,0,0,0,0,0,0,0,2630,0,0,0,0,0,0,0,0,0,0,0,0,0,0,0,0,0,0,0,0,0,0,0,0,0,0,0,0,0,0,0,0,0,0,0,0,0,0,0,0,0,0,0,0,0,0,0,0,0,0,0,0,0,0,0,0,0,0,0,0,0,0,0,0,0,0,0,0,0,0,0,0,0,0,0,0,0,0,0,0,0,
0,0,0,0,0,0,0,0,0,0,0,0,0,0,0,0,0,0,0,0,0,0,0,0,0,0,0,0,0,0,0,0,0,0,0,0,0,0,0,0,0,0,0,0,0,0,0,0,0,0,0,0,0,0,0,0,0,0,0,0,0,0,0,0,0,0,0,0,0,0,0,0,0,0,0,0,0,0,0,0,0,0,0,0,0,0,0,0,0,0,0,0,0,0,0,0,0,0,0,0,0,0,0,0,0,0,0,0,0,0,0,0,0,0,0,0,0,0,0,0,0,0,0,0,0,0,0,0,
0,0,0,0,0,0,0,0,0,0,0,0,0,0,0,0,0,0,0,0,0,0,0,0,0,0,0,0,0,0,0,0,0,0,0,0,0,0,0,0,0,0,0,0,0,0,0,0,0,0,0,0,0,0,0,0,0,0,0,0,0,0,0,0,0,0,0,0,0,0,0,0,0,0,0,0,0,0,0,0,0,0,0,0,0,0,0,0,0,0,0,0,0,0,0,0,0,0,0,0,0,0,0,0,0,0,0,0,0,0,0,0,0,0,0,0,0,0,0,0,0,0,0,0,0,0,0,0,
0,0,0,0,0,0,0,0,0,0,0,0,0,0,0,0,0,0,0,0,0,0,0,0,0,0,0,0,0,0,0,0,0,0,0,0,0,0,0,0,0,0,0,0,0,0,0,0,0,0,0,0,0,0,0,0,0,0,0,0,0,0,0,0,0,0,0,0,0,0,0,0,0,0,0,0,0,0,0,0,0,0,0,0,0,0,0,0,0,0,0,0,0,0,0,0,0,0,0,0,0,0,0,0,0,0,0,0,0,0,0,0,0,0,0,0,0,0,0,0,0,0,0,0,0,0,0,0,
0,0,0,0,0,0,0,0,0,0,0,0,0,0,0,0,0,0,0,0,0,0,0,0,0,0,0,0,0,0,0,0,0,0,0,0,0,0,0,0,0,0,0,0,0,0,0,0,0,0,0,0,0,0,0,0,0,0,0,0,0,0,0,0,0,0,0,0,0,0,0,0,0,0,0,0,0,0,0,0,0,0,0,0,0,0,0,0,0,0,0,0,0,0,0,0,0,0,0,0,0,0,0,0,0,0,0,0,0,0,0,0,0,0,0,0,0,0,0,0,0,0,0,0,0,0,0,0,
0,0,0,0,0,0,0,0,0,0,0,0,0,0,0,0,0,0,0,0,0,0,0,0,0,0,0,0,0,0,0,0,0,0,0,0,0,0,0,0,0,0,0,0,0,0,0,0,0,0,0,0,0,0,0,0,0,0,0,2663,0,0,0,0,0,0,2662,0,0,0,0,0,0,0,0,0,0,0,0,0,0,0,0,0,0,0,0,0,0,0,0,0,0,0,0,0,0,0,0,0,0,0,0,0,0,0,0,0,0,0,0,0,0,0,0,0,0,0,0,0,0,0,0,0,0,0,0,0,
0,0,0,0,0,0,0,0,0,0,0,0,0,0,0,0,0,0,0,0,0,0,0,0,0,0,0,0,0,0,0,0,0,0,0,0,0,0,0,0,0,0,0,0,0,0,0,0,0,0,0,0,0,0,0,0,0,0,0,0,0,0,0,0,0,0,0,0,0,0,0,0,0,0,0,0,0,0,0,0,0,0,0,0,0,0,0,0,0,0,0,0,0,0,0,0,0,0,0,0,0,0,0,0,0,0,0,0,0,0,0,0,0,0,0,0,0,0,0,0,0,0,0,0,0,0,0,0,
0,0,0,0,0,0,0,0,0,0,0,0,0,0,0,0,0,0,0,0,0,0,0,0,0,0,0,0,0,0,0,0,0,0,0,0,0,0,0,0,0,0,0,0,0,0,0,0,0,0,0,0,0,0,0,0,0,0,0,0,0,0,0,0,0,0,0,0,0,0,0,0,0,0,0,0,0,0,0,0,0,0,0,0,0,0,0,0,0,0,0,0,0,0,0,0,0,0,0,0,0,0,0,0,0,0,0,0,0,0,0,0,0,0,0,0,0,0,0,0,0,0,0,0,0,0,0,0,
0,0,0,0,0,0,0,0,0,0,0,0,0,0,0,0,0,0,0,0,0,0,0,0,0,0,0,0,0,0,0,0,0,0,0,0,0,0,0,0,0,0,0,0,0,0,0,0,0,0,0,0,0,0,0,0,0,0,0,0,0,0,0,0,0,0,0,0,0,0,0,0,0,0,0,0,0,0,0,0,0,0,0,0,0,0,0,0,0,0,0,0,0,0,0,0,0,0,0,0,0,0,0,0,0,0,0,0,0,0,0,0,0,0,0,0,0,0,0,0,0,0,0,0,0,0,0,0,
0,0,0,0,0,0,0,0,0,0,0,0,0,0,0,0,0,0,0,0,0,0,0,0,0,0,0,0,0,0,0,0,0,0,0,0,0,0,0,0,0,0,0,0,0,0,0,0,0,0,0,0,0,0,0,0,0,0,0,0,0,0,0,0,0,0,0,0,0,0,0,0,0,0,0,0,0,0,0,0,0,0,0,0,0,0,0,0,0,0,0,0,0,0,0,0,0,0,0,0,0,0,0,0,0,0,0,0,0,0,0,0,0,0,0,0,0,0,0,0,0,0,0,0,0,0,0,0,
0,0,0,0,0,0,0,0,0,0,0,0,0,0,0,0,0,0,0,0,0,0,0,0,0,0,0,0,0,0,0,0,0,0,0,0,0,0,0,0,0,0,0,0,0,0,0,0,0,0,0,0,0,0,0,0,0,0,0,0,0,0,0,0,0,0,0,0,0,0,0,0,0,0,0,0,0,0,0,0,0,0,0,0,0,0,0,0,0,0,0,0,0,0,0,0,0,0,0,0,0,0,0,0,0,0,0,0,0,0,0,0,0,0,0,0,0,0,0,0,0,0,0,0,0,0,0,0,
0,0,0,0,0,0,0,0,0,0,0,0,0,0,0,0,0,0,0,0,0,0,0,0,0,0,0,0,0,0,0,0,0,0,0,0,0,0,0,0,0,0,0,0,0,0,0,0,0,0,0,0,0,0,0,0,0,0,0,0,0,0,0,0,0,0,0,0,0,0,0,0,0,0,0,0,0,0,0,0,0,0,0,0,0,0,0,0,0,0,0,0,0,0,0,0,0,0,0,0,0,0,0,0,0,0,0,0,0,0,0,0,0,0,0,0,0,0,0,0,0,0,0,0,0,0,0,0,
0,0,0,0,0,0,0,0,0,0,0,0,0,0,0,0,0,0,0,0,0,0,0,0,0,0,0,0,0,0,0,0,0,0,0,0,0,0,0,0,0,0,0,0,0,0,0,0,0,0,0,0,0,0,0,0,0,0,0,0,0,0,0,0,0,0,0,0,0,0,0,0,0,0,0,0,0,0,0,0,0,0,0,0,0,0,0,0,0,0,0,0,0,0,0,0,0,0,0,0,0,0,0,0,0,0,0,0,0,0,0,0,0,0,0,0,0,0,0,0,0,0,0,0,0,0,0,0,
0,0,0,0,0,0,0,0,0,0,0,0,0,0,0,0,0,0,0,0,0,0,0,0,0,0,0,0,0,0,0,0,0,0,0,0,0,0,0,0,0,0,0,0,0,0,0,0,0,0,0,0,0,0,0,0,0,0,0,0,0,0,0,0,0,0,0,0,0,0,0,0,0,0,0,0,0,0,0,0,0,0,0,0,0,0,0,0,0,0,0,0,0,0,0,0,0,0,0,0,0,0,0,0,0,0,0,0,0,0,0,0,0,0,0,0,0,0,0,0,0,0,0,0,0,0,0,0,
0,0,0,0,0,0,0,0,0,0,0,0,0,0,0,0,0,0,0,0,0,0,0,0,0,0,0,0,0,0,0,0,0,0,0,0,0,0,0,0,0,0,0,0,0,0,0,0,0,0,0,0,0,0,0,0,0,0,0,0,0,0,0,0,0,0,0,0,0,0,0,0,0,0,0,0,0,0,0,0,0,0,0,0,0,0,0,0,0,0,0,0,0,0,0,0,0,0,0,0,0,0,0,0,0,0,0,0,0,0,0,0,0,0,0,0,0,0,0,0,0,0,0,0,0,0,0,0,
0,0,0,0,0,0,0,0,0,0,0,0,0,0,0,0,0,0,0,0,0,0,0,0,0,0,0,0,0,0,0,0,0,0,0,0,0,0,0,0,0,0,0,0,0,0,0,0,0,0,0,0,0,0,0,0,0,0,0,0,0,0,0,0,0,0,0,0,0,0,0,0,0,0,0,0,0,0,0,0,0,0,0,0,0,0,0,0,0,0,0,0,0,0,0,0,0,0,0,0,0,0,0,0,0,0,0,0,0,0,0,0,0,0,0,0,0,0,0,0,0,0,0,0,0,0,0,0,
0,0,0,0,0,0,0,0,0,0,0,0,0,0,0,0,0,0,0,0,0,0,0,0,0,0,0,0,0,0,0,0,0,0,0,0,0,0,0,0,0,0,0,0,0,0,0,0,0,0,0,0,0,0,0,0,0,0,0,0,0,0,0,0,0,0,0,0,0,0,0,0,0,0,0,0,0,0,0,0,0,0,0,0,0,0,0,0,0,0,0,0,0,0,0,0,0,0,0,0,0,0,0,0,0,0,0,0,0,0,0,0,0,0,0,0,0,0,0,0,0,0,0,0,0,0,0,0,
0,0,0,0,0,0,0,0,0,0,0,0,0,0,0,0,0,0,0,0,0,0,0,0,0,0,0,0,0,0,0,0,0,0,0,0,0,0,0,0,0,0,0,0,0,0,0,0,0,0,0,0,0,0,0,0,0,0,0,0,0,0,0,0,0,0,0,0,0,0,0,0,0,0,0,0,0,0,0,0,0,0,0,0,0,0,0,0,0,0,0,0,0,0,0,0,0,0,0,0,0,0,0,0,0,0,0,0,0,0,0,0,0,0,0,0,0,0,0,0,0,0,0,0,0,0,0,0,
0,0,0,0,0,0,0,0,0,0,0,0,0,0,0,0,0,0,0,0,0,0,0,0,0,0,0,0,0,0,0,0,0,0,0,0,0,0,0,0,0,0,0,0,0,0,0,0,0,0,0,0,0,0,0,0,0,0,0,0,0,0,0,0,0,0,0,0,0,0,0,0,0,0,0,0,0,0,0,0,0,0,0,0,0,0,0,0,0,0,0,0,0,0,0,0,0,0,0,0,0,0,0,0,0,0,0,0,0,0,0,0,0,0,0,0,0,0,0,0,0,0,0,0,0,0,0,0,
0,0,0,0,0,0,0,0,0,0,0,0,0,0,0,0,0,0,0,0,0,0,0,0,0,0,0,0,0,0,0,0,0,0,0,0,0,0,0,0,0,0,0,0,0,0,0,0,0,0,0,0,0,0,0,0,0,0,0,0,0,0,0,0,0,0,0,0,0,0,0,0,0,0,0,0,0,0,0,0,0,0,0,0,0,0,0,0,0,0,0,0,0,0,0,0,0,0,0,0,0,0,0,0,0,0,0,0,0,0,0,0,0,0,0,0,0,0,0,0,0,0,0,0,0,0,0,0,
0,0,0,0,0,0,0,0,0,0,0,0,0,0,0,0,0,0,0,0,0,0,0,0,0,0,0,0,0,0,0,0,0,0,0,0,0,0,0,0,0,0,0,0,0,0,0,0,0,0,0,0,0,0,0,0,0,0,0,0,0,0,0,0,0,0,0,0,0,0,0,0,0,0,0,0,0,0,0,0,0,0,0,0,0,0,0,0,0,0,0,0,0,0,0,0,0,0,0,0,0,0,0,0,0,0,0,0,0,0,0,0,0,0,0,0,0,0,0,0,0,0,0,0,0,0,0,0,
0,0,0,0,0,0,0,0,0,0,0,0,0,0,0,0,0,0,0,0,0,0,0,0,0,0,0,0,0,0,0,0,0,0,0,0,0,0,0,0,0,0,0,0,0,0,0,0,0,0,0,0,0,0,0,0,0,0,0,0,0,0,0,0,0,0,0,0,0,0,0,0,0,0,0,0,0,0,0,0,0,0,0,0,0,0,0,0,0,0,0,0,0,0,0,0,0,0,0,0,0,0,0,0,0,0,0,0,0,0,0,0,0,0,0,0,0,0,0,0,0,0,0,0,0,0,0,0,
0,0,0,0,0,0,0,0,0,0,0,0,0,0,0,0,0,0,0,0,0,0,0,0,0,0,0,0,0,0,0,0,0,0,0,0,0,0,0,0,0,0,0,0,0,0,0,0,0,0,0,0,0,0,0,0,0,0,0,0,0,0,0,0,0,0,0,0,0,0,0,0,0,0,0,0,0,0,0,0,0,0,0,0,0,0,0,0,0,0,0,0,0,0,0,0,0,0,0,0,0,0,0,0,0,0,0,0,0,0,0,0,0,0,0,0,0,0,0,0,0,0,0,0,0,0,0,0,
0,0,0,0,0,0,0,0,0,0,0,0,0,0,0,0,0,0,0,0,0,0,0,0,0,0,0,0,0,0,0,0,0,0,0,0,0,0,0,0,0,0,0,0,0,0,0,0,0,0,0,0,0,0,0,0,0,0,0,0,0,0,0,0,0,0,0,0,0,0,0,0,0,0,0,0,0,0,0,0,0,0,0,0,0,0,0,0,0,0,0,0,0,0,0,0,0,0,0,0,0,0,0,0,0,0,0,0,0,0,0,0,0,0,0,0,0,0,0,0,0,0,0,0,0,0,0,0,
0,0,0,0,0,0,0,0,0,0,0,0,0,0,0,0,0,0,0,0,0,0,0,0,0,0,0,0,0,0,0,0,0,0,0,0,0,0,0,0,0,0,0,0,0,0,0,0,0,0,0,0,0,0,0,0,0,0,0,0,0,0,0,0,0,0,0,0,0,0,0,0,0,0,0,0,0,0,0,0,0,0,0,0,0,0,0,0,0,0,0,0,0,0,0,0,0,0,0,0,0,0,0,0,0,0,0,0,0,0,0,0,0,0,0,0,0,0,0,0,0,0,0,0,0,0,0,0,
0,0,0,0,0,0,0,0,0,0,0,0,0,0,0,0,0,0,0,0,0,0,0,0,0,0,0,0,0,0,0,0,0,0,0,0,0,0,0,0,0,0,0,0,0,0,0,0,0,0,0,0,0,0,0,0,0,0,0,0,0,0,0,0,0,0,0,0,0,0,0,0,0,0,0,0,0,0,0,0,0,0,0,0,0,0,0,0,0,0,0,0,0,0,0,0,0,0,0,0,0,0,0,0,0,0,0,0,0,0,0,0,0,0,0,0,0,0,0,0,0,0,0,0,0,0,0,0,
0,0,0,0,0,0,0,0,0,0,0,0,0,0,0,0,0,0,0,0,0,0,0,0,0,0,0,0,0,0,0,0,0,0,0,0,0,0,0,0,0,0,0,0,0,0,0,0,0,0,0,0,0,0,0,0,0,0,0,0,0,0,0,0,0,0,0,0,0,0,0,0,0,0,0,0,0,0,0,0,0,0,0,0,0,0,0,0,0,0,0,0,0,0,0,0,0,0,0,0,0,0,0,0,0,0,0,0,0,0,0,0,0,0,0,0,0,0,0,0,0,0,0,0,0,0,0,0,
0,0,0,0,0,0,0,0,0,0,0,0,0,0,0,0,0,0,0,0,0,0,0,0,0,0,0,0,0,0,0,0,0,0,0,0,0,0,0,0,0,0,0,0,0,0,0,0,0,0,0,0,0,0,0,0,0,0,0,0,0,0,0,0,0,0,0,0,0,0,0,0,0,0,0,0,0,0,0,0,0,0,0,0,0,0,0,0,0,0,0,0,0,0,0,0,0,0,0,0,0,0,0,0,0,0,0,0,0,0,0,0,0,0,0,0,0,0,0,0,0,0,0,0,0,0,0,0,
0,0,0,0,0,0,0,0,0,0,0,0,0,0,0,0,0,0,0,0,0,0,0,0,0,0,0,0,0,0,0,0,0,0,0,0,0,0,0,0,0,0,0,0,0,0,0,0,0,0,0,0,0,0,0,0,0,0,0,0,0,0,0,0,0,0,0,0,0,0,0,0,0,0,0,0,0,0,0,0,0,0,0,0,0,0,0,0,0,0,0,0,0,0,0,0,0,0,0,0,0,0,0,0,0,0,0,0,0,0,0,0,0,0,0,0,0,0,0,0,0,0,0,0,0,0,0,0,
0,0,0,0,0,0,0,0,0,0,0,0,0,0,0,0,0,0,0,0,0,0,0,0,0,0,0,0,0,0,0,0,0,0,0,0,0,0,0,0,0,0,0,0,0,0,0,0,0,0,0,0,0,0,0,0,0,0,0,0,0,0,0,0,0,0,0,0,0,0,0,0,0,0,0,0,0,0,0,0,0,0,0,0,0,0,0,0,0,0,0,0,0,0,0,0,0,0,0,0,0,0,0,0,0,0,0,0,0,0,0,0,0,0,0,0,0,0,0,0,0,0,0,0,0,0,0,0
</data>
 </layer>
 <layer id="3" name="items" width="128" height="96">
  <data encoding="csv">
0,0,0,0,0,0,0,0,0,0,0,0,0,0,0,0,0,0,0,0,0,0,0,0,0,0,0,0,0,0,0,0,0,0,0,0,0,0,0,0,0,0,0,0,0,0,0,0,0,0,0,0,0,0,0,0,0,0,0,0,0,0,0,0,0,0,0,0,0,0,0,0,0,0,0,0,0,0,0,0,0,0,0,0,0,0,0,0,0,0,0,0,0,0,0,0,0,0,0,0,0,0,0,0,0,0,0,0,0,0,0,0,0,0,0,0,0,0,0,0,0,0,0,0,0,0,0,0,
0,0,0,0,0,0,0,0,0,0,0,0,0,0,0,0,0,0,0,0,0,0,0,0,0,0,0,0,0,0,0,0,0,0,0,0,0,0,0,0,0,0,0,0,0,0,0,0,0,0,0,0,0,0,0,0,0,0,0,0,0,0,0,0,0,0,0,0,0,0,0,0,0,0,0,0,0,0,0,0,0,0,0,0,0,0,0,0,0,0,0,0,0,0,0,0,0,0,0,0,0,0,0,0,0,0,0,0,0,0,0,0,0,0,0,0,0,0,0,0,0,0,0,0,0,0,0,0,
0,0,0,0,0,0,0,0,0,0,0,0,0,0,0,0,0,0,0,0,0,0,0,0,0,0,0,0,0,0,0,0,0,0,0,0,0,0,0,0,0,0,0,0,0,0,0,0,0,0,0,0,0,0,0,0,0,0,0,0,0,0,0,0,0,0,0,0,0,0,0,0,0,0,0,0,0,0,0,0,0,0,0,0,0,0,0,0,0,0,0,0,0,0,0,0,0,0,0,0,0,0,0,0,0,0,0,0,0,0,0,0,0,0,0,0,0,0,0,0,0,0,0,0,0,0,0,0,
0,0,0,0,0,0,0,0,0,0,0,0,0,0,0,0,0,0,0,0,0,0,0,0,0,0,0,0,0,0,0,0,0,0,0,0,0,0,0,0,0,0,0,0,0,0,0,0,0,0,0,0,0,0,0,0,0,0,0,0,0,0,0,0,0,0,0,0,0,0,0,0,0,0,0,0,0,0,0,0,0,0,0,0,0,0,0,0,0,0,0,0,0,0,0,0,0,0,0,0,0,0,0,0,0,0,0,0,0,0,0,0,0,0,0,0,0,0,0,0,0,0,0,0,0,0,0,0,
0,0,0,0,0,0,0,0,0,0,0,0,0,0,0,0,0,0,0,0,0,0,0,0,0,0,0,0,0,0,0,0,0,0,0,0,0,0,0,0,0,0,0,0,0,0,0,0,0,0,0,0,0,0,0,0,0,0,0,0,0,0,0,0,0,0,0,0,0,0,0,0,0,0,0,0,0,0,0,0,0,0,0,0,0,0,0,0,0,0,0,0,0,0,0,0,0,0,0,0,0,0,0,0,0,0,0,0,0,0,0,0,0,0,0,0,0,0,0,0,0,0,0,0,0,0,0,0,
0,0,0,0,0,0,0,0,0,0,0,0,0,0,0,0,0,0,0,0,0,0,0,0,0,0,0,0,0,0,0,0,0,0,0,0,0,0,0,0,0,0,0,0,0,0,0,0,0,0,0,0,0,0,0,0,0,0,0,0,0,0,0,0,0,0,0,0,0,0,0,0,0,0,0,0,0,0,0,0,0,0,0,0,0,0,0,0,0,0,0,0,0,0,0,0,0,0,0,0,0,0,0,0,0,0,0,0,0,0,0,0,0,0,0,0,0,0,0,0,0,0,0,0,0,0,0,0,
0,0,0,0,0,0,0,0,0,0,0,0,0,0,0,0,0,0,0,0,0,0,0,0,0,0,0,0,0,0,0,0,0,0,0,0,0,0,0,0,0,0,0,0,0,0,0,0,0,0,0,0,0,0,0,0,0,0,0,0,0,0,0,0,0,0,0,0,0,0,0,0,0,0,0,0,0,0,0,0,0,0,0,0,0,0,0,0,0,0,0,0,0,0,0,0,0,0,0,0,0,0,0,0,0,0,0,0,0,0,0,0,0,0,0,0,0,0,0,0,0,0,0,0,0,0,0,0,
0,0,0,0,0,0,0,0,0,0,0,0,0,0,0,0,0,0,0,0,0,0,0,0,0,0,0,0,0,0,0,0,0,0,0,0,0,0,0,0,0,0,0,0,0,0,0,0,0,0,0,0,0,0,0,0,0,0,0,0,0,0,0,0,0,0,0,0,0,0,0,0,0,0,0,0,0,0,0,0,0,0,0,0,0,0,0,0,0,0,0,0,0,0,0,0,0,0,0,0,0,0,0,0,0,0,0,0,0,0,0,0,0,0,0,0,0,0,0,0,0,0,0,0,0,0,0,0,
0,0,0,0,0,0,0,0,0,0,0,0,0,0,0,0,0,0,0,0,0,0,0,0,0,0,0,0,0,0,0,0,0,0,0,0,0,0,0,0,0,0,0,0,0,0,0,0,0,0,0,0,0,0,0,0,0,0,0,0,0,0,0,0,0,0,0,0,0,0,0,0,0,0,0,0,0,0,0,0,0,0,0,0,0,0,0,0,0,0,0,0,0,0,0,0,0,0,0,0,0,0,0,0,0,0,0,0,0,0,0,0,0,0,0,0,0,0,0,0,0,0,0,0,0,0,0,0,
0,0,0,0,0,0,0,0,0,0,0,0,0,0,0,0,0,0,0,0,0,0,0,0,0,0,0,0,0,0,0,0,0,0,0,0,0,0,0,0,0,0,0,0,0,0,0,0,0,0,0,0,0,0,0,0,0,0,0,0,0,0,0,0,0,0,0,0,0,0,0,0,0,0,0,0,0,0,0,0,0,0,0,0,0,0,0,0,0,0,0,0,0,0,0,0,0,0,0,0,0,0,0,0,0,0,0,0,0,0,0,0,0,0,0,0,0,0,0,0,0,0,0,0,0,0,0,0,
0,0,0,0,0,0,0,0,0,0,0,0,0,0,0,0,0,0,0,0,0,0,0,0,0,0,0,0,0,0,0,0,0,0,0,0,0,0,0,0,0,0,0,0,0,0,0,0,0,0,0,0,0,0,0,0,0,0,0,0,0,0,0,0,0,0,0,0,0,0,0,0,0,0,0,0,0,0,0,0,0,0,0,0,0,0,0,0,0,0,0,0,0,0,0,0,0,0,0,0,0,0,0,0,0,0,0,0,0,0,0,0,0,0,0,0,0,0,0,0,0,0,0,0,0,0,0,0,
0,0,0,0,0,0,0,0,0,0,0,0,0,0,0,0,0,0,0,0,0,0,0,0,0,0,0,0,0,0,0,0,0,0,0,0,0,0,0,0,0,0,0,0,0,0,0,0,0,0,0,0,0,0,0,0,0,0,0,0,0,0,0,0,0,0,0,0,0,0,0,0,0,0,0,0,0,0,0,0,0,0,0,0,0,0,0,0,0,0,0,0,0,0,0,0,0,0,0,0,0,0,0,0,0,0,0,0,0,0,0,0,0,0,0,0,0,0,0,0,0,0,0,0,0,0,0,0,
0,0,0,0,0,0,0,0,0,0,0,0,0,0,0,0,0,0,0,0,0,0,0,0,0,0,0,0,0,0,0,0,0,0,0,0,0,0,0,0,0,0,0,0,0,0,0,0,0,0,0,0,0,0,0,0,0,0,0,0,0,0,0,0,0,0,0,0,0,0,0,0,0,0,0,0,0,0,0,0,0,0,0,0,0,0,0,0,0,0,0,0,0,0,0,0,0,0,0,0,0,0,0,0,0,0,0,0,0,0,0,0,0,0,0,0,0,0,0,0,0,0,0,0,0,0,0,0,
0,0,0,0,0,0,0,0,0,0,0,0,0,0,0,0,0,0,0,0,0,0,0,0,0,0,0,0,0,0,0,0,0,0,0,0,0,0,0,0,0,0,0,0,0,0,0,0,0,0,0,0,0,0,0,0,0,0,0,0,0,0,0,0,0,0,0,0,0,0,0,0,0,0,0,0,0,0,0,0,0,0,0,0,0,0,0,0,0,0,0,0,0,0,0,0,0,0,0,0,0,0,0,0,0,0,0,0,0,0,0,0,0,0,0,0,0,0,0,0,0,0,0,0,0,0,0,0,
0,0,0,0,0,0,0,0,0,0,0,0,0,0,0,0,0,0,0,0,0,0,0,0,0,0,0,0,0,0,0,0,0,0,0,0,0,0,0,0,0,0,0,0,0,0,0,0,0,0,0,0,0,0,0,0,0,0,0,0,0,0,0,0,0,0,0,0,0,0,0,0,0,0,0,0,0,0,0,0,0,0,0,0,0,0,0,0,0,0,0,0,0,0,0,0,0,0,0,0,0,0,0,0,0,0,0,0,0,0,0,0,0,0,0,0,0,0,0,0,0,0,0,0,0,0,0,0,
0,0,0,0,0,0,0,0,0,0,0,0,0,0,0,0,0,0,0,0,0,0,0,0,0,0,0,0,0,0,0,0,0,0,0,0,0,0,0,0,0,0,0,0,0,0,0,0,0,0,0,0,0,0,0,0,0,0,0,0,0,0,0,0,0,0,0,0,0,0,0,0,0,0,0,0,0,0,0,0,0,0,0,0,0,0,0,0,0,0,0,0,0,0,0,0,0,0,0,0,0,0,0,0,0,0,0,0,0,0,0,0,0,0,0,0,0,0,0,0,0,0,0,0,0,0,0,0,
0,0,0,0,0,0,0,0,0,0,0,0,0,0,0,0,0,0,0,0,0,0,0,0,0,0,0,0,0,0,0,0,0,0,0,0,0,0,0,0,0,0,0,0,0,0,0,0,0,0,0,0,0,0,0,0,0,0,0,0,0,0,0,0,0,0,0,0,0,0,0,0,0,0,0,0,0,0,0,0,0,0,0,0,0,0,0,0,0,0,0,0,0,0,0,0,0,0,0,0,0,0,0,0,0,0,0,0,0,0,0,0,0,0,0,0,0,0,0,0,0,0,0,0,0,0,0,0,
0,0,0,0,0,0,0,0,0,0,0,0,0,0,0,0,0,0,0,0,0,0,0,0,0,0,0,0,0,0,0,0,0,0,0,0,0,0,0,0,0,0,0,0,0,0,0,0,0,0,0,0,0,0,0,0,0,0,0,0,0,0,0,0,0,0,0,0,0,0,0,0,0,0,0,0,0,0,0,0,0,0,0,0,0,0,0,0,0,0,0,0,0,0,0,0,0,0,0,0,0,0,0,0,0,0,0,0,0,0,0,0,0,0,0,0,0,0,0,0,0,0,0,0,0,0,0,0,
0,0,0,0,0,0,0,0,0,0,0,0,0,0,0,0,0,0,0,0,0,0,0,0,0,0,0,0,0,0,0,0,0,0,0,0,0,0,0,0,0,0,0,0,0,0,0,0,0,0,0,0,0,0,0,0,0,0,0,0,0,0,0,0,0,0,0,0,0,0,0,0,0,0,0,0,0,0,0,0,0,0,0,0,0,0,0,0,0,0,0,0,0,0,0,0,0,0,0,0,0,0,0,0,0,0,0,0,0,0,0,0,0,0,0,0,0,0,0,0,0,0,0,0,0,0,0,0,
0,0,0,0,0,0,0,0,0,0,0,0,0,0,0,0,0,0,0,0,0,0,0,0,0,0,0,0,0,0,0,0,0,0,0,0,0,0,0,0,0,0,0,0,0,0,0,0,0,0,0,0,0,0,0,0,0,0,0,0,0,0,0,0,0,0,0,0,0,0,0,0,0,0,0,0,0,0,0,0,0,0,0,0,0,0,0,0,0,0,0,0,0,0,0,0,0,0,0,0,0,0,0,0,0,0,0,0,0,0,0,0,0,0,0,0,0,0,0,0,0,0,0,0,0,0,0,0,
0,0,0,0,0,0,0,0,0,0,0,0,0,0,0,0,0,0,0,0,0,0,0,0,0,0,0,0,0,0,0,0,0,0,0,0,0,0,0,0,0,0,0,0,0,0,0,0,0,0,0,0,0,0,0,0,0,0,0,0,0,0,0,0,0,0,0,0,0,0,0,0,0,0,0,0,0,0,0,0,0,0,0,0,0,0,0,0,0,0,0,0,0,0,0,0,0,0,0,0,0,0,0,0,0,0,0,0,0,0,0,0,0,0,0,0,0,0,0,0,0,0,0,0,0,0,0,0,
0,0,0,0,0,0,0,0,0,0,0,0,0,0,0,0,0,0,0,0,0,0,0,0,0,0,0,0,0,0,0,0,0,0,0,0,0,0,0,0,0,0,0,0,0,0,0,0,0,0,0,0,0,0,0,0,0,0,0,0,0,0,0,0,0,0,0,0,0,0,0,0,0,0,0,0,0,0,0,0,0,0,0,0,0,0,0,0,0,0,0,0,0,0,0,0,0,0,0,0,0,0,0,0,0,0,0,0,0,0,0,0,0,0,0,0,0,0,0,0,0,0,0,0,0,0,0,0,
0,0,0,0,0,0,0,0,0,0,0,0,0,0,0,0,0,0,0,0,0,0,0,0,0,0,0,0,0,0,0,0,0,0,0,0,0,0,0,0,0,0,0,0,0,0,0,0,0,0,0,0,0,0,0,0,0,0,0,0,0,0,0,0,0,0,0,0,0,0,0,0,0,0,0,0,0,0,0,0,0,0,0,0,0,0,0,0,0,0,0,0,0,0,0,0,0,0,0,0,0,0,0,0,0,0,0,0,0,0,0,0,0,0,0,0,0,0,0,0,0,0,0,0,0,0,0,0,
0,0,0,0,0,0,0,0,0,0,0,0,0,0,0,0,0,0,0,0,0,0,0,0,0,0,0,0,0,0,0,0,0,0,0,0,0,0,0,0,0,0,0,0,0,0,0,0,0,0,0,0,0,0,0,0,0,0,0,0,0,0,0,0,0,0,0,0,0,0,0,0,0,0,0,0,0,0,0,0,0,0,0,0,0,0,0,0,0,0,0,0,0,0,0,0,0,0,2769,0,0,0,0,0,0,0,0,0,0,0,0,0,0,0,0,0,0,0,0,0,0,0,0,0,0,0,0,0,
0,0,0,0,0,0,0,0,0,0,0,0,0,0,0,0,0,0,0,0,0,0,0,0,0,0,0,0,0,0,0,0,0,0,0,0,0,0,0,0,0,0,0,0,0,0,0,0,0,0,0,0,0,0,0,0,0,0,0,0,0,0,0,0,0,0,0,0,0,0,0,0,0,0,0,0,0,0,0,0,0,0,0,0,0,0,0,0,0,0,0,0,0,0,0,0,0,0,0,0,0,0,0,0,0,0,0,0,0,0,0,0,0,0,0,0,0,0,0,0,0,0,0,0,0,0,0,0,
0,0,0,0,0,0,0,0,0,0,0,0,0,0,0,0,0,0,0,0,0,0,0,0,0,0,0,0,0,0,0,0,0,0,0,0,0,0,0,0,0,0,0,0,0,0,0,0,0,0,0,0,0,0,0,0,0,0,0,0,0,0,0,0,0,0,0,0,0,0,0,0,0,0,0,0,0,0,0,0,0,0,0,0,0,0,0,0,0,0,0,0,0,0,0,0,0,0,0,0,0,0,0,0,0,0,0,0,0,0,0,0,0,0,0,0,0,0,0,0,0,0,0,0,0,0,0,0,
0,0,0,0,0,0,0,0,0,0,0,0,0,0,0,0,0,0,0,0,0,0,0,0,0,0,0,0,0,0,0,0,0,0,0,0,0,0,0,0,0,0,0,0,0,0,0,0,0,0,0,0,0,0,0,0,0,0,0,0,0,0,0,0,0,0,0,0,0,0,0,0,0,0,0,0,0,0,0,0,0,0,0,0,0,0,0,0,0,0,0,0,0,0,0,0,0,0,0,0,0,0,0,0,0,0,0,0,0,0,0,0,0,0,0,0,0,0,0,0,0,0,0,0,0,0,0,0,
0,0,0,0,0,0,0,0,0,0,0,0,0,0,0,0,0,0,0,0,0,0,0,0,0,0,0,0,0,0,0,0,0,0,0,0,0,0,0,0,0,0,0,0,0,0,0,0,0,0,0,0,0,0,0,0,0,0,0,0,0,0,0,0,0,0,0,0,0,0,0,0,0,0,0,0,0,0,0,0,0,0,0,0,0,0,0,0,0,0,0,0,0,0,0,0,0,0,0,0,0,0,0,0,0,0,0,0,0,0,0,0,0,0,0,0,0,0,0,0,0,0,0,0,0,0,0,0,
0,0,0,0,0,0,0,0,0,0,0,0,0,0,0,0,0,0,0,0,0,0,0,0,0,0,0,0,0,0,0,0,0,0,0,0,0,0,0,0,0,0,0,0,0,0,0,0,0,0,0,0,0,0,0,0,0,0,0,0,0,0,0,0,0,0,0,0,0,0,0,0,0,0,0,0,0,0,0,0,0,0,0,0,0,0,0,0,0,0,0,0,0,0,0,0,0,0,0,0,0,0,0,0,0,0,0,0,0,0,0,0,0,0,0,0,0,0,0,0,0,0,0,0,0,0,0,0,
0,0,0,0,0,0,0,0,0,0,0,0,0,0,0,0,0,0,0,0,0,0,0,0,0,0,0,0,0,0,0,0,0,0,0,0,0,0,0,0,0,0,0,0,0,0,0,0,0,0,0,0,0,0,0,0,0,0,0,0,0,0,0,0,0,0,0,0,0,0,0,0,0,0,0,0,0,0,0,0,0,0,0,0,0,0,0,0,0,0,0,0,0,0,0,0,0,0,0,0,0,0,0,0,0,0,0,0,0,0,0,0,0,0,0,0,0,0,0,0,0,0,0,0,0,0,0,0,
0,0,0,0,0,0,0,0,0,0,0,0,0,0,0,0,0,0,0,0,0,0,0,0,0,0,0,0,0,0,0,0,0,0,0,0,0,0,0,0,0,0,0,0,0,0,0,0,0,0,0,0,0,0,0,0,0,0,0,0,0,0,0,0,0,0,0,0,0,0,0,0,0,0,0,0,0,0,0,0,0,0,0,0,0,0,0,0,0,0,0,0,0,0,0,0,0,0,0,0,0,0,0,0,0,0,0,0,0,0,0,0,0,0,0,0,0,0,0,0,0,0,0,0,0,0,0,0,
0,0,0,0,0,0,0,0,0,0,0,0,0,0,0,0,0,0,0,0,0,0,0,0,0,0,0,0,0,0,0,0,0,0,0,0,0,0,0,0,0,0,0,0,0,0,0,0,0,0,0,0,0,0,0,0,0,0,0,0,0,0,0,0,0,0,0,0,0,0,0,0,0,0,0,0,0,0,0,0,0,0,0,0,0,0,0,0,0,0,0,0,0,0,0,0,0,0,0,0,0,0,0,0,0,0,0,0,0,0,0,0,0,0,0,0,0,0,0,0,0,0,0,0,0,0,0,0,
0,0,0,0,0,0,0,0,0,0,0,0,0,0,0,0,0,0,0,0,0,0,0,0,0,0,0,0,0,0,0,0,0,0,0,0,0,0,0,0,0,0,0,0,0,0,0,0,0,0,0,0,0,0,0,0,0,0,0,0,0,0,0,0,0,0,0,0,0,0,0,0,0,0,0,0,0,0,0,0,0,0,0,0,0,0,0,0,0,0,0,0,0,0,0,0,0,0,0,0,0,0,0,0,0,0,0,0,0,0,0,0,0,0,0,0,0,0,0,0,0,0,0,0,0,0,0,0,
0,0,0,0,0,0,0,0,0,0,0,0,0,0,0,0,0,0,0,0,0,0,0,0,0,0,0,0,0,0,0,0,0,0,0,0,0,0,0,0,0,0,0,0,0,0,0,0,0,0,0,0,0,0,0,0,0,0,0,0,0,0,0,0,0,0,0,0,0,0,0,0,0,0,0,0,0,0,0,0,0,0,0,0,0,0,0,0,0,0,0,0,0,0,0,0,0,0,0,0,0,0,0,0,0,0,0,0,0,0,0,0,0,0,0,0,0,0,0,0,0,0,0,0,0,0,0,0,
0,0,0,0,0,0,0,0,0,0,0,0,0,0,0,0,0,0,0,0,0,0,0,0,0,0,0,0,0,0,0,0,0,0,0,0,0,0,0,0,0,0,0,0,0,0,0,0,0,0,0,0,0,0,0,0,0,0,0,0,0,0,0,0,0,0,0,0,0,0,0,0,0,0,0,0,0,0,0,0,0,0,0,0,0,0,0,0,0,0,0,0,0,0,0,0,0,0,0,0,0,0,0,0,0,0,0,0,0,0,0,0,0,0,0,0,0,0,0,0,0,0,0,0,0,0,0,0,
0,0,0,0,0,0,0,0,0,0,0,0,0,0,0,0,0,0,0,0,0,0,0,0,0,0,0,0,0,0,0,0,0,0,0,0,0,0,0,0,0,0,0,0,0,0,0,0,0,0,0,0,0,0,0,0,0,0,0,0,0,0,0,0,0,0,0,0,0,0,0,0,0,0,0,0,0,0,0,0,0,0,0,0,0,0,0,0,0,0,0,0,0,0,0,0,0,0,0,0,0,0,0,0,0,0,0,0,0,0,0,0,0,0,0,0,0,0,0,0,0,0,0,0,0,0,0,0,
0,0,0,0,0,0,0,0,0,0,0,0,0,0,0,0,0,0,0,0,0,0,0,0,0,0,0,0,0,0,0,0,0,0,0,0,0,0,0,0,0,0,0,0,0,0,0,0,0,0,0,0,0,0,0,0,0,0,0,0,0,0,0,0,0,0,0,0,0,0,0,0,0,0,0,0,0,0,0,0,0,0,0,0,0,0,0,0,0,0,0,0,0,0,0,0,0,0,0,0,0,0,0,0,0,0,0,0,0,0,0,0,0,0,0,0,0,0,0,0,0,0,0,0,0,0,0,0,
0,0,0,0,0,0,0,0,0,0,0,0,0,0,0,0,0,0,0,0,0,0,0,0,0,0,0,0,0,0,0,0,0,0,0,0,0,0,0,0,0,0,0,0,0,0,0,0,0,0,0,0,0,0,0,0,0,0,0,0,0,0,0,0,0,0,0,0,0,0,0,0,0,0,0,0,0,0,0,0,0,0,0,0,0,0,0,0,0,0,0,0,0,0,0,0,0,0,0,0,0,0,0,0,0,0,0,0,0,0,0,0,0,0,0,0,0,0,0,0,0,0,0,0,0,0,0,0,
0,0,0,0,0,0,0,0,0,0,0,0,0,0,0,0,0,0,0,0,0,0,0,0,0,0,0,0,0,0,0,0,0,0,0,0,0,0,0,0,0,0,0,0,0,0,0,0,0,0,0,0,0,0,0,0,0,0,0,0,0,0,0,0,0,0,0,0,0,0,0,0,0,0,0,0,0,0,0,0,0,0,0,0,0,0,0,0,0,0,0,0,0,0,0,0,0,0,0,0,0,0,0,0,0,0,0,0,0,0,0,0,0,0,0,0,0,0,0,0,0,0,0,0,0,0,0,0,
0,0,0,0,0,0,0,0,0,0,0,0,0,0,0,0,0,0,0,0,0,0,0,0,0,0,0,0,0,0,0,0,0,0,0,0,0,0,0,0,0,0,0,0,0,0,0,0,0,0,0,0,0,0,0,0,0,0,0,0,0,0,0,0,0,0,0,0,0,0,0,0,0,0,0,0,0,0,0,0,0,0,0,0,0,0,0,0,0,0,0,0,0,0,0,0,0,0,0,0,0,0,0,0,0,0,0,0,0,0,0,0,0,0,0,0,0,0,0,0,0,0,0,0,0,0,0,0,
0,0,0,0,0,0,0,0,0,0,0,0,0,0,0,0,0,0,0,0,0,0,0,0,0,0,0,0,0,0,0,0,0,0,0,0,0,0,0,0,0,0,0,0,0,0,0,0,0,0,0,0,0,0,0,0,0,0,0,0,0,0,0,0,0,0,0,0,0,0,0,0,0,0,0,0,0,0,0,0,0,0,0,0,0,0,0,0,0,0,0,0,0,0,0,0,0,0,0,0,0,0,0,0,0,0,0,0,0,0,0,0,0,0,0,0,0,0,0,0,0,0,0,0,0,0,0,0,
0,0,0,0,0,0,0,0,0,0,0,0,0,0,0,0,0,0,0,0,0,0,0,0,0,0,0,0,0,0,0,0,0,0,0,0,0,0,0,0,0,0,0,0,0,0,0,0,0,0,0,0,0,0,0,0,0,0,0,0,0,0,0,0,0,0,0,0,0,0,0,0,0,0,0,0,0,0,0,0,0,0,0,0,0,0,0,0,0,0,0,0,0,0,0,0,0,0,0,0,0,0,0,0,0,0,0,0,0,0,0,0,0,0,0,0,0,0,0,0,0,0,0,0,0,0,0,0,
0,0,0,0,0,0,0,0,0,0,0,0,0,0,0,0,0,0,0,0,0,0,0,0,0,0,0,0,0,0,0,0,0,0,0,0,0,0,0,0,0,0,0,0,0,0,0,0,0,0,0,0,0,0,0,0,0,0,0,0,0,0,0,0,0,0,0,0,0,0,0,0,0,0,0,0,0,0,0,0,0,0,0,0,0,0,0,0,0,0,0,0,0,0,0,0,0,0,0,0,0,0,0,0,0,0,0,0,0,0,0,0,0,0,0,0,0,0,0,0,0,0,0,0,0,0,0,0,
0,0,0,0,0,0,0,0,0,0,0,0,0,0,0,0,0,0,0,0,0,0,0,0,0,0,0,0,0,0,0,0,0,0,0,0,0,0,0,0,0,0,0,0,0,0,0,0,0,0,0,0,0,0,0,0,0,0,0,0,0,0,0,0,0,0,0,0,0,0,0,0,0,0,0,0,0,0,0,0,0,0,0,0,0,0,0,0,0,0,0,0,0,0,0,0,0,0,0,0,0,0,0,0,0,0,0,0,0,0,0,0,0,0,0,0,0,0,0,0,0,0,0,0,0,0,0,0,
0,0,0,0,0,0,0,0,0,0,0,0,0,0,0,0,0,0,0,0,0,0,0,0,0,0,0,0,0,0,0,0,0,0,0,0,0,0,0,0,0,0,0,0,0,0,0,0,0,0,0,0,0,0,0,0,0,0,0,0,0,0,0,0,0,0,0,0,0,0,0,0,0,0,0,0,0,0,0,0,0,0,0,0,0,0,0,0,0,0,0,0,0,0,0,0,0,0,0,0,0,0,0,0,0,0,0,0,0,0,0,0,0,0,0,0,0,0,0,0,0,0,0,0,0,0,0,0,
0,0,0,0,0,0,0,0,0,0,0,0,0,0,0,0,0,0,0,0,0,0,0,0,0,0,0,0,0,0,0,0,0,0,0,0,0,0,0,0,0,0,0,0,0,0,0,0,0,0,0,0,0,0,0,0,0,0,0,0,0,0,0,0,0,0,0,0,0,0,0,0,0,0,0,0,0,0,0,0,0,0,0,0,0,0,0,0,0,0,0,0,0,0,0,0,0,0,0,0,0,0,0,0,0,0,0,0,0,0,0,0,0,0,0,0,0,0,0,0,0,0,0,0,0,0,0,0,
0,0,0,0,0,0,0,0,0,0,0,0,0,0,0,0,0,0,0,0,0,0,0,0,0,0,0,0,0,0,0,0,0,0,0,0,0,0,0,0,0,0,0,0,0,0,0,0,0,0,0,0,0,0,0,0,0,0,0,0,0,0,0,0,0,0,0,0,0,0,0,0,0,0,0,0,0,0,0,0,0,0,0,0,0,0,0,0,0,0,0,0,0,0,0,0,0,0,0,0,0,0,0,0,0,0,0,0,0,0,0,0,0,0,0,0,0,0,0,0,0,0,0,0,0,0,0,0,
0,0,0,0,0,0,0,0,0,0,0,0,0,0,0,0,0,0,0,0,0,0,0,0,0,0,0,0,0,0,0,0,0,0,0,0,0,0,0,0,0,0,0,0,0,0,0,0,0,0,0,0,0,0,0,0,0,0,0,0,0,0,0,0,0,0,0,0,0,0,0,0,0,0,0,0,0,0,0,0,0,0,0,0,0,0,0,0,0,0,0,0,0,0,0,0,0,0,0,0,0,0,0,0,0,0,0,0,0,0,0,0,0,0,0,0,0,0,0,0,0,0,0,0,0,0,0,0,
0,0,0,0,0,0,0,0,0,0,0,0,0,0,0,0,0,0,0,0,0,0,0,0,0,0,0,0,0,0,0,0,0,0,0,0,0,0,0,0,0,0,0,0,0,0,0,0,0,0,0,0,0,0,0,0,0,0,0,0,0,0,0,0,0,0,0,0,0,0,0,0,0,0,0,0,0,0,0,0,0,0,0,0,0,0,0,0,0,0,0,0,0,0,0,0,0,0,0,0,0,0,0,0,0,0,0,0,0,0,0,0,0,0,0,0,0,0,0,0,0,0,0,0,0,0,0,0,
0,0,0,0,0,0,0,0,0,0,0,0,0,0,0,0,0,0,0,0,0,0,0,0,0,0,0,0,0,0,0,0,0,0,0,0,0,0,0,0,0,0,0,0,0,0,0,0,0,0,0,0,0,0,0,0,0,0,0,0,0,0,0,0,0,0,0,0,0,0,0,0,0,0,0,0,0,0,0,0,0,0,0,0,0,0,0,0,0,0,0,0,0,0,0,0,0,0,0,0,0,0,0,0,0,0,0,0,0,0,0,0,0,0,0,0,0,0,0,0,0,0,0,0,0,0,0,0,
0,0,0,0,0,0,0,0,0,0,0,0,0,0,0,0,0,0,0,0,0,0,0,0,0,0,0,0,0,0,0,0,0,0,0,0,0,0,0,0,0,0,0,0,0,0,0,0,0,0,0,0,0,0,0,0,0,0,0,0,0,0,0,0,0,0,0,0,0,0,0,0,0,0,0,0,0,0,0,0,0,0,0,0,0,0,0,0,0,0,0,0,0,0,0,0,0,0,0,0,0,0,0,0,0,0,0,0,0,0,0,0,0,0,0,0,0,0,0,0,0,0,0,0,0,0,0,0,
0,0,0,0,0,0,0,0,0,0,0,0,0,0,0,0,0,0,0,0,0,0,0,0,0,0,0,0,0,0,0,0,0,0,0,0,0,0,0,0,0,0,0,0,0,0,0,0,0,0,0,0,0,0,0,0,0,0,0,0,0,0,0,0,0,0,0,0,0,0,0,0,0,0,0,0,0,0,0,0,0,0,0,0,0,0,0,0,0,0,0,0,0,0,0,0,0,0,0,0,0,0,0,0,0,0,0,0,0,0,0,0,0,0,0,0,0,0,0,0,0,0,0,0,0,0,0,0,
0,0,0,0,0,0,0,0,0,0,0,0,0,0,0,0,0,0,0,0,0,0,0,0,0,0,0,0,0,0,0,0,0,0,0,0,0,0,0,0,0,0,0,0,0,0,0,0,0,0,0,0,0,0,0,0,0,0,0,0,0,0,0,0,0,0,0,0,0,0,0,0,0,0,0,0,0,0,0,0,0,0,0,0,0,0,0,0,0,0,0,0,0,0,0,0,0,0,0,0,0,0,0,0,0,0,0,0,0,0,0,0,0,0,0,0,0,0,0,0,0,0,0,0,0,0,0,0,
0,0,0,0,0,0,0,0,0,0,0,0,0,0,0,0,0,0,0,0,0,0,0,0,0,0,0,0,0,0,0,0,0,0,0,0,0,0,0,0,0,0,0,0,0,0,0,0,0,0,0,0,0,0,0,0,0,0,0,0,0,0,0,0,0,0,0,0,0,0,0,0,0,0,0,0,0,0,0,0,0,0,0,0,0,0,0,0,0,0,0,0,0,0,0,0,0,0,0,0,0,0,0,0,0,0,0,0,0,0,0,0,0,0,0,0,0,0,0,0,0,0,0,0,0,0,0,0,
0,0,0,0,0,0,0,0,0,0,0,0,0,0,0,0,0,0,0,0,0,0,0,0,0,0,0,0,0,0,0,0,0,0,0,0,0,0,0,0,0,0,0,0,0,0,0,0,0,0,0,0,0,0,0,0,0,0,0,0,0,0,0,0,0,0,0,0,0,0,0,0,0,0,0,0,0,0,0,0,0,0,0,0,0,0,0,0,0,0,0,0,0,0,0,0,0,0,0,0,0,0,0,0,0,0,0,0,0,0,0,0,0,0,0,0,0,0,0,0,0,0,0,0,0,0,0,0,
0,0,0,0,0,0,0,0,0,0,0,0,0,0,0,0,0,0,0,0,0,0,0,0,0,0,0,0,0,0,0,0,0,0,0,0,0,0,0,0,0,0,0,0,0,0,0,0,0,0,0,0,0,0,0,0,0,0,0,0,0,0,0,0,0,0,0,0,0,0,0,0,0,0,0,0,0,0,0,0,0,0,0,0,0,0,0,0,0,0,0,0,0,0,0,0,0,0,0,0,0,0,0,0,0,0,0,0,0,0,0,0,0,0,0,0,0,0,0,0,0,0,0,0,0,0,0,0,
0,0,0,0,0,0,0,0,0,0,0,0,0,0,0,0,0,0,0,0,0,0,0,0,0,0,0,0,0,0,0,0,0,0,0,0,0,0,0,0,0,0,0,0,0,0,0,0,0,0,0,0,0,0,0,0,0,0,0,0,0,0,0,0,0,0,0,0,0,0,0,0,0,0,0,0,0,0,0,0,0,0,0,0,0,0,0,0,0,0,0,0,0,0,0,0,0,0,0,0,0,0,0,0,0,0,0,0,0,0,0,0,0,0,0,0,0,0,0,0,0,0,0,0,0,0,0,0,
0,0,0,0,0,0,0,0,0,0,0,0,0,0,0,0,0,0,0,0,0,0,0,0,0,0,0,0,0,0,0,0,0,0,0,0,0,0,0,0,0,0,0,0,0,0,0,0,0,0,0,0,0,0,0,0,0,0,0,0,0,0,0,0,0,0,0,0,0,0,0,0,0,0,0,0,0,0,0,0,0,0,0,0,0,0,0,0,0,0,0,0,0,0,0,0,0,0,0,0,0,0,0,0,0,0,0,0,0,0,0,0,0,0,0,0,0,0,0,0,0,0,0,0,0,0,0,0,
0,0,0,0,0,0,0,0,0,0,0,0,0,0,0,0,0,0,0,0,0,0,0,0,0,0,0,0,0,0,0,0,0,0,0,0,0,0,0,0,0,0,0,0,0,0,0,0,0,0,0,0,0,0,0,0,0,0,0,0,0,0,0,0,0,0,0,0,0,0,0,0,0,0,0,0,0,0,0,0,0,0,0,0,0,0,0,0,0,0,0,0,0,0,0,0,0,0,0,0,0,0,0,0,0,0,0,0,0,0,0,0,0,0,0,0,0,0,0,0,0,0,0,0,0,0,0,0,
0,0,0,0,0,0,0,0,0,0,0,0,0,0,0,0,0,0,0,0,0,0,0,0,0,0,0,0,0,0,0,0,0,0,0,0,0,0,0,0,0,0,0,0,0,0,0,0,0,0,0,0,0,0,0,0,0,0,0,0,0,0,0,0,0,0,0,0,0,0,0,0,0,0,0,0,0,0,0,0,0,0,0,0,0,0,0,0,0,0,0,0,0,0,0,0,0,0,0,0,0,0,0,0,0,0,0,0,0,0,0,0,0,0,0,0,0,0,0,0,0,0,0,0,0,0,0,0,
0,0,0,0,0,0,0,0,0,0,0,0,0,0,0,0,0,0,0,0,0,0,0,0,0,0,0,0,0,0,0,0,0,0,0,0,0,0,0,0,0,0,0,0,0,0,0,0,0,0,0,0,0,0,0,0,0,0,0,0,0,0,0,0,0,0,0,0,0,0,0,0,0,0,0,0,0,0,0,0,0,0,0,0,0,0,0,0,0,0,0,0,0,0,0,0,0,0,0,0,0,0,0,0,0,0,0,0,0,0,0,0,0,0,0,0,0,0,0,0,0,0,0,0,0,0,0,0,
0,0,0,0,0,0,0,0,0,0,0,0,0,0,0,0,0,0,0,0,0,0,0,0,0,0,0,0,0,0,0,0,0,0,0,0,0,0,0,0,0,0,0,0,0,0,0,0,0,0,0,0,0,0,0,0,0,0,0,0,0,0,0,0,0,0,0,0,0,0,0,0,0,0,0,0,0,0,0,0,0,0,0,0,0,0,0,0,0,0,0,0,0,0,0,0,0,0,0,0,0,0,0,0,0,0,0,0,0,0,0,0,0,0,0,0,0,0,0,0,0,0,0,0,0,0,0,0,
0,0,0,0,0,0,0,0,0,0,0,0,0,0,0,0,0,0,0,0,0,0,0,0,0,0,0,0,0,0,0,0,0,0,0,0,0,0,0,0,0,0,0,0,0,0,0,0,0,0,0,0,0,0,0,0,0,0,0,0,0,0,0,0,0,0,0,0,0,0,0,0,0,0,0,0,0,0,0,0,0,0,0,0,0,0,0,0,0,0,0,0,0,0,0,0,0,0,0,0,0,0,0,0,0,0,0,0,0,0,0,0,0,0,0,0,0,0,0,0,0,0,0,0,0,0,0,0,
0,0,0,0,0,0,0,0,0,0,0,0,0,0,0,0,0,0,0,0,0,0,0,0,0,0,0,0,0,0,0,0,0,0,0,0,0,0,0,0,0,0,0,0,0,0,0,0,0,0,0,0,0,0,0,0,0,0,0,0,0,0,0,0,0,0,0,0,0,0,0,0,0,0,0,0,0,0,0,0,0,0,0,0,0,0,0,0,0,0,0,0,0,0,0,0,0,0,0,0,0,0,0,0,0,0,0,0,0,0,0,0,0,0,0,0,0,0,0,0,0,0,0,0,0,0,0,0,
0,0,0,0,0,0,0,0,0,0,0,0,0,0,0,0,0,0,0,0,0,0,0,0,0,0,0,0,0,0,0,0,0,0,0,0,0,0,0,0,0,0,0,0,0,0,0,0,0,0,0,0,0,0,0,0,0,0,0,0,0,0,0,0,0,0,0,0,0,0,0,0,0,0,0,0,0,0,0,0,0,0,0,0,0,0,0,0,0,0,0,0,0,0,0,0,0,0,0,0,0,0,0,0,0,0,0,0,0,0,0,0,0,0,0,0,0,0,0,0,0,0,0,0,0,0,0,0,
0,0,0,0,0,0,0,0,0,0,0,0,0,0,0,0,0,0,0,0,0,0,0,0,0,0,0,0,0,0,0,0,0,0,0,0,0,0,0,0,0,0,0,0,0,0,0,0,0,0,0,0,0,0,0,0,0,0,0,0,0,0,0,0,0,0,0,0,0,0,0,0,0,0,0,0,0,0,0,0,0,0,0,0,0,0,0,0,0,0,0,0,0,0,0,0,0,0,0,0,0,0,0,0,0,0,0,0,0,0,0,0,0,0,0,0,0,0,0,0,0,0,0,0,0,0,0,0,
0,0,0,0,0,0,0,0,0,0,0,0,0,0,0,0,0,0,0,0,0,0,0,0,0,0,0,0,0,0,0,0,0,0,0,0,0,0,0,0,0,0,0,0,0,0,0,0,0,0,0,0,0,0,0,0,0,0,0,0,0,0,0,0,0,0,0,0,0,0,0,0,0,0,0,0,0,0,0,0,0,0,0,0,0,0,0,0,0,0,0,0,0,0,0,0,0,0,0,0,0,0,0,0,0,0,0,0,0,0,0,0,0,0,0,0,0,0,0,0,0,0,0,0,0,0,0,0,
0,0,0,0,0,0,0,0,0,0,0,0,0,0,0,0,0,0,0,0,0,0,0,0,0,0,0,0,0,0,0,0,0,0,0,0,0,0,0,0,0,0,0,0,0,0,0,0,0,0,0,0,0,0,0,0,0,0,0,0,0,0,0,0,0,0,0,0,0,0,0,0,0,0,0,0,0,0,0,0,0,0,0,0,0,0,0,0,0,0,0,0,0,0,0,0,0,0,0,0,0,0,0,0,0,0,0,0,0,0,0,0,0,0,0,0,0,0,0,0,0,0,0,0,0,0,0,0,
0,0,0,0,0,0,0,0,0,0,0,0,0,0,0,0,0,0,0,0,0,0,0,0,0,0,0,0,0,0,0,0,0,0,0,0,0,0,0,0,0,0,0,0,0,0,0,0,0,0,0,0,0,0,0,0,0,0,0,0,0,0,0,0,0,0,0,0,0,0,0,0,0,0,0,0,0,0,0,0,0,0,0,0,0,0,0,0,0,0,0,0,0,0,0,0,0,0,0,0,0,0,0,0,0,0,0,0,0,0,0,0,0,0,0,0,0,0,0,0,0,0,0,0,0,0,0,0,
0,0,0,0,0,0,0,0,0,0,0,0,0,0,0,0,0,0,0,0,0,0,0,0,0,0,0,0,0,0,0,0,0,0,0,0,0,0,0,0,0,0,0,0,0,0,0,0,0,0,0,0,0,0,0,0,0,0,0,0,0,0,0,0,0,0,0,0,0,0,0,0,0,0,0,0,0,0,0,0,0,0,0,0,0,0,0,0,0,0,0,0,0,0,0,0,0,0,0,0,0,0,0,0,0,0,0,0,0,0,0,0,0,0,0,0,0,0,0,0,0,0,0,0,0,0,0,0,
0,0,0,0,0,0,0,0,0,0,0,0,0,0,0,0,0,0,0,0,0,0,0,0,0,0,0,0,0,0,0,0,0,0,0,0,0,0,0,0,0,0,0,0,0,0,0,0,0,0,0,0,0,0,0,0,0,0,0,0,0,0,0,0,0,0,0,0,0,0,0,0,0,0,0,0,0,0,0,0,0,0,0,0,0,0,0,0,0,0,0,0,0,0,0,0,0,0,0,0,0,0,0,0,0,0,0,0,0,0,0,0,0,0,0,0,0,0,0,0,0,0,0,0,0,0,0,0,
0,0,0,0,0,0,0,0,0,0,0,0,0,0,0,0,0,0,0,0,0,0,0,0,0,0,0,0,0,0,0,0,0,0,0,0,0,0,0,0,0,0,0,0,0,0,0,0,0,0,0,0,0,0,0,0,0,0,0,0,0,0,0,0,0,0,0,0,0,0,0,0,0,0,0,0,0,0,0,0,0,0,0,0,0,0,0,0,0,0,0,0,0,0,0,0,0,0,0,0,0,0,0,0,0,0,0,0,0,0,0,0,0,0,0,0,0,0,0,0,0,0,0,0,0,0,0,0,
0,0,0,0,0,0,0,0,0,0,0,0,0,0,0,0,0,0,0,0,0,0,0,0,0,0,0,0,0,0,0,0,0,0,0,0,0,0,0,0,0,0,0,0,0,0,0,0,0,0,0,0,0,0,0,0,0,0,0,0,0,0,0,0,0,0,0,0,0,0,0,0,0,0,0,0,0,0,0,0,0,0,0,0,0,0,0,0,0,0,0,0,0,0,0,0,0,0,0,0,0,0,0,0,0,0,0,0,0,0,0,0,0,0,0,0,0,0,0,0,0,0,0,0,0,0,0,0,
0,0,0,0,0,0,0,0,0,0,0,0,0,0,0,0,0,0,0,0,0,0,0,0,0,0,0,0,0,0,0,0,0,0,0,0,0,0,0,0,0,0,0,0,0,0,0,0,0,0,0,0,0,0,0,0,0,0,0,0,0,0,0,0,0,0,0,0,0,0,0,0,0,0,0,0,0,0,0,0,0,0,0,0,0,0,0,0,0,0,0,0,0,0,0,0,0,0,0,0,0,0,0,0,0,0,0,0,0,0,0,0,0,0,0,0,0,0,0,0,0,0,0,0,0,0,0,0,
0,0,0,0,0,0,0,0,0,0,0,0,0,0,0,0,0,0,0,0,0,0,0,0,0,0,0,0,0,0,0,0,0,0,0,0,0,0,0,0,0,0,0,0,0,0,0,0,0,0,0,0,0,0,0,0,0,0,0,0,0,0,0,0,0,0,0,0,0,0,0,0,0,0,0,0,0,0,0,0,0,0,0,0,0,0,0,0,0,0,0,0,0,0,0,0,0,0,0,0,0,0,0,0,0,0,0,0,0,0,0,0,0,0,0,0,0,0,0,0,0,0,0,0,0,0,0,0,
0,0,0,0,0,0,0,0,0,0,0,0,0,0,0,0,0,0,0,0,0,0,0,0,0,0,0,0,0,0,0,0,0,0,0,0,0,0,0,0,0,0,0,0,0,0,0,0,0,0,0,0,0,0,0,0,0,0,0,0,0,0,0,0,0,0,0,0,0,0,0,0,0,0,0,0,0,0,0,0,0,0,0,0,0,0,0,0,0,0,0,0,0,0,0,0,0,0,0,0,0,0,0,0,0,0,0,0,0,0,0,0,0,0,0,0,0,0,0,0,0,0,0,0,0,0,0,0,
0,0,0,0,0,0,0,0,0,0,0,0,0,0,0,0,0,0,0,0,0,0,0,0,0,0,0,0,0,0,0,0,0,0,0,0,0,0,0,0,0,0,0,0,0,0,0,0,0,0,0,0,0,0,0,0,0,0,0,0,0,0,0,0,0,0,0,0,0,0,0,0,0,0,0,0,0,0,0,0,0,0,0,0,0,0,0,0,0,0,0,0,0,0,0,0,0,0,0,0,0,0,0,0,0,0,0,0,0,0,0,0,0,0,0,0,0,0,0,0,0,0,0,0,0,0,0,0,
0,0,0,0,0,0,0,0,0,0,0,0,0,0,0,0,0,0,0,0,0,0,0,0,0,0,0,0,0,0,0,0,0,0,0,0,0,0,0,0,0,0,0,0,0,0,0,0,0,0,0,0,0,0,0,0,0,0,0,0,0,0,0,0,0,0,0,0,0,0,0,0,0,0,0,0,0,0,0,0,0,0,0,0,0,0,0,0,0,0,0,0,0,0,0,0,0,0,0,0,0,0,0,0,0,0,0,0,0,0,0,0,0,0,0,0,0,0,0,0,0,0,0,0,0,0,0,0,
0,0,0,0,0,0,0,0,0,0,0,0,0,0,0,0,0,0,0,0,0,0,0,0,0,0,0,0,0,0,0,0,0,0,0,0,0,0,0,0,0,0,0,0,0,0,0,0,0,0,0,0,0,0,0,0,0,0,0,0,0,0,0,0,0,0,0,0,0,0,0,0,0,0,0,0,0,0,0,0,0,0,0,0,0,0,0,0,0,0,0,0,0,0,0,0,0,0,0,0,0,0,0,0,0,0,0,0,0,0,0,0,0,0,0,0,0,0,0,0,0,0,0,0,0,0,0,0,
0,0,0,0,0,0,0,0,0,0,0,0,0,0,0,0,0,0,0,0,0,0,0,0,0,0,0,0,0,0,0,0,0,0,0,0,0,0,0,0,0,0,0,0,0,0,0,0,0,0,0,0,0,0,0,0,0,0,0,0,0,0,0,0,0,0,0,0,0,0,0,0,0,0,0,0,0,0,0,0,0,0,0,0,0,0,0,0,0,0,0,0,0,0,0,0,0,0,0,0,0,0,0,0,0,0,0,0,0,0,0,0,0,0,0,0,0,0,0,0,0,0,0,0,0,0,0,0,
0,0,0,0,0,0,0,0,0,0,0,0,0,0,0,0,0,0,0,0,0,0,0,0,0,0,0,0,0,0,0,0,0,0,0,0,0,0,0,0,0,0,0,0,0,0,0,0,0,0,0,0,0,0,0,0,0,0,0,0,0,0,0,0,0,0,0,0,0,0,0,0,0,0,0,0,0,0,0,0,0,0,0,0,0,0,0,0,0,0,0,0,0,0,0,0,0,0,0,0,0,0,0,0,0,0,0,0,0,0,0,0,0,0,0,0,0,0,0,0,0,0,0,0,0,0,0,0,
0,0,0,0,0,0,0,0,0,0,0,0,0,0,0,0,0,0,0,0,0,0,0,0,0,0,0,0,0,0,0,0,0,0,0,0,0,0,0,0,0,0,0,0,0,0,0,0,0,0,0,0,0,0,0,0,0,0,0,0,0,0,0,0,0,0,0,0,0,0,0,0,0,0,0,0,0,0,0,0,0,0,0,0,0,0,0,0,0,0,0,0,0,0,0,0,0,0,0,0,0,0,0,0,0,0,0,0,0,0,0,0,0,0,0,0,0,0,0,0,0,0,0,0,0,0,0,0,
0,0,0,0,0,0,0,0,0,0,0,0,0,0,0,0,0,0,0,0,0,0,0,0,0,0,0,0,0,0,0,0,0,0,0,0,0,0,0,0,0,0,0,0,0,0,0,0,0,0,0,0,0,0,0,0,0,0,0,0,0,0,0,0,0,0,0,0,0,0,0,0,0,0,0,0,0,0,0,0,0,0,0,0,0,0,0,0,0,0,0,0,0,0,0,0,0,0,0,0,0,0,0,0,0,0,0,0,0,0,0,0,0,0,0,0,0,0,0,0,0,0,0,0,0,0,0,0,
0,0,0,0,0,0,0,0,0,0,0,0,0,0,0,0,0,0,0,0,0,0,0,0,0,0,0,0,0,0,0,0,0,0,0,0,0,0,0,0,0,0,0,0,0,0,0,0,0,0,0,0,0,0,0,0,0,0,0,0,0,0,0,0,0,0,0,0,0,0,0,0,0,0,0,0,0,0,0,0,0,0,0,0,0,0,0,0,0,0,0,0,0,0,0,0,0,0,0,0,0,0,0,0,0,0,0,0,0,0,0,0,0,0,0,0,0,0,0,0,0,0,0,0,0,0,0,0,
0,0,0,0,0,0,0,0,0,0,0,0,0,0,0,0,0,0,0,0,0,0,0,0,0,0,0,0,0,0,0,0,0,0,0,0,0,0,0,0,0,0,0,0,0,0,0,0,0,0,0,0,0,0,0,0,0,0,0,0,0,0,0,0,0,0,0,0,0,0,0,0,0,0,0,0,0,0,0,0,0,0,0,0,0,0,0,0,0,0,0,0,0,0,0,0,0,0,0,0,0,0,0,0,0,0,0,0,0,0,0,0,0,0,0,0,0,0,0,0,0,0,0,0,0,0,0,0,
0,0,0,0,0,0,0,0,0,0,0,0,0,0,0,0,0,0,0,0,0,0,0,0,0,0,0,0,0,0,0,0,0,0,0,0,0,0,0,0,0,0,0,0,0,0,0,0,0,0,0,0,0,0,0,0,0,0,0,0,0,0,0,0,0,0,0,0,0,0,0,0,0,0,0,0,0,0,0,0,0,0,0,0,0,0,0,0,0,0,0,0,0,0,0,0,0,0,0,0,0,0,0,0,0,0,0,0,0,0,0,0,0,0,0,0,0,0,0,0,0,0,0,0,0,0,0,0,
0,0,0,0,0,0,0,0,0,0,0,0,0,0,0,0,0,0,0,0,0,0,0,0,0,0,0,0,0,0,0,0,0,0,0,0,0,0,0,0,0,0,0,0,0,0,0,0,0,0,0,0,0,0,0,0,0,0,0,0,0,0,0,0,0,0,0,0,0,0,0,0,0,0,0,0,0,0,0,0,0,0,0,0,0,0,0,0,0,0,0,0,0,0,0,0,0,0,0,0,0,0,0,0,0,0,0,0,0,0,0,0,0,0,0,0,0,0,0,0,0,0,0,0,0,0,0,0,
0,0,0,0,0,0,0,0,0,0,0,0,0,0,0,0,0,0,0,0,0,0,0,0,0,0,0,0,0,0,0,0,0,0,0,0,0,0,0,0,0,0,0,0,0,0,0,0,0,0,0,0,0,0,0,0,0,0,0,0,0,0,0,0,0,0,0,0,0,0,0,0,0,0,0,0,0,0,0,0,0,0,0,0,0,0,0,0,0,0,0,0,0,0,0,0,0,0,0,0,0,0,0,0,0,0,0,0,0,0,0,0,0,0,0,0,0,0,0,0,0,0,0,0,0,0,0,0,
0,0,0,0,0,0,0,0,0,0,0,0,0,0,0,0,0,0,0,0,0,0,0,0,0,0,0,0,0,0,0,0,0,0,0,0,0,0,0,0,0,0,0,0,0,0,0,0,0,0,0,0,0,0,0,0,0,0,0,0,0,0,0,0,0,0,0,0,0,0,0,0,0,0,0,0,0,0,0,0,0,0,0,0,0,0,0,0,0,0,0,0,0,0,0,0,0,0,0,0,0,0,0,0,0,0,0,0,0,0,0,0,0,0,0,0,0,0,0,0,0,0,0,0,0,0,0,0,
0,0,0,0,0,0,0,0,0,0,0,0,0,0,0,0,0,0,0,0,0,0,0,0,0,0,0,0,0,0,0,0,0,0,0,0,0,0,0,0,0,0,0,0,0,0,0,0,0,0,0,0,0,0,0,0,0,0,0,0,0,0,0,0,0,0,0,0,0,0,0,0,0,0,0,0,0,0,0,0,0,0,0,0,0,0,0,0,0,0,0,0,0,0,0,0,0,0,0,0,0,0,0,0,0,0,0,0,0,0,0,0,0,0,0,0,0,0,0,0,0,0,0,0,0,0,0,0,
0,0,0,0,0,0,0,0,0,0,0,0,0,0,0,0,0,0,0,0,0,0,0,0,0,0,0,0,0,0,0,0,0,0,0,0,0,0,0,0,0,0,0,0,0,0,0,0,0,0,0,0,0,0,0,0,0,0,0,0,0,0,0,0,0,0,0,0,0,0,0,0,0,0,0,0,0,0,0,0,0,0,0,0,0,0,0,0,0,0,0,0,0,0,0,0,0,0,0,0,0,0,0,0,0,0,0,0,0,0,0,0,0,0,0,0,0,0,0,0,0,0,0,0,0,0,0,0,
0,0,0,0,0,0,0,0,0,0,0,0,0,0,0,0,0,0,0,0,0,0,0,0,0,0,0,0,0,0,0,0,0,0,0,0,0,0,0,0,0,0,0,0,0,0,0,0,0,0,0,0,0,0,0,0,0,0,0,0,0,0,0,0,0,0,0,0,0,0,0,0,0,0,0,0,0,0,0,0,0,0,0,0,0,0,0,0,0,0,0,0,0,0,0,0,0,0,0,0,0,0,0,0,0,0,0,0,0,0,0,0,0,0,0,0,0,0,0,0,0,0,0,0,0,0,0,0,
0,0,0,0,0,0,0,0,0,0,0,0,0,0,0,0,0,0,0,0,0,0,0,0,0,0,0,0,0,0,0,0,0,0,0,0,0,0,0,0,0,0,0,0,0,0,0,0,0,0,0,0,0,0,0,0,0,0,0,0,0,0,0,0,0,0,0,0,0,0,0,0,0,0,0,0,0,0,0,0,0,0,0,0,0,0,0,0,0,0,0,0,0,0,0,0,0,0,0,0,0,0,0,0,0,0,0,0,0,0,0,0,0,0,0,0,0,0,0,0,0,0,0,0,0,0,0,0,
0,0,0,0,0,0,0,0,0,0,0,0,0,0,0,0,0,0,0,0,0,0,0,0,0,0,0,0,0,0,0,0,0,0,0,0,0,0,0,0,0,0,0,0,0,0,0,0,0,0,0,0,0,0,0,0,0,0,0,0,0,0,0,0,0,0,0,0,0,0,0,0,0,0,0,0,0,0,0,0,0,0,0,0,0,0,0,0,0,0,0,0,0,0,0,0,0,0,0,0,0,0,0,0,0,0,0,0,0,0,0,0,0,0,0,0,0,0,0,0,0,0,0,0,0,0,0,0,
0,0,0,0,0,0,0,0,0,0,0,0,0,0,0,0,0,0,0,0,0,0,0,0,0,0,0,0,0,0,0,0,0,0,0,0,0,0,0,0,0,0,0,0,0,0,0,0,0,0,0,0,0,0,0,0,0,0,0,0,0,0,0,0,0,0,0,0,0,0,0,0,0,0,0,0,0,0,0,0,0,0,0,0,0,0,0,0,0,0,0,0,0,0,0,0,0,0,0,0,0,0,0,0,0,0,0,0,0,0,0,0,0,0,0,0,0,0,0,0,0,0,0,0,0,0,0,0,
0,0,0,0,0,0,0,0,0,0,0,0,0,0,0,0,0,0,0,0,0,0,0,0,0,0,0,0,0,0,0,0,0,0,0,0,0,0,0,0,0,0,0,0,0,0,0,0,0,0,0,0,0,0,0,0,0,0,0,0,0,0,0,0,0,0,0,0,0,0,0,0,0,0,0,0,0,0,0,0,0,0,0,0,0,0,0,0,0,0,0,0,0,0,0,0,0,0,0,0,0,0,0,0,0,0,0,0,0,0,0,0,0,0,0,0,0,0,0,0,0,0,0,0,0,0,0,0
</data>
 </layer>
 <layer id="4" name="walls" width="128" height="96">
  <data encoding="csv">
1371,1367,1374,1369,1364,1364,1366,1373,1374,1371,1372,1365,1374,1373,1369,1365,1369,1373,1365,1369,1364,1367,1373,1370,1372,1369,1367,1369,1373,1364,1373,1373,1368,1372,1370,1371,1373,1367,1367,1374,1367,1364,1367,1370,1369,1364,1366,1368,1371,1372,1367,1366,1367,1373,1374,1367,1368,1370,1364,1368,1374,1365,1367,1374,1366,1366,1366,1370,1373,1365,1368,1370,1364,1371,1365,1368,1370,1374,1364,1366,1364,1368,1368,1371,1369,1371,1366,1373,1369,1365,1365,1369,1365,1373,1368,1372,1366,1374,1364,1365,1371,1364,1371,1370,1365,1373,1367,1367,1369,1371,1369,1365,1369,1364,1367,1370,1364,1370,1366,1365,1366,1369,1369,1374,1365,1374,1374,1364,
1346,1347,1148,1149,1196,1197,1198,1199,1148,1149,1200,1201,1202,1203,1148,1149,1196,1197,1198,1199,1200,1201,1202,1203,1346,1347,1152,1153,1148,1149,1196,1197,1198,1199,1148,1149,1152,1153,1152,1153,1196,1197,1198,1199,1150,1151,1346,1347,1196,1197,1198,1199,1200,1201,1202,1203,1196,1197,1198,1199,1196,1197,1198,1199,1346,1347,1346,1347,1196,1197,1198,1199,1152,1153,1148,1149,1152,1153,1196,1197,1198,1199,1150,1151,1148,1149,1196,1197,1198,1199,1150,1151,1152,1153,1346,1347,1148,1149,1152,1153,1200,1201,1202,1203,1196,1197,1198,1199,1200,1201,1202,1203,1152,1153,1150,1151,1150,1151,1150,1151,1200,1201,1202,1203,1148,1149,1148,1149,
1150,1151,1148,1149,1220,1221,1222,1223,1346,1347,1224,1225,1226,1227,1152,1153,1220,1221,1222,1223,1224,1225,1226,1227,1346,1347,1148,1149,1150,1151,1220,1221,1222,1223,1200,1201,1202,1203,1150,1151,1220,1221,1222,1223,1152,1153,1148,1149,1220,1221,1222,1223,1224,1225,1226,1227,1220,1221,1222,1223,1220,1221,1222,1223,1152,1153,1152,1153,1220,1221,1222,1223,1152,1153,1346,1347,1148,1149,1220,1221,1222,1223,1150,1151,1152,1153,1220,1221,1222,1223,1152,1153,1200,1201,1202,1203,1148,1149,1152,1153,1224,1225,1226,1227,1220,1221,1222,1223,1224,1225,1226,1227,1150,1151,1150,1151,1148,1149,1346,1347,1224,1225,1226,1227,1148,1149,1152,1153,
1196,1197,1198,1199,1196,1197,1198,1199,1150,1151,1152,1153,1200,1201,1202,1203,1200,1201,1202,1203,1152,1153,1346,1347,1148,1149,1150,1151,1196,1197,1198,1199,1150,1151,1224,1225,1226,1227,1200,1201,1202,1203,1152,1153,1196,1197,1198,1199,1200,1201,1202,1203,1150,1151,1150,1151,1148,1149,1150,1151,1152,1153,1346,1347,1148,1149,1148,1149,1196,1197,1198,1199,1152,1153,1150,1151,1152,1153,1196,1197,1198,1199,1196,1197,1198,1199,1150,1151,1152,1153,1346,1347,1224,1225,1226,1227,1148,1149,1148,1149,1200,1201,1202,1203,1196,1197,1198,1199,1152,1153,1152,1153,1346,1347,1150,1151,1150,1151,1346,1347,1148,1149,1196,1197,1198,1199,1346,1347,
1220,1221,1222,1223,1220,1221,1222,1223,1150,1151,1150,1151,1224,1225,1226,1227,1224,1225,1226,1227,1148,1149,1200,1201,1202,1203,1148,1149,1220,1221,1222,1223,0,1150,1151,0,0,0,1224,1225,1226,1227,0,0,1220,1221,1222,1223,1224,1225,1226,1227,1200,1201,1202,1203,1148,1149,1200,1201,1202,1203,1346,1347,1152,1153,1150,1151,1220,1221,1222,1223,1148,1149,1196,1197,1198,1199,1220,1221,1222,1223,1220,1221,1222,1223,1346,1347,1196,1197,1198,1199,1200,1201,1202,1203,1346,1347,1346,1347,1224,1225,1226,1227,1220,1221,1222,1223,1152,1153,1152,1153,1196,1197,1198,1199,0,1346,1347,1152,1153,0,1220,1221,1222,1223,1148,1149,
1148,1149,1148,1149,0,1150,1151,1150,1151,0,1152,1153,1200,1201,1202,1203,1150,1151,1152,1153,1148,1149,1224,1225,1226,1227,1152,1153,1152,1153,0,0,1152,1153,1152,1153,0,1152,1153,1152,1153,0,0,1346,1347,1200,1201,1202,1203,1152,1153,0,1224,1225,1226,1227,1148,1149,1224,1225,1226,1227,1152,1153,1346,1347,1200,1201,1202,1203,1150,1151,1150,1151,1220,1221,1222,1223,0,1152,1153,1150,1151,0,1148,1149,1148,1149,1220,1221,1222,1223,1224,1225,1226,1227,1196,1197,1198,1199,1346,1347,1152,1153,1150,1151,1196,1197,1198,1199,1152,1153,1220,1221,1222,1223,1346,1347,1150,1151,1200,1201,1202,1203,0,1148,1149,1374,
1150,1151,1200,1201,1202,1203,1346,1347,0,1346,1347,0,1224,1225,1226,1227,1196,1197,1198,1199,1200,1201,1202,1203,1148,1149,1148,1149,0,1148,1149,1148,1149,0,1196,1197,1198,1199,1196,1197,1198,1199,1152,1153,0,1224,1225,1226,1227,0,1150,1151,1346,1347,1152,1153,1200,1201,1202,1203,1148,1149,0,0,1152,1153,1224,1225,1226,1227,1148,1149,1152,1153,1150,1151,0,1150,1151,1150,1151,1152,1153,1150,1151,1346,1347,1196,1197,1198,1199,0,1150,1151,1150,1151,1220,1221,1222,1223,0,1200,1201,1202,1203,0,1220,1221,1222,1223,1148,1149,1148,1149,1152,1153,0,0,1346,1347,1224,1225,1226,1227,0,1150,1151,1373,
1148,1149,1224,1225,1226,1227,1148,1149,1196,1197,1198,1199,0,0,1148,1149,1220,1221,1222,1223,1224,1225,1226,1227,1150,1151,0,1148,1149,1150,1151,1150,1151,0,1220,1221,1222,1223,1220,1221,1222,1223,0,0,0,1148,1149,1196,1197,1198,1199,1346,1347,1148,1149,0,1224,1225,1226,1227,1148,1149,1152,1153,1150,1151,0,0,1346,1347,1200,1201,1202,1203,1346,1347,1346,1347,1152,1153,0,1148,1149,1150,1151,1150,1151,1220,1221,1222,1223,0,0,1200,1201,1202,1203,0,1346,1347,0,1224,1225,1226,1227,1150,1151,1196,1197,1198,1199,1200,1201,1202,1203,1346,1347,1150,1151,1346,1347,1152,1153,1346,1347,1346,1347,1369,
1148,1149,1148,1149,1152,1153,1152,1153,1220,1221,1222,1223,0,0,0,0,0,0,0,1200,1201,1202,1203,1148,1149,1150,1151,0,1346,1347,0,1200,1201,1202,1203,1150,1151,0,1152,1153,0,1148,1149,0,1346,1347,0,1220,1221,1222,1223,0,0,1152,1153,0,1148,1149,1152,1153,1148,1149,1152,1153,0,1196,1197,1198,1199,0,1224,1225,1226,1227,1346,1347,0,1200,1201,1202,1203,1152,1153,0,1148,1149,1346,1347,0,1196,1197,1198,1199,1224,1225,1226,1227,0,1200,1201,1202,1203,1200,1201,1202,1203,0,1220,1221,1222,1223,1224,1225,1226,1227,1148,1149,1196,1197,1198,1199,0,1148,1149,0,1148,1149,1368,
1200,1201,1202,1203,1152,1153,0,1152,1153,0,0,0,0,0,0,0,0,0,0,1224,1225,1226,1227,0,1346,1347,1150,1151,1150,1151,0,1224,1225,1226,1227,1150,1151,0,1150,1151,1148,1149,1148,1149,1196,1197,1198,1199,1152,1153,1200,1201,1202,1203,0,1152,1153,0,1148,1149,1200,1201,1202,1203,0,1220,1221,1222,1223,1346,1347,1148,1149,1196,1197,1198,1199,1224,1225,1226,1227,1196,1197,1198,1199,1346,1347,1150,1151,1220,1221,1222,1223,0,0,0,0,0,1224,1225,1226,1227,1224,1225,1226,1227,1150,1151,1148,1149,0,1200,1201,1202,1203,1148,1149,1220,1221,1222,1223,1196,1197,1198,1199,1148,1149,1371,
1224,1225,1226,1227,1346,1347,1346,1347,0,0,0,0,0,0,0,0,0,0,0,1196,1197,1198,1199,1148,1149,1152,1153,1150,1151,1148,1149,0,1200,1201,1202,1203,0,1346,1347,1148,1149,1152,1153,0,1220,1221,1222,1223,0,0,1224,1225,1226,1227,0,0,1346,1347,0,0,1224,1225,1226,1227,0,1148,1149,1150,1151,0,0,1152,1153,1220,1221,1222,1223,0,1148,1149,0,1220,1221,1222,1223,1200,1201,1202,1203,1346,1347,0,1200,1201,1202,1203,0,0,0,0,1152,1153,0,1150,1151,0,1148,1149,1148,1149,0,1224,1225,1226,1227,1148,1149,1152,1153,1148,1149,1220,1221,1222,1223,1346,1347,1365,
1346,1347,1196,1197,1198,1199,1346,1347,1152,1153,0,0,0,0,0,0,0,0,0,1220,1221,1222,1223,0,1200,1201,1202,1203,1150,1151,1148,1149,1224,1225,1226,1227,0,1346,1347,1346,1347,0,1196,1197,1198,1199,0,0,0,0,1200,1201,1202,1203,0,0,0,0,0,0,1346,1347,0,1200,1201,1202,1203,1150,1151,1150,1151,1196,1197,1198,1199,0,1150,1151,0,0,1152,1153,1148,1149,0,1224,1225,1226,1227,1152,1153,0,1224,1225,1226,1227,0,0,2040,2041,0,0,0,0,1200,1201,1202,1203,1152,1153,1150,1151,1196,1197,1198,1199,0,0,1200,1201,1202,1203,1148,1149,0,1346,1347,1369,
1152,1153,1220,1221,1222,1223,1152,1153,1150,1151,0,0,0,0,0,0,0,0,0,1152,1153,0,0,0,1224,1225,1226,1227,0,0,0,0,0,1200,1201,1202,1203,1346,1347,1152,1153,0,1220,1221,1222,1223,1200,1201,1202,1203,1224,1225,1226,1227,0,0,0,0,0,0,0,0,0,1224,1225,1226,1227,0,1152,1153,0,1220,1221,1222,1223,0,0,0,1148,1149,1196,1197,1198,1199,1196,1197,1198,1199,0,0,1152,1153,0,0,0,0,0,0,0,0,0,1148,1149,0,1224,1225,1226,1227,0,1150,1151,0,1220,1221,1222,1223,1150,1151,1224,1225,1226,1227,1148,1149,0,1150,1151,1368,
1196,1197,1198,1199,1152,1153,1346,1347,0,0,0,0,0,0,0,0,0,0,1346,1347,0,1152,1153,0,1150,1151,0,0,0,0,0,0,0,1224,1225,1226,1227,0,0,0,0,0,1148,1149,1152,1153,1224,1225,1226,1227,0,0,1150,1151,1152,1153,0,0,0,0,0,0,0,0,1152,1153,1200,1201,1202,1203,0,0,0,1346,1347,0,0,1346,1347,0,1220,1221,1222,1223,1220,1221,1222,1223,0,0,1200,1201,1202,1203,0,0,0,0,0,0,0,0,0,1200,1201,1202,1203,0,0,1196,1197,1198,1199,0,0,1148,1149,0,0,0,1148,1149,1346,1347,0,1346,1347,1370,
1220,1221,1222,1223,1150,1151,1346,1347,1346,1347,0,0,0,0,0,0,0,0,1196,1197,1198,1199,0,0,0,0,0,0,0,0,1152,1153,0,0,1346,1347,0,0,0,0,0,0,0,0,0,0,0,0,0,0,0,0,1196,1197,1198,1199,0,0,0,0,0,0,0,0,0,0,1224,1225,1226,1227,1196,1197,1198,1199,0,0,0,0,0,0,0,0,0,0,1196,1197,1198,1199,0,0,1224,1225,1226,1227,0,0,0,0,0,0,0,0,0,1224,1225,1226,1227,1148,1149,1220,1221,1222,1223,0,0,0,0,0,1148,1149,0,0,1150,1151,0,1148,1149,1373,
1148,1149,1148,1149,1148,1149,1346,1347,1148,1149,0,0,0,0,0,0,0,0,1220,1221,1222,1223,0,0,0,0,0,0,0,0,0,0,0,0,0,0,0,0,0,0,0,0,0,0,0,0,0,0,0,0,0,0,1220,1221,1222,1223,0,0,0,0,0,0,0,0,0,0,0,0,0,0,1220,1221,1222,1223,0,0,0,0,0,0,0,0,0,0,1220,1221,1222,1223,0,0,0,0,0,0,0,0,0,0,0,0,0,0,1150,1151,0,0,0,0,0,0,0,0,0,1152,1153,0,1152,1153,1200,1201,1202,1203,1152,1153,0,1152,1153,1371,
1196,1197,1198,1199,1196,1197,1198,1199,1200,1201,1202,1203,0,0,0,0,0,0,0,0,0,0,0,0,0,0,0,0,0,0,0,0,0,0,0,0,0,0,0,0,0,0,0,0,0,2040,2041,0,0,0,0,0,0,0,0,0,0,1580,1581,1582,1583,1584,1585,0,0,0,0,0,0,0,0,0,0,0,0,0,0,0,0,0,0,0,0,0,0,0,0,0,0,0,0,0,0,0,0,0,0,1397,0,0,0,0,0,0,0,0,0,0,0,0,0,0,0,0,1200,1201,1202,1203,1224,1225,1226,1227,1346,1347,0,1150,1151,1366,
1220,1221,1222,1223,1220,1221,1222,1223,1224,1225,1226,1227,1150,1151,0,0,0,0,0,0,0,0,0,0,0,0,0,0,0,0,0,0,0,0,0,0,0,0,0,0,0,0,0,0,0,0,0,0,0,0,0,0,0,0,0,0,0,1604,1605,1606,1607,1608,1609,0,0,0,0,0,0,0,0,0,0,0,0,0,0,0,0,0,0,0,0,0,0,0,0,0,0,0,0,0,0,0,0,0,0,0,0,0,0,0,0,0,0,0,0,0,0,0,0,0,0,0,1224,1225,1226,1227,1196,1197,1198,1199,1150,1151,0,1152,1153,1364,
1196,1197,1198,1199,0,1200,1201,1202,1203,0,1346,1347,0,0,0,0,0,0,0,0,0,0,0,0,0,0,0,0,0,0,0,0,0,0,0,0,0,0,0,0,0,0,0,0,0,0,0,0,0,0,0,0,0,0,0,0,0,0,0,0,0,0,0,0,0,0,0,0,0,0,0,0,0,0,0,0,0,0,0,0,0,0,0,0,1768,1804,1804,1804,1773,1804,1804,1804,1804,1804,1773,1804,1804,1804,1804,1804,1804,1804,1804,1804,1804,1804,1804,1804,1804,1769,0,0,0,0,0,1148,1149,0,1220,1221,1222,1223,0,1148,1149,1346,1347,1369,
1220,1221,1222,1223,0,1224,1225,1226,1227,1200,1201,1202,1203,0,1150,1151,0,0,0,0,0,0,0,0,0,0,0,0,0,0,0,0,0,0,0,0,0,0,0,0,0,0,0,0,0,0,0,0,0,0,0,0,0,0,0,0,0,0,0,0,0,0,0,0,0,0,0,0,0,0,0,0,0,0,0,0,0,0,0,0,0,0,0,0,1771,0,0,0,1771,0,0,0,0,0,1771,0,0,0,0,0,0,0,0,0,0,0,0,0,0,1771,0,0,1148,1149,0,0,0,1150,1151,0,0,0,0,1152,1153,1148,1149,1372,
1200,1201,1202,1203,1200,1201,1202,1203,0,1224,1225,1226,1227,1150,1151,0,0,0,0,0,0,0,0,0,0,0,0,0,0,0,0,0,0,0,0,0,0,0,0,0,0,0,0,0,0,0,0,0,0,0,0,0,0,0,0,0,0,0,0,0,0,0,0,0,0,0,0,0,0,0,0,0,0,0,0,0,0,2040,2041,0,0,0,0,0,1771,2307,2308,2309,1771,1892,1893,1894,0,0,1771,0,2040,2041,0,0,1388,1388,1388,0,0,0,0,0,0,1771,0,0,0,1152,1153,0,0,0,0,0,0,1196,1197,1198,1199,1148,1149,1373,
1224,1225,1226,1227,1224,1225,1226,1227,1152,1153,1200,1201,1202,1203,0,0,0,0,0,0,0,0,0,0,0,0,0,0,0,0,0,0,0,0,0,2040,2041,0,0,0,0,0,0,0,0,0,0,0,0,0,0,0,0,0,0,0,0,0,0,0,0,0,0,0,0,0,0,0,0,0,0,0,0,0,0,0,0,0,0,0,0,0,0,0,1771,2340,2341,2342,1771,1925,1926,1927,0,0,1771,0,0,0,0,0,1388,1388,1388,0,0,0,0,0,0,1771,0,0,0,1152,1153,0,0,0,0,0,0,1220,1221,1222,1223,1148,1149,1369,
1346,1347,1152,1153,0,1346,1347,1346,1347,0,1224,1225,1226,1227,0,0,0,0,0,0,0,0,0,0,0,0,0,0,0,0,0,0,0,0,0,0,0,0,0,0,0,0,0,0,0,0,0,0,0,0,0,0,0,0,0,0,0,2040,2041,0,0,0,0,1388,1388,1388,0,1388,1388,1388,0,0,0,0,0,0,0,0,0,0,0,0,0,0,1771,0,0,0,1771,0,0,0,0,0,1771,0,0,0,0,0,1388,1388,1388,0,0,0,0,0,0,1771,0,0,0,0,1150,1151,0,0,0,0,0,0,0,1152,1153,1346,1347,1372,
1196,1197,1198,1199,0,1150,1151,1148,1149,0,1148,1149,1346,1347,0,0,0,0,0,0,0,0,0,0,0,0,0,0,0,0,0,0,2040,2041,0,0,0,0,0,0,0,0,0,0,0,0,0,0,0,0,0,0,0,0,0,0,0,0,0,0,0,0,0,1388,1388,1388,0,1388,1388,1388,0,0,0,0,0,0,0,0,0,0,0,0,0,0,1771,0,0,0,1771,0,0,0,0,0,1771,0,2040,2041,0,0,0,0,0,0,0,0,0,0,0,1771,0,0,0,0,0,0,0,0,0,0,0,0,0,1152,1153,1346,1347,1371,
1220,1221,1222,1223,0,1346,1347,1196,1197,1198,1199,1152,1153,0,0,0,0,0,0,0,0,0,0,0,0,0,0,0,0,0,0,0,0,0,0,0,0,0,0,0,0,0,0,0,0,0,0,0,0,0,0,0,0,0,0,0,0,0,0,0,0,0,0,1388,1388,1388,0,1388,1388,1388,0,0,0,0,0,0,0,0,0,0,0,0,0,0,1771,0,0,0,1771,0,0,0,0,0,1771,0,0,0,0,0,0,0,0,0,0,0,0,0,0,1771,0,0,0,1346,1347,0,0,0,0,0,0,0,0,1148,1149,1346,1347,1368,
1148,1149,1196,1197,1198,1199,0,1220,1221,1222,1223,0,0,0,0,0,0,0,0,0,0,0,0,0,0,0,0,0,0,0,0,0,0,0,0,0,0,0,0,0,0,0,0,0,0,0,0,0,0,0,0,0,0,0,0,0,0,0,0,0,0,0,0,0,0,0,0,0,0,0,0,0,0,0,0,0,0,0,0,0,0,0,0,0,1771,0,0,0,1771,0,0,0,0,0,1771,0,0,0,0,0,0,0,0,0,1661,1662,1663,1664,0,1771,0,0,0,0,1346,1347,0,0,0,0,0,0,0,1152,1153,1152,1153,1367,
1346,1347,1220,1221,1222,1223,0,0,1346,1347,0,0,0,2040,2041,0,0,0,0,0,0,0,0,0,0,0,0,0,0,0,0,0,0,0,0,0,0,0,0,0,0,0,0,0,0,0,0,0,0,0,0,0,0,0,0,0,0,0,0,0,0,0,0,0,0,0,0,0,0,0,0,0,0,0,0,0,0,0,0,0,0,0,0,0,1771,0,1770,1804,1805,1804,1804,1803,0,1770,1802,0,0,0,0,0,0,0,0,0,1694,1695,1696,1697,0,1771,0,0,0,1152,1153,0,1150,1151,0,0,0,0,0,1346,1347,1346,1347,1369,
1346,1347,1148,1149,1346,1347,1346,1347,1200,1201,1202,1203,0,0,0,0,0,0,0,0,0,0,0,0,0,0,0,0,0,0,0,0,0,0,0,0,0,0,0,0,0,0,0,0,0,0,0,0,0,0,0,0,0,0,0,0,0,0,0,0,0,0,0,0,0,0,0,0,0,0,0,0,0,0,0,0,0,0,0,0,0,0,0,0,1771,0,0,0,0,0,0,0,0,0,0,0,0,0,0,0,0,0,0,0,0,0,0,0,0,1771,0,0,0,0,0,1148,1149,0,0,0,0,0,0,0,0,1346,1347,1374,
1200,1201,1202,1203,1148,1149,0,0,1224,1225,1226,1227,1152,1153,0,0,0,0,0,0,0,0,0,0,0,0,0,0,0,0,0,0,0,0,0,0,0,0,0,0,0,0,0,0,0,0,0,0,0,0,0,0,0,0,0,0,0,0,0,0,0,0,0,0,0,0,0,0,0,0,0,0,0,0,0,0,0,0,0,0,0,0,0,0,1801,1804,1804,1804,1804,1804,1804,1804,1804,1804,1804,1804,1804,1804,1804,1804,1804,1804,1804,1804,1803,0,1770,1804,1804,1802,0,0,0,1150,1151,0,0,0,0,0,0,0,0,1150,1151,1148,1149,1368,
1224,1225,1226,1227,1200,1201,1202,1203,0,1196,1197,1198,1199,0,0,0,0,0,0,0,0,0,0,0,0,0,0,0,0,0,0,0,0,0,0,0,0,0,0,0,0,0,0,0,0,0,0,0,0,0,0,0,0,0,0,0,0,0,0,0,0,1320,0,0,0,0,0,0,0,0,0,0,0,0,0,0,0,0,0,0,0,0,0,0,0,0,0,0,0,0,0,0,0,0,0,0,0,0,0,0,0,0,0,0,1364,0,0,0,0,0,0,0,0,1200,1201,1202,1203,0,0,0,0,0,0,1152,1153,1152,1153,1366,
1346,1347,1152,1153,1224,1225,1226,1227,0,1220,1221,1222,1223,0,0,0,0,0,0,0,0,0,0,0,0,0,0,0,0,0,0,0,0,0,0,0,0,0,0,0,0,0,0,0,0,0,0,0,0,0,0,0,0,0,0,0,0,0,0,0,0,0,0,0,0,0,0,0,0,0,0,0,0,0,0,0,0,0,0,0,0,0,0,0,0,0,0,0,0,0,0,0,0,0,0,0,0,0,0,0,0,0,0,0,0,0,0,0,0,0,0,0,0,1224,1225,1226,1227,0,0,0,0,0,0,1152,1153,1150,1151,1365,
1200,1201,1202,1203,1148,1149,0,1148,1149,1148,1149,1200,1201,1202,1203,0,0,0,0,0,0,0,0,0,0,0,0,0,0,0,0,0,0,0,0,0,0,0,0,0,0,0,0,0,0,0,0,0,0,0,0,0,0,0,0,0,0,0,0,0,0,0,0,0,0,0,0,0,0,0,0,0,0,0,0,0,0,0,0,0,0,0,0,0,0,0,0,0,0,0,0,0,0,0,0,0,0,0,0,0,0,0,0,0,0,0,0,0,0,0,0,0,0,0,0,1200,1201,1202,1203,0,0,0,0,0,0,1346,1347,1372,
1224,1225,1226,1227,1148,1149,1346,1347,1152,1153,0,1224,1225,1226,1227,0,0,0,0,0,0,0,0,0,0,0,0,0,0,0,0,0,0,0,0,0,0,0,0,0,0,0,0,0,0,0,0,0,0,0,0,0,0,0,0,0,0,0,0,0,0,0,0,0,0,0,0,0,0,0,0,0,0,0,0,0,0,0,0,0,1447,0,0,0,0,0,0,0,0,0,0,0,0,0,0,0,0,0,0,0,0,0,0,0,0,0,0,0,2307,2308,2309,0,0,0,0,1224,1225,1226,1227,1346,1347,0,1152,1153,0,1148,1149,1367,
1346,1347,1200,1201,1202,1203,0,0,1148,1149,0,0,0,0,0,0,0,0,0,0,0,0,0,0,0,0,0,0,0,0,0,0,0,0,0,0,0,0,0,0,0,0,0,0,0,0,0,0,0,0,0,0,0,0,0,0,0,0,0,0,0,0,0,0,0,0,1583,1584,1585,0,0,0,0,0,0,0,0,0,0,0,0,0,0,0,0,0,0,0,0,0,0,0,0,0,0,0,0,0,0,0,0,0,0,0,0,0,0,0,2340,2341,2342,1196,1197,1198,1199,0,1150,1151,1150,1151,0,1346,1347,1150,1151,1150,1151,1373,
1346,1347,1224,1225,1226,1227,0,0,0,0,0,0,0,0,0,0,0,0,0,0,0,0,0,0,0,0,0,0,0,0,0,0,0,0,0,0,0,0,0,0,0,0,0,0,0,0,0,0,0,0,0,0,0,0,0,0,0,0,0,0,0,0,0,0,0,0,1607,1608,1609,0,0,0,0,0,0,0,1454,0,0,0,0,0,0,0,0,0,0,0,0,0,0,0,0,0,0,0,0,0,0,0,0,0,0,0,0,0,0,0,0,0,0,1220,1221,1222,1223,0,1150,1151,0,0,1152,1153,0,1148,1149,1148,1149,1371,
1346,1347,1346,1347,1150,1151,0,0,0,0,0,0,0,0,0,0,0,0,0,0,0,0,0,0,0,0,0,0,0,0,0,0,0,0,0,0,0,0,0,0,0,0,0,0,0,0,0,0,0,0,0,0,1365,0,0,0,0,0,0,0,0,0,0,0,0,0,0,0,0,0,0,0,0,0,0,0,0,0,0,0,0,0,0,0,0,0,0,0,0,0,0,0,0,0,0,0,0,0,0,0,0,0,0,0,0,0,0,0,0,0,0,0,0,1148,1149,1152,1153,0,1346,1347,1346,1347,0,1150,1151,1346,1347,1365,
1196,1197,1198,1199,1148,1149,0,0,0,0,0,0,0,0,0,0,0,0,0,0,0,0,0,0,0,0,0,0,0,0,0,0,0,0,0,0,0,0,0,0,0,0,0,0,0,0,1344,0,0,0,0,0,0,0,0,0,0,0,0,0,0,0,0,0,0,0,0,0,0,0,0,0,0,0,0,0,0,0,0,0,0,0,0,0,0,0,0,0,0,0,0,0,0,0,0,0,0,0,0,0,0,0,0,0,0,0,0,0,0,0,0,0,0,0,0,0,0,0,1150,1151,0,1152,1153,1150,1151,1148,1149,1370,
1220,1221,1222,1223,1148,1149,0,0,0,0,0,0,0,0,0,0,0,0,0,0,0,0,0,0,0,0,0,0,0,0,0,0,0,0,0,0,0,0,0,0,0,0,0,0,0,0,0,0,0,0,0,0,0,0,0,0,0,0,0,0,0,0,0,0,0,0,0,0,0,0,0,0,0,0,0,0,0,0,0,0,0,0,0,0,0,0,0,0,0,0,0,0,0,0,0,0,0,0,0,0,0,0,0,0,0,0,0,0,0,0,0,0,0,0,0,1150,1151,1150,1151,1346,1347,0,1148,1149,0,1150,1151,1373,
1148,1149,1148,1149,1346,1347,0,0,0,0,0,0,0,0,0,0,0,0,0,0,0,0,0,0,0,0,0,0,0,0,0,0,0,0,0,0,0,0,0,0,0,0,0,0,0,0,0,0,0,1392,0,0,0,0,0,0,0,0,0,0,0,0,0,0,0,0,1586,1587,1588,0,0,0,0,0,0,0,0,0,0,0,0,0,0,0,0,0,0,0,0,0,0,0,0,0,0,0,0,0,0,0,0,0,0,0,0,0,0,0,0,0,0,0,0,0,0,1346,1347,0,1346,1347,1196,1197,1198,1199,0,1346,1347,1371,
1148,1149,1200,1201,1202,1203,0,0,0,0,0,0,0,0,0,0,0,0,0,0,0,0,0,0,0,0,0,0,0,0,0,0,0,0,0,0,0,0,0,0,0,0,0,0,0,0,0,0,0,0,0,0,0,0,0,0,0,0,0,0,0,0,0,0,0,0,1610,1611,1612,0,0,0,0,0,0,0,0,0,0,0,0,0,0,0,0,0,2181,2182,2183,2184,0,0,2307,2308,2309,0,0,0,0,0,0,0,0,0,0,0,0,0,0,0,0,0,0,1148,1149,0,0,1152,1153,0,1220,1221,1222,1223,0,1152,1153,1374,
1150,1151,1224,1225,1226,1227,0,0,0,0,0,0,0,0,0,0,0,0,0,0,0,0,0,0,0,2405,0,0,0,0,0,0,0,0,0,0,0,0,0,0,0,0,0,0,0,0,1364,0,0,0,0,0,0,0,1989,0,0,0,0,0,0,0,0,0,0,0,0,0,0,0,0,0,0,0,0,0,0,0,0,0,0,0,0,0,0,0,2214,2215,2216,2217,0,0,2340,2341,2342,0,0,0,0,0,0,0,0,0,0,0,0,0,0,0,0,0,0,0,0,0,1148,1149,1196,1197,1198,1199,1346,1347,0,1346,1347,1368,
1196,1197,1198,1199,0,0,0,0,0,0,0,1150,1151,0,0,0,0,0,0,0,0,0,0,0,0,0,0,0,2009,0,0,0,0,0,0,0,0,2170,0,0,0,0,0,0,0,0,0,1369,0,0,0,2140,0,0,0,0,0,0,0,0,0,0,0,0,0,0,0,0,0,0,0,0,0,0,0,0,0,0,0,0,0,0,0,0,0,0,2247,2248,2249,2250,0,0,0,0,0,0,0,0,0,0,0,0,0,0,0,0,0,0,0,0,0,0,1150,1151,0,0,0,0,1220,1221,1222,1223,0,1150,1151,1152,1153,1368,
1220,1221,1222,1223,0,0,0,0,1196,1197,1198,1199,0,0,0,0,0,0,0,0,0,0,0,0,0,0,0,0,0,0,0,0,0,1370,0,0,0,0,0,0,0,0,0,0,0,0,0,0,0,0,0,0,0,1397,0,0,0,0,0,0,0,0,0,0,0,0,0,0,0,0,0,0,0,0,0,0,0,0,0,0,0,0,0,0,0,0,0,0,0,0,0,0,0,0,0,0,0,0,0,0,0,0,0,0,0,0,0,0,0,0,0,0,0,0,0,0,0,0,1200,1201,1202,1203,1152,1153,0,1152,1153,1364,
1346,1347,1200,1201,1202,1203,0,0,1220,1221,1222,1223,1148,1149,0,0,0,0,0,0,0,0,0,0,0,0,0,0,0,0,0,0,0,0,0,0,0,0,0,0,0,0,0,0,0,0,0,0,0,0,2391,0,0,0,0,0,0,0,0,0,0,0,0,0,0,0,0,0,0,0,0,0,0,0,0,0,0,0,0,0,0,0,0,0,0,0,0,0,0,0,0,0,0,0,0,0,0,0,0,0,0,0,0,0,0,0,0,0,0,0,0,0,0,1346,1347,1152,1153,0,1224,1225,1226,1227,1346,1347,0,1346,1347,1371,
1346,1347,1224,1225,1226,1227,1148,1149,0,1196,1197,1198,1199,0,0,0,0,0,1768,1804,1804,1804,1804,1773,1804,1804,1804,1804,1769,0,0,0,0,0,0,0,0,0,0,0,0,0,0,0,0,0,0,0,0,0,0,0,0,0,0,0,0,0,0,0,0,0,0,0,0,0,0,0,0,0,0,0,0,0,0,0,0,0,0,0,0,0,0,0,0,0,0,0,0,0,0,0,0,0,0,0,0,0,0,0,0,0,0,0,0,0,0,0,0,0,0,0,0,0,0,1200,1201,1202,1203,1152,1153,1196,1197,1198,1199,1150,1151,1366,
1152,1153,1346,1347,1152,1153,0,0,0,1220,1221,1222,1223,0,0,0,0,0,1771,0,0,0,0,1771,0,0,0,0,1771,0,0,0,0,0,0,0,0,0,0,0,0,0,0,0,0,0,1900,1936,1936,1936,1936,1936,1901,0,0,0,0,0,0,0,0,0,0,0,0,0,0,0,0,0,0,0,0,0,0,0,0,0,0,0,0,0,0,0,0,0,0,0,0,0,0,0,0,0,0,0,0,0,0,0,0,0,0,0,0,0,0,0,0,0,0,0,0,0,0,1224,1225,1226,1227,1148,1149,1220,1221,1222,1223,1346,1347,1370,
1196,1197,1198,1199,1196,1197,1198,1199,1346,1347,0,1196,1197,1198,1199,0,0,0,1771,0,0,0,0,1771,0,0,0,0,1771,0,0,0,1397,0,0,0,0,0,0,0,0,0,0,0,0,0,1903,0,0,0,0,0,1903,0,0,0,0,0,0,0,0,0,0,0,0,0,0,0,0,0,0,0,0,0,0,0,0,0,0,0,0,0,0,0,0,0,0,0,0,0,0,0,0,2426,0,0,0,0,0,0,0,0,0,1855,1856,1857,0,0,0,0,0,0,0,1148,1149,1148,1149,1150,1151,1150,1151,1346,1347,1152,1153,1148,1149,1366,
1220,1221,1222,1223,1220,1221,1222,1223,1150,1151,0,1220,1221,1222,1223,0,0,0,1771,0,0,0,0,1771,0,0,0,0,1771,0,0,0,0,0,0,0,0,0,0,0,0,0,0,0,0,0,1903,0,1661,1662,1663,1664,0,0,0,0,0,0,0,0,0,0,0,0,0,0,0,0,0,0,0,0,0,0,0,0,0,0,0,0,0,0,0,0,0,0,0,0,0,0,0,0,0,0,0,0,0,0,0,0,0,0,0,1888,1889,1890,0,0,0,0,0,0,0,0,0,1148,1149,1148,1149,1152,1153,1200,1201,1202,1203,1346,1347,1364,
1200,1201,1202,1203,1346,1347,1152,1153,1152,1153,1150,1151,0,1196,1197,1198,1199,0,1771,0,0,0,0,1771,0,0,0,0,1771,0,0,0,0,0,0,0,0,0,0,0,0,0,0,0,0,0,1903,0,1694,1695,1696,1697,0,0,0,0,0,0,0,1770,1804,1804,1804,1804,1803,0,0,0,0,0,0,0,0,0,0,0,0,0,0,0,0,0,0,0,0,0,0,0,0,0,0,0,0,0,0,0,0,0,0,0,0,0,0,0,0,0,0,0,0,0,0,0,0,0,0,1152,1153,0,0,1152,1153,1224,1225,1226,1227,1148,1149,1367,
1224,1225,1226,1227,0,1196,1197,1198,1199,0,0,1150,1151,1220,1221,1222,1223,0,1771,0,0,0,0,1771,0,0,0,0,1771,0,0,0,0,0,0,0,0,0,0,0,0,0,0,0,0,0,1903,0,0,0,0,0,0,0,0,0,0,1771,0,0,0,0,0,0,0,1771,0,0,0,0,0,0,1583,1584,1585,0,0,0,0,0,0,0,0,0,0,0,0,0,0,0,0,0,0,0,0,0,0,0,0,0,0,0,0,0,0,0,0,0,0,0,0,0,0,0,0,1148,1149,1152,1153,0,0,0,1148,1149,0,1152,1153,1367,
1196,1197,1198,1199,0,1220,1221,1222,1223,0,1346,1347,0,1200,1201,1202,1203,0,1771,0,0,0,0,1771,0,0,0,0,1771,0,0,0,0,0,0,0,0,0,0,0,0,0,0,0,0,0,1903,0,0,0,0,0,0,0,0,0,0,1771,0,0,0,0,0,0,0,1771,0,0,0,0,0,0,1607,1608,1609,0,0,0,0,0,0,0,0,0,0,0,0,0,0,0,0,0,0,0,0,0,0,0,0,0,0,0,0,0,0,0,0,0,0,0,0,0,0,0,0,1200,1201,1202,1203,0,0,0,1148,1149,0,1150,1151,1368,
1220,1221,1222,1223,1346,1347,1148,1149,1148,1149,1150,1151,0,1224,1225,1226,1227,0,1771,0,1770,1804,1804,1805,1804,1804,1803,0,1771,0,0,0,0,0,0,0,0,0,0,0,0,0,0,0,0,0,0,0,1902,1935,0,0,0,0,0,0,0,1771,0,0,2307,2308,2309,0,0,1771,0,0,0,0,0,0,0,0,0,0,0,0,0,0,0,0,0,0,0,0,0,0,0,0,0,0,0,0,0,0,0,0,0,1768,1804,1804,1804,1804,1804,1803,0,0,0,0,0,0,0,0,0,1224,1225,1226,1227,0,0,0,0,0,0,1152,1153,1370,
1152,1153,1150,1151,1346,1347,1200,1201,1202,1203,1346,1347,0,0,0,0,0,0,1771,0,0,0,0,0,0,0,0,0,1771,0,0,0,0,0,0,0,0,0,0,0,0,0,0,0,0,0,0,0,0,0,0,0,0,0,0,0,0,1771,0,0,2340,2341,2342,0,0,1771,0,0,0,0,0,0,0,0,0,0,0,0,0,0,0,0,0,0,0,0,0,0,0,0,0,0,0,0,0,0,0,0,0,1771,0,0,0,0,0,0,0,0,0,0,0,0,0,0,0,0,1148,1149,0,0,0,0,0,0,0,1346,1347,1365,
1152,1153,1148,1149,1152,1153,1224,1225,1226,1227,0,1196,1197,1198,1199,0,0,0,1771,0,0,0,0,0,0,0,0,0,1771,0,0,0,0,0,0,0,0,0,0,0,0,0,0,0,0,0,0,0,0,0,0,0,0,0,0,0,0,1771,0,0,0,0,0,0,0,1771,0,0,0,0,0,0,0,0,0,0,0,0,0,0,0,0,0,0,0,0,2403,0,0,0,0,0,0,2204,0,0,0,0,0,1771,0,1687,1688,1689,0,0,0,0,0,0,0,0,0,0,0,0,1152,1153,0,0,0,0,0,0,0,1346,1347,1371,
1148,1149,1148,1149,1148,1149,1346,1347,1346,1347,0,1220,1221,1222,1223,0,0,0,1801,1804,1803,0,1770,1804,1804,1804,1804,1804,1802,0,0,0,0,0,0,0,0,0,0,0,0,0,0,0,0,0,0,0,0,0,0,0,0,0,0,0,0,1771,0,0,0,0,0,0,0,1771,0,0,0,0,0,0,0,0,0,0,0,0,0,0,0,0,0,0,0,0,0,0,0,1389,0,0,2388,0,0,0,0,0,0,1771,0,1720,1721,1722,0,1771,0,0,0,0,0,0,0,0,0,1152,1153,0,0,0,0,0,0,0,0,1148,1149,1368,
1148,1149,1148,1149,1346,1347,1148,1149,0,0,0,1150,1151,1148,1149,0,0,0,0,0,0,0,0,0,0,0,0,0,0,0,0,0,0,0,0,0,0,0,0,0,0,0,0,0,0,0,0,0,0,0,0,0,0,0,0,0,0,1771,0,0,0,0,0,0,0,1771,0,0,0,0,0,0,0,0,0,0,0,0,0,0,0,0,0,0,0,0,0,0,0,0,0,0,0,0,0,0,0,0,0,1771,0,0,0,0,0,1771,0,0,0,0,0,0,0,0,0,0,0,1150,1151,0,0,0,0,0,0,0,0,0,
1196,1197,1198,1199,1148,1149,0,0,0,0,0,0,1150,1151,0,0,0,0,0,0,0,0,0,0,0,0,0,0,0,0,0,0,0,0,0,0,0,0,0,0,0,0,0,0,0,0,0,0,0,0,0,0,0,0,0,0,0,1801,1804,1804,1804,1804,1804,1804,1804,1802,0,0,0,0,0,0,0,0,0,0,0,0,0,0,0,0,0,0,0,0,0,0,0,0,0,0,0,0,0,0,0,0,0,1771,0,0,0,0,0,1771,0,0,0,0,0,0,0,0,0,0,0,1150,1151,0,1150,1151,0,0,0,0,0,0,
1220,1221,1222,1223,0,0,0,0,0,0,0,0,0,0,0,0,0,0,0,0,0,0,0,0,0,0,0,0,0,0,0,0,0,0,0,0,0,0,0,0,1326,0,0,0,0,0,0,0,0,0,0,0,0,0,0,0,0,0,0,0,0,0,0,2109,0,0,0,0,0,0,0,0,0,0,0,0,0,0,0,0,0,0,0,0,0,0,0,0,0,0,0,0,0,0,0,0,0,0,0,1801,1804,1804,1804,1804,1804,1802,0,0,0,0,0,0,0,0,0,1150,1151,0,1150,1151,0,0,0,0,0,0,0,0,
1150,1151,0,0,0,0,0,0,0,0,0,0,0,0,0,0,0,0,0,0,0,0,0,2142,0,0,0,0,0,0,0,0,0,0,0,0,0,0,0,0,0,0,0,0,0,0,0,0,0,0,0,0,0,0,0,0,0,0,0,0,0,0,0,0,0,0,0,0,0,0,0,0,0,0,0,0,0,0,0,0,0,0,0,0,0,0,0,0,0,0,0,0,0,0,0,0,0,0,0,0,0,0,0,0,0,0,0,0,0,0,0,0,0,0,0,0,0,0,0,0,0,0,0,0,0,0,0,0,
1369,0,0,0,0,0,0,0,0,0,0,0,0,0,0,0,0,0,0,0,0,0,0,0,0,0,0,0,0,0,0,0,0,0,0,0,0,2143,0,0,0,0,0,0,0,0,0,0,0,0,0,0,0,0,0,0,0,0,0,0,0,0,0,0,0,0,0,0,0,0,0,0,0,0,0,0,0,0,0,0,0,0,0,0,0,0,0,0,0,0,0,0,0,0,0,0,0,0,0,0,0,0,0,0,0,0,0,0,0,0,0,0,0,0,0,0,0,0,0,0,0,0,0,0,0,0,0,0,
0,0,0,0,0,0,0,0,0,0,0,0,0,0,0,0,0,0,0,0,0,0,0,0,0,0,0,0,0,0,0,0,0,0,0,0,0,0,0,0,0,0,0,0,0,0,0,0,0,0,0,0,0,1454,0,0,0,0,0,0,0,0,0,0,0,0,1396,0,0,0,0,0,0,0,0,0,0,0,2023,0,0,0,0,0,0,0,0,0,0,0,0,0,0,0,0,0,0,0,0,0,0,0,0,0,0,0,0,0,0,0,0,0,0,0,0,0,0,0,0,0,0,0,0,0,0,1371,1373,1371,
0,0,0,0,0,0,0,0,0,0,0,0,0,0,0,0,0,0,0,0,0,0,0,0,0,0,0,0,0,0,0,0,0,0,0,0,0,0,0,0,0,0,0,0,0,0,0,0,0,0,0,0,0,0,0,0,0,0,0,0,0,0,0,0,0,0,0,0,0,0,0,0,0,0,0,0,0,0,0,0,0,0,0,0,0,0,0,0,0,0,0,0,0,0,0,0,0,0,0,0,0,0,0,0,0,0,0,0,0,0,0,0,0,0,0,0,0,0,0,0,0,0,0,0,0,1148,1149,1366,
0,0,0,0,0,0,0,0,0,0,0,0,0,0,0,0,0,0,0,0,0,0,0,0,0,0,0,0,0,0,0,0,0,0,0,0,0,0,0,0,0,0,0,0,0,0,0,0,0,0,0,0,0,0,0,0,0,0,0,0,0,0,0,0,0,0,0,0,0,0,0,0,0,0,0,0,0,0,0,0,0,0,0,0,0,0,0,0,0,0,0,0,0,0,0,0,0,0,0,0,0,0,0,0,0,0,0,0,0,0,0,0,0,0,0,0,0,0,0,0,0,0,0,0,0,1150,1151,1368,
0,0,0,0,0,0,0,1200,1201,1202,1203,1346,1347,0,0,0,0,0,0,0,0,0,0,0,0,0,0,0,0,0,0,0,0,0,0,0,0,0,0,0,0,0,0,0,1388,1388,1388,0,0,0,0,0,0,0,0,0,0,0,0,0,0,0,0,1923,0,0,0,0,0,0,0,0,0,0,0,0,0,0,0,0,0,0,0,0,0,0,0,0,0,0,0,0,0,0,0,0,0,0,0,0,0,0,0,0,0,0,0,0,0,0,0,0,0,0,0,0,0,0,0,0,0,1200,1201,1202,1203,1152,1153,1367,
0,0,0,0,1152,1153,0,1224,1225,1226,1227,1150,1151,0,0,0,0,0,0,0,0,0,0,0,0,0,0,0,0,0,0,0,0,0,0,0,0,0,0,0,0,0,0,0,1388,1388,1388,0,0,0,0,0,0,0,0,0,0,0,0,0,0,0,0,0,0,0,0,0,0,0,0,0,0,0,0,0,0,0,0,0,0,0,0,0,1661,1662,1663,1664,0,0,0,0,0,0,0,0,0,0,0,0,0,0,0,0,0,0,0,0,0,0,0,0,0,0,0,0,0,0,0,1150,1151,1224,1225,1226,1227,1148,1149,1365,
0,0,0,0,1346,1347,1196,1197,1198,1199,1346,1347,1148,1149,0,0,0,0,0,0,0,0,0,0,0,0,0,0,0,0,0,0,0,0,0,0,0,0,0,0,0,0,0,0,1388,1388,1388,0,0,0,0,0,0,0,0,0,0,0,0,1345,0,0,0,0,0,0,0,0,0,0,0,0,0,0,0,0,0,0,0,0,0,0,0,0,1694,1695,1696,1697,0,0,0,0,0,1834,1870,1870,1870,1870,1870,1870,1835,0,0,0,0,0,0,0,0,0,0,0,0,0,0,1150,1151,1148,1149,1196,1197,1198,1199,0,0,1150,1151,1370,
1373,1367,1364,1148,1149,0,1220,1221,1222,1223,1148,1149,0,0,0,0,0,0,0,0,0,0,0,0,0,0,0,0,0,0,0,0,0,0,0,0,0,0,2407,0,0,0,0,0,0,0,0,0,0,0,0,0,0,0,0,0,0,0,0,0,0,0,0,0,0,0,0,0,0,0,0,2040,2041,0,0,0,0,0,0,0,0,0,0,0,0,0,0,0,0,0,0,0,0,1837,0,0,0,0,0,0,1837,0,0,0,0,0,0,0,0,0,0,0,1200,1201,1202,1203,0,0,0,1220,1221,1222,1223,0,0,1150,1151,1372,
1150,1151,1148,1149,0,1152,1153,0,1346,1347,0,0,0,0,0,0,0,0,0,0,0,0,0,0,0,0,0,0,0,0,0,0,0,0,0,0,0,0,0,0,0,0,0,0,0,0,0,0,0,0,0,0,0,0,0,0,0,0,0,0,0,0,0,0,0,0,0,1684,1685,1686,0,0,0,0,0,0,0,0,0,0,0,0,0,0,0,0,0,0,0,0,0,0,0,1837,0,1665,1666,1667,1668,0,1837,0,0,0,0,0,0,0,0,0,0,0,1224,1225,1226,1227,1148,1149,0,0,0,0,0,0,0,1150,1151,1364,
1148,1149,1152,1153,0,1196,1197,1198,1199,1148,1149,0,0,0,0,0,0,0,0,0,0,0,0,0,0,0,0,0,0,0,0,0,0,0,0,0,0,0,0,0,0,0,0,0,0,0,0,0,0,0,0,0,0,0,0,0,0,0,0,0,0,0,0,0,0,0,0,1717,1718,1719,0,0,0,0,0,0,0,0,0,0,0,0,0,0,0,0,0,0,0,0,0,0,0,1837,0,1698,1699,1700,1701,1836,1868,0,0,0,0,0,0,0,0,0,0,0,0,0,0,1150,1151,0,0,0,0,0,0,0,0,1150,1151,1374,
1200,1201,1202,1203,0,1220,1221,1222,1223,1148,1149,0,0,0,0,0,0,0,0,0,0,0,0,0,0,0,0,0,0,0,0,0,0,0,0,0,0,0,0,0,0,0,0,0,0,0,1388,1388,1388,0,0,0,0,0,0,0,0,0,0,0,0,0,0,0,0,0,0,0,0,0,0,0,0,0,0,0,0,0,0,0,0,0,0,0,0,0,0,0,0,0,0,0,0,1837,0,0,0,0,0,0,0,0,0,0,0,0,0,0,0,0,0,0,0,0,0,0,0,0,0,0,0,0,0,0,0,1148,1149,1374,
1224,1225,1226,1227,0,1152,1153,1346,1347,1346,1347,1152,1153,0,0,1580,1581,1582,0,0,0,0,0,0,0,0,2423,0,0,2040,2041,0,0,0,0,0,0,0,0,0,0,0,0,0,0,0,1388,1388,1388,0,0,0,0,0,0,0,0,0,0,0,0,0,0,0,0,0,0,0,0,0,0,0,0,0,0,0,0,0,0,0,0,0,0,0,0,0,0,0,0,0,0,0,0,1837,0,0,0,0,0,0,0,0,0,0,0,0,0,0,0,1661,1662,1663,1664,0,0,0,0,0,0,0,0,0,0,0,0,1152,1153,1370,
1148,1149,1200,1201,1202,1203,1148,1149,0,1148,1149,1346,1347,0,0,1604,1605,1606,0,0,0,0,0,0,0,0,0,0,0,0,0,0,0,0,0,0,0,0,0,0,0,0,0,0,0,0,1388,1388,1388,0,0,0,0,0,0,0,0,0,0,0,0,0,0,0,0,0,0,0,0,0,0,0,0,0,0,0,0,0,0,0,0,0,0,0,0,0,0,0,0,0,0,0,0,0,0,0,0,0,0,0,0,0,0,0,0,0,0,0,0,1694,1695,1696,1697,0,0,0,0,0,0,0,0,0,0,0,0,1150,1151,1368,
1148,1149,1224,1225,1226,1227,1152,1153,1152,1153,1196,1197,1198,1199,0,0,0,0,0,0,0,0,0,0,0,0,0,0,0,0,0,0,0,0,0,0,0,0,2143,0,0,0,0,0,0,0,0,0,0,0,0,0,0,0,0,0,0,0,0,1900,1936,1936,1936,1936,1936,1936,1936,1901,0,0,0,0,0,0,0,0,0,0,0,0,0,0,0,0,0,0,0,0,0,0,0,0,0,0,0,0,0,0,0,0,0,0,0,0,0,0,0,0,0,0,0,0,0,0,0,0,0,0,0,0,1583,1584,1585,0,0,1150,1151,1373,
1200,1201,1202,1203,1200,1201,1202,1203,1148,1149,1220,1221,1222,1223,0,0,0,0,0,0,0,0,0,0,0,0,0,0,0,0,0,0,0,0,0,0,0,0,0,0,0,0,0,0,1583,1584,1585,0,0,0,0,0,0,0,0,0,0,0,0,1903,0,0,0,0,0,0,0,1903,0,0,0,0,0,0,1390,0,0,0,0,0,0,0,0,0,0,0,0,0,0,0,0,0,0,0,0,0,0,0,0,0,0,0,0,0,0,0,0,0,0,0,0,0,0,0,0,0,0,0,0,0,1607,1608,1609,0,0,1346,1347,1369,
1224,1225,1226,1227,1224,1225,1226,1227,1152,1153,1152,1153,1150,1151,0,0,0,0,0,1768,1804,1804,0,1804,1804,1804,1804,1769,0,0,0,0,0,0,1371,0,0,0,0,0,0,0,0,0,1607,1608,1609,0,0,0,0,0,0,0,0,0,0,1321,0,1903,0,0,0,0,0,0,0,1903,0,1397,0,0,0,0,0,0,0,0,0,0,0,0,0,0,0,0,0,0,0,0,0,0,0,0,0,0,0,0,0,0,0,0,0,0,0,0,0,0,0,0,0,0,0,0,0,0,0,0,0,0,0,0,0,0,0,1150,1151,1366,
1346,1347,1152,1153,1152,1153,1200,1201,1202,1203,0,0,0,0,0,0,0,0,0,1771,0,0,0,0,0,0,0,1771,0,0,0,0,0,0,0,0,0,0,0,0,1923,0,0,0,0,0,0,0,0,0,0,0,0,0,0,0,0,0,0,1903,0,0,1687,1688,1689,0,0,1903,0,0,0,0,0,0,0,0,0,0,0,0,0,0,0,0,0,0,0,0,0,0,0,0,0,0,0,0,0,0,0,0,0,0,0,0,0,0,0,0,0,0,0,0,0,0,1148,1149,0,0,0,0,0,0,0,0,0,1346,1347,1368,
1150,1151,1346,1347,0,0,1224,1225,1226,1227,1150,1151,0,1150,1151,0,0,0,0,1771,0,0,0,0,0,0,0,1771,0,0,0,0,0,0,0,0,0,2140,0,0,0,0,0,0,0,0,0,0,0,0,0,0,0,0,0,0,0,0,0,1903,0,0,1720,1721,1722,0,0,1903,0,0,0,0,0,0,0,0,0,0,0,0,0,0,0,0,0,0,0,0,0,0,0,0,0,0,0,0,0,0,0,0,0,0,0,0,0,0,0,0,0,0,0,0,0,0,1346,1347,0,0,0,0,0,0,0,0,0,1346,1347,1367,
1200,1201,1202,1203,1152,1153,1346,1347,1346,1347,0,1150,1151,0,0,0,0,0,0,1771,0,0,1892,1893,1894,0,0,1771,0,0,0,0,0,0,0,0,0,0,0,0,0,0,0,0,0,0,0,0,0,0,0,0,0,0,0,0,0,0,0,1903,0,0,0,0,0,0,0,1903,0,0,0,0,0,0,0,0,0,0,0,0,0,0,0,0,0,0,0,0,0,0,0,0,0,0,0,0,0,0,0,0,0,0,0,0,0,0,0,0,0,0,0,0,0,0,0,0,1150,1151,0,0,0,0,0,0,0,1346,1347,1374,
1224,1225,1226,1227,1200,1201,1202,1203,0,1152,1153,0,0,1150,1151,0,0,0,0,1771,0,0,1925,1926,1927,0,0,1771,0,0,0,0,0,0,0,0,0,0,0,0,0,0,0,0,0,0,0,0,0,0,0,0,0,0,0,0,0,0,0,1903,0,0,0,0,0,0,0,1903,0,0,0,0,0,0,0,0,0,0,0,0,0,0,0,0,0,0,0,1368,0,0,0,0,0,0,0,0,0,0,0,0,0,0,2040,2041,0,0,0,0,0,0,0,0,0,0,1150,1151,0,0,0,0,0,0,0,0,0,1150,1151,1373,
1346,1347,1152,1153,1224,1225,1226,1227,0,1150,1151,0,0,0,1150,1151,0,0,0,1771,0,0,0,0,0,0,0,1771,0,0,0,0,0,0,0,0,0,0,0,0,0,0,0,0,0,0,0,0,0,0,0,0,0,0,0,0,0,0,0,1903,0,0,0,0,0,0,0,1903,0,0,0,0,0,0,0,0,0,0,0,0,0,0,0,0,0,0,0,0,0,0,0,0,0,0,0,0,0,0,0,0,0,0,0,0,0,0,0,0,0,0,0,0,0,0,0,0,0,0,0,0,0,0,0,1148,1149,1148,1149,1365,
1346,1347,1152,1153,0,1196,1197,1198,1199,1152,1153,0,0,0,0,0,0,0,0,1771,0,0,0,0,0,0,0,1771,0,0,0,0,0,0,0,0,0,0,0,0,0,0,0,0,0,0,0,0,0,0,0,0,0,0,0,0,0,0,0,1933,1936,1936,1935,0,0,1902,1936,1934,0,0,0,0,0,0,0,0,0,0,0,0,0,0,0,0,0,0,0,0,0,0,0,0,0,0,0,0,0,0,0,0,0,0,0,0,0,0,0,0,0,0,0,0,0,0,0,0,0,0,0,0,0,0,0,0,0,1150,1151,1366,
1200,1201,1202,1203,0,1220,1221,1222,1223,1346,1347,1196,1197,1198,1199,0,0,0,1196,1197,1198,1199,0,0,0,0,0,1771,1148,1149,0,0,0,0,0,0,1148,1149,0,0,0,0,0,0,0,0,0,0,0,1346,1347,0,0,0,1346,1347,0,0,1200,1201,1202,1203,0,0,0,0,0,0,0,0,0,0,0,1148,1149,0,0,0,0,0,0,0,0,0,0,1148,1149,0,0,0,0,0,0,0,1150,1151,0,0,0,0,1150,1151,1200,1201,1202,1203,0,0,1196,1197,1198,1199,0,1150,1151,1346,1347,0,0,0,0,0,0,1152,1153,1346,1347,1366,
1224,1225,1226,1227,1148,1149,0,0,1148,1149,0,1220,1221,1222,1223,0,0,0,1220,1221,1222,1223,0,0,1148,1149,0,0,0,0,1152,1153,0,1150,1151,0,0,0,0,0,0,0,0,0,0,0,0,0,0,0,0,1196,1197,1198,1199,0,0,0,1224,1225,1226,1227,0,1200,1201,1202,1203,1346,1347,0,1196,1197,1198,1199,0,0,0,0,0,0,0,1200,1201,1202,1203,1150,1151,0,0,1148,1149,1148,1149,0,1200,1201,1202,1203,1200,1201,1202,1203,1224,1225,1226,1227,0,0,1220,1221,1222,1223,0,1148,1149,0,0,0,0,0,0,0,0,1148,1149,1150,1151,1364,
1200,1201,1202,1203,1148,1149,1200,1201,1202,1203,0,1200,1201,1202,1203,0,0,0,1148,1149,1148,1149,0,0,1196,1197,1198,1199,1150,1151,0,0,1148,1149,0,0,1200,1201,1202,1203,0,0,1346,1347,1200,1201,1202,1203,1346,1347,0,1220,1221,1222,1223,0,0,0,0,0,1148,1149,0,1224,1225,1226,1227,0,0,0,1220,1221,1222,1223,0,0,0,1148,1149,0,0,1224,1225,1226,1227,1148,1149,1346,1347,0,1150,1151,1346,1347,1224,1225,1226,1227,1224,1225,1226,1227,1150,1151,0,0,0,0,0,0,0,0,1196,1197,1198,1199,0,0,0,0,0,0,0,0,0,1152,1153,1368,
1224,1225,1226,1227,1148,1149,1224,1225,1226,1227,0,1224,1225,1226,1227,0,0,1200,1201,1202,1203,0,0,0,1220,1221,1222,1223,1150,1151,1346,1347,1152,1153,0,0,1224,1225,1226,1227,1196,1197,1198,1199,1224,1225,1226,1227,1196,1197,1198,1199,1148,1149,0,0,0,1148,1149,0,0,0,0,0,1148,1149,1152,1153,0,1150,1151,1150,1151,0,1148,1149,0,0,0,1152,1153,0,1200,1201,1202,1203,0,0,1148,1149,0,0,0,1148,1149,0,1200,1201,1202,1203,0,0,1346,1347,0,0,0,0,0,0,0,0,1220,1221,1222,1223,0,0,0,0,0,0,0,0,0,1152,1153,1368,
1200,1201,1202,1203,0,1148,1149,1200,1201,1202,1203,0,0,1196,1197,1198,1199,1224,1225,1226,1227,1150,1151,1346,1347,1346,1347,1148,1149,0,1152,1153,1152,1153,0,0,0,0,0,0,1220,1221,1222,1223,1196,1197,1198,1199,1220,1221,1222,1223,0,0,1152,1153,0,1152,1153,1196,1197,1198,1199,0,0,0,1346,1347,1148,1149,0,1200,1201,1202,1203,1152,1153,1346,1347,1148,1149,0,1224,1225,1226,1227,1150,1151,0,1148,1149,1196,1197,1198,1199,0,1224,1225,1226,1227,0,1148,1149,0,0,1346,1347,0,0,0,0,0,0,0,0,0,0,0,0,0,0,0,0,0,0,1148,1149,1370,
1224,1225,1226,1227,1346,1347,0,1224,1225,1226,1227,1152,1153,1220,1221,1222,1223,0,1196,1197,1198,1199,1200,1201,1202,1203,0,1346,1347,1200,1201,1202,1203,1150,1151,0,0,0,0,0,1152,1153,0,0,1220,1221,1222,1223,0,0,1196,1197,1198,1199,0,0,0,0,0,1220,1221,1222,1223,0,0,0,1196,1197,1198,1199,0,1224,1225,1226,1227,0,0,1346,1347,0,1346,1347,1148,1149,1148,1149,0,0,0,1150,1151,1220,1221,1222,1223,1150,1151,0,1152,1153,1196,1197,1198,1199,0,1148,1149,0,0,0,0,1346,1347,0,0,0,0,0,0,0,0,0,0,0,0,1346,1347,1370,
1346,1347,1148,1149,1152,1153,1150,1151,1346,1347,1150,1151,0,1196,1197,1198,1199,0,1220,1221,1222,1223,1224,1225,1226,1227,1150,1151,0,1224,1225,1226,1227,0,0,0,0,0,0,1150,1151,1150,1151,0,1148,1149,1196,1197,1198,1199,1220,1221,1222,1223,1148,1149,0,0,0,1148,1149,1148,1149,1152,1153,0,1220,1221,1222,1223,1152,1153,1148,1149,1150,1151,0,0,1346,1347,1200,1201,1202,1203,0,0,1196,1197,1198,1199,0,1150,1151,1196,1197,1198,1199,1152,1153,0,1220,1221,1222,1223,0,1346,1347,1196,1197,1198,1199,0,0,1152,1153,1196,1197,1198,1199,0,0,0,0,0,0,1148,1149,1371,
1150,1151,1196,1197,1198,1199,1150,1151,1148,1149,1152,1153,0,1220,1221,1222,1223,1152,1153,1346,1347,1196,1197,1198,1199,0,1200,1201,1202,1203,1200,1201,1202,1203,0,0,0,0,1346,1347,0,1148,1149,0,1150,1151,1220,1221,1222,1223,0,1148,1149,0,1148,1149,1196,1197,1198,1199,0,1346,1347,1148,1149,1148,1149,1148,1149,1152,1153,1200,1201,1202,1203,0,0,0,1150,1151,1224,1225,1226,1227,1150,1151,1220,1221,1222,1223,1148,1149,0,1220,1221,1222,1223,1152,1153,0,1196,1197,1198,1199,1148,1149,0,1220,1221,1222,1223,0,1148,1149,0,1220,1221,1222,1223,0,0,0,0,0,0,1346,1347,1370,
1152,1153,1220,1221,1222,1223,1150,1151,1346,1347,0,0,0,0,0,1196,1197,1198,1199,1148,1149,1220,1221,1222,1223,0,1224,1225,1226,1227,1224,1225,1226,1227,1200,1201,1202,1203,0,0,1150,1151,0,1196,1197,1198,1199,1152,1153,1148,1149,1148,1149,0,1150,1151,1220,1221,1222,1223,0,1196,1197,1198,1199,1196,1197,1198,1199,1148,1149,1224,1225,1226,1227,1346,1347,1150,1151,1196,1197,1198,1199,1200,1201,1202,1203,0,1150,1151,0,0,1152,1153,1148,1149,0,1148,1149,0,1220,1221,1222,1223,0,0,1196,1197,1198,1199,0,1148,1149,0,0,0,1200,1201,1202,1203,0,0,0,0,0,1346,1347,1364,
1148,1149,1200,1201,1202,1203,1150,1151,1148,1149,0,0,0,0,0,1220,1221,1222,1223,1152,1153,1346,1347,0,1152,1153,1148,1149,0,1148,1149,1150,1151,0,1224,1225,1226,1227,0,1346,1347,1150,1151,1220,1221,1222,1223,0,1346,1347,1148,1149,1148,1149,1150,1151,1200,1201,1202,1203,0,1220,1221,1222,1223,1220,1221,1222,1223,1196,1197,1198,1199,1152,1153,0,1150,1151,0,1220,1221,1222,1223,1224,1225,1226,1227,1346,1347,0,1196,1197,1198,1199,1148,1149,0,1150,1151,1346,1347,1152,1153,0,1150,1151,1220,1221,1222,1223,1346,1347,1200,1201,1202,1203,1224,1225,1226,1227,0,0,0,0,0,1150,1151,1372,
1346,1347,1224,1225,1226,1227,1150,1151,0,1148,1149,0,1152,1153,1150,1151,1196,1197,1198,1199,1148,1149,1346,1347,1200,1201,1202,1203,1200,1201,1202,1203,1150,1151,0,0,0,0,0,1200,1201,1202,1203,1148,1149,1196,1197,1198,1199,1200,1201,1202,1203,1152,1153,0,1224,1225,1226,1227,0,1346,1347,1200,1201,1202,1203,1150,1151,1220,1221,1222,1223,1200,1201,1202,1203,1196,1197,1198,1199,1150,1151,1152,1153,1152,1153,1148,1149,0,1220,1221,1222,1223,1150,1151,1150,1151,1200,1201,1202,1203,0,1196,1197,1198,1199,1200,1201,1202,1203,0,1224,1225,1226,1227,0,0,1148,1149,0,0,0,0,0,1346,1347,1374,
1152,1153,1150,1151,0,0,1150,1151,1196,1197,1198,1199,1150,1151,1150,1151,1220,1221,1222,1223,1200,1201,1202,1203,1224,1225,1226,1227,1224,1225,1226,1227,0,1200,1201,1202,1203,0,0,1224,1225,1226,1227,1152,1153,1220,1221,1222,1223,1224,1225,1226,1227,1148,1149,1148,1149,1152,1153,1346,1347,1150,1151,1224,1225,1226,1227,1152,1153,1196,1197,1198,1199,1224,1225,1226,1227,1220,1221,1222,1223,1196,1197,1198,1199,1152,1153,1346,1347,1152,1153,1200,1201,1202,1203,1148,1149,0,1224,1225,1226,1227,0,1220,1221,1222,1223,1224,1225,1226,1227,1346,1347,0,1200,1201,1202,1203,1196,1197,1198,1199,0,0,0,1150,1151,1374,
1346,1347,1346,1347,1148,1149,1150,1151,1220,1221,1222,1223,1152,1153,1148,1149,1148,1149,1346,1347,1224,1225,1226,1227,1346,1347,1365,1148,1149,1346,1347,1150,1151,1224,1225,1226,1227,1374,1346,1347,1152,1153,1371,1373,1148,1149,1368,1152,1153,1148,1149,1148,1149,1346,1347,1148,1149,1346,1347,1148,1149,1152,1153,1150,1151,1148,1149,1346,1347,1220,1221,1222,1223,1152,1153,1150,1151,1371,1150,1151,1370,1220,1221,1222,1223,1148,1149,1346,1347,1152,1153,1224,1225,1226,1227,1152,1153,1148,1149,1150,1151,1150,1151,1346,1347,1365,1148,1149,1346,1347,1346,1347,1150,1151,1224,1225,1226,1227,1220,1221,1222,1223,1148,1149,1373,1150,1151,1365,
1150,1151,1200,1201,1202,1203,1346,1347,1196,1197,1198,1199,1346,1347,1200,1201,1202,1203,1152,1153,1148,1149,1196,1197,1198,1199,1148,1149,1346,1347,1152,1153,1152,1153,1196,1197,1198,1199,1346,1347,1196,1197,1198,1199,1148,1149,1148,1149,1196,1197,1198,1199,1152,1153,1152,1153,1196,1197,1198,1199,1346,1347,1150,1151,1150,1151,1150,1151,1346,1347,1148,1149,1150,1151,1346,1347,1152,1153,1148,1149,1152,1153,1148,1149,1148,1149,1346,1347,1200,1201,1202,1203,1200,1201,1202,1203,1150,1151,1150,1151,1346,1347,1346,1347,1152,1153,1200,1201,1202,1203,1346,1347,1148,1149,1346,1347,1150,1151,1150,1151,1148,1149,1346,1347,1150,1151,1150,1151,
1150,1151,1224,1225,1226,1227,1148,1149,1220,1221,1222,1223,1150,1151,1224,1225,1226,1227,1152,1153,1346,1347,1220,1221,1222,1223,1152,1153,1346,1347,1150,1151,1148,1149,1220,1221,1222,1223,1150,1151,1220,1221,1222,1223,1346,1347,1152,1153,1220,1221,1222,1223,1152,1153,1152,1153,1220,1221,1222,1223,1150,1151,1150,1151,1150,1151,1152,1153,1150,1151,1152,1153,1346,1347,1150,1151,1346,1347,1150,1151,1150,1151,1152,1153,1150,1151,1346,1347,1224,1225,1226,1227,1224,1225,1226,1227,1152,1153,1148,1149,1150,1151,1150,1151,1152,1153,1224,1225,1226,1227,1150,1151,1346,1347,1150,1151,1346,1347,1346,1347,1346,1347,1152,1153,1150,1151,1152,1153
</data>
 </layer>
 <layer id="5" name="sprites" width="128" height="96">
  <data encoding="csv">
0,0,0,0,0,0,0,0,0,0,0,0,0,0,0,0,0,0,0,0,0,0,0,0,0,0,0,0,0,0,0,0,0,0,0,0,0,0,0,0,0,0,0,0,0,0,0,0,0,0,0,0,0,0,0,0,0,0,0,0,0,0,0,0,0,0,0,0,0,0,0,0,0,0,0,0,0,0,0,0,0,0,0,0,0,0,0,0,0,0,0,0,0,0,0,0,0,0,0,0,0,0,0,0,0,0,0,0,0,0,0,0,0,0,0,0,0,0,0,0,0,0,0,0,0,0,0,0,
0,0,0,0,0,0,0,0,0,0,0,0,0,0,0,0,0,0,0,0,0,0,0,0,0,0,0,0,0,0,0,0,0,0,0,0,0,0,0,0,0,0,0,0,0,0,0,0,0,0,0,0,0,0,0,0,0,0,0,0,0,0,0,0,0,0,0,0,0,0,0,0,0,0,0,0,0,0,0,0,0,0,0,0,0,0,0,0,0,0,0,0,0,0,0,0,0,0,0,0,0,0,0,0,0,0,0,0,0,0,0,0,0,0,0,0,0,0,0,0,0,0,0,0,0,0,0,0,
0,0,0,0,0,0,0,0,0,0,0,0,0,0,0,0,0,0,0,0,0,0,0,0,0,0,0,0,0,0,0,0,0,0,0,0,0,0,0,0,0,0,0,0,0,0,0,0,0,0,0,0,0,0,0,0,0,0,0,0,0,0,0,0,0,0,0,0,0,0,0,0,0,0,0,0,0,0,0,0,0,0,0,0,0,0,0,0,0,0,0,0,0,0,0,0,0,0,0,0,0,0,0,0,0,0,0,0,0,0,0,0,0,0,0,0,0,0,0,0,0,0,0,0,0,0,0,0,
0,0,0,0,0,0,0,0,0,0,0,0,0,0,0,0,0,0,0,0,0,0,0,0,0,0,0,0,0,0,0,0,0,0,0,0,0,0,0,0,0,0,0,0,0,0,0,0,0,0,0,0,0,0,0,0,0,0,0,0,0,0,0,0,0,0,0,0,0,0,0,0,0,0,0,0,0,0,0,0,0,0,0,0,0,0,0,0,0,0,0,0,0,0,0,0,0,0,0,0,0,0,0,0,0,0,0,0,0,0,0,0,0,0,0,0,0,0,0,0,0,0,0,0,0,0,0,0,
0,0,0,0,0,0,0,0,0,0,0,0,0,0,0,0,0,0,0,0,0,0,0,0,0,0,0,0,0,0,0,0,0,0,0,0,0,0,0,0,0,0,0,0,0,0,0,0,0,0,0,0,0,0,0,0,0,0,0,0,0,0,0,0,0,0,0,0,0,0,0,0,0,0,0,0,0,0,0,0,0,0,0,0,0,0,0,0,0,0,0,0,0,0,0,0,0,0,0,0,0,0,0,0,0,0,0,0,0,0,0,0,0,0,0,0,0,0,0,0,0,0,0,0,0,0,0,0,
0,0,0,0,0,0,0,0,0,0,0,0,0,0,0,0,0,0,0,0,0,0,0,0,0,0,0,0,0,0,0,0,0,0,0,0,0,0,0,0,0,0,0,0,0,0,0,0,0,0,0,0,0,0,0,0,0,0,0,0,0,0,0,0,0,0,0,0,0,0,0,0,0,0,0,0,0,0,0,0,0,0,0,0,0,0,0,0,0,0,0,0,0,0,0,0,0,0,0,0,0,0,0,0,0,0,0,0,0,0,0,0,0,0,0,0,0,0,0,0,0,0,0,0,0,0,0,0,
0,0,0,0,0,0,0,0,0,0,0,0,0,0,0,0,0,0,0,0,0,0,0,0,0,0,0,0,0,0,0,0,0,0,0,0,0,0,0,0,0,0,0,0,0,0,0,0,0,0,0,0,0,0,0,0,0,0,0,0,0,0,0,0,0,0,0,0,0,0,0,0,0,0,0,0,0,0,0,0,0,0,0,0,0,0,0,0,0,0,0,0,0,0,0,0,0,0,0,0,0,0,0,0,0,0,0,0,0,0,0,0,0,0,0,0,0,0,0,0,0,0,0,0,0,0,0,0,
0,0,0,0,0,0,0,0,0,0,0,0,0,0,0,0,0,0,0,0,0,0,0,0,0,0,0,0,0,0,0,0,0,0,0,0,0,0,0,0,0,0,0,0,0,0,0,0,0,0,0,0,0,0,0,0,0,0,0,0,0,0,0,0,0,0,0,0,0,0,0,0,0,0,0,0,0,0,0,0,0,0,0,0,0,0,0,0,0,0,0,0,0,0,0,0,0,0,0,0,0,0,0,0,0,0,0,0,0,0,0,0,0,0,0,0,0,0,0,0,0,0,0,0,0,0,0,0,
0,0,0,0,0,0,0,0,0,0,0,0,0,0,0,0,0,0,0,0,0,0,0,0,0,0,0,0,0,0,0,0,0,0,0,0,0,0,0,0,0,0,0,0,0,0,0,0,0,0,0,0,0,0,0,0,0,0,0,0,0,0,0,0,0,0,0,0,0,0,0,0,0,0,0,0,0,0,0,0,0,0,0,0,0,0,0,0,0,0,0,0,0,0,0,0,0,0,0,0,0,0,0,0,0,0,0,0,0,0,0,0,0,0,0,0,0,0,0,0,0,0,0,0,0,0,0,0,
0,0,0,0,0,0,0,0,0,0,0,0,0,0,0,0,0,0,0,0,0,0,0,0,0,0,0,0,0,0,0,0,0,0,0,0,0,0,0,0,0,0,0,0,0,0,0,0,0,0,0,0,0,0,0,0,0,0,0,0,0,0,0,0,0,0,0,0,0,0,0,0,0,0,0,0,0,0,0,0,0,0,0,0,0,0,0,0,0,0,0,0,0,0,0,0,0,0,0,0,0,0,0,0,0,0,0,0,0,0,0,0,0,0,0,0,0,0,0,0,0,0,0,0,0,0,0,0,
0,0,0,0,0,0,0,0,0,0,0,0,0,0,0,0,0,0,0,0,0,0,0,0,0,0,0,0,0,0,0,0,0,0,0,0,0,0,0,0,0,0,0,0,0,0,0,0,0,0,0,0,0,0,0,0,0,0,0,0,0,0,0,0,0,0,0,0,0,0,0,0,0,0,0,0,0,0,0,0,0,0,0,0,0,0,0,0,0,0,0,0,0,0,0,0,0,0,0,0,0,0,0,0,0,0,0,0,0,0,0,0,0,0,0,0,0,0,0,0,0,0,0,0,0,0,0,0,
0,0,0,0,0,0,0,0,0,0,0,0,0,0,0,0,0,0,0,0,0,0,0,0,0,0,0,0,0,0,0,0,0,0,0,0,0,0,0,0,0,0,0,0,0,0,0,0,0,0,0,0,0,0,0,0,0,0,0,0,0,0,0,0,0,0,0,0,0,0,0,0,0,0,0,0,0,0,0,0,0,0,0,0,0,0,0,0,0,0,0,0,0,0,0,0,0,0,0,0,0,0,0,0,0,0,0,0,0,0,0,0,0,0,0,0,0,0,0,0,0,0,0,0,0,0,0,0,
0,0,0,0,0,0,0,0,0,0,0,0,0,0,0,0,0,0,0,0,0,0,0,0,0,0,0,0,0,0,0,0,0,0,0,0,0,0,0,0,0,0,0,0,0,0,0,0,0,0,0,0,0,0,0,0,0,0,0,0,0,0,0,0,0,0,0,0,0,0,0,0,0,0,0,0,0,0,0,0,0,0,0,0,0,0,0,0,0,0,0,0,0,0,0,0,0,0,0,0,0,0,0,0,0,0,0,0,0,0,0,0,0,0,0,0,0,0,0,0,0,0,0,0,0,0,0,0,
0,0,0,0,0,0,0,0,0,0,0,0,0,0,0,0,0,0,0,0,0,0,0,0,0,0,0,0,0,0,0,0,0,0,0,0,0,0,0,0,0,0,0,0,0,0,0,0,0,0,0,0,0,0,0,0,0,0,0,0,0,0,0,0,0,0,0,0,0,0,0,0,0,0,0,0,0,0,0,0,0,0,0,0,0,0,0,0,0,0,0,0,0,0,0,0,0,0,0,0,0,0,0,0,0,0,0,0,0,0,0,0,0,0,0,0,0,0,0,0,0,0,0,0,0,0,0,0,
0,0,0,0,0,0,0,0,0,0,0,0,0,0,0,0,0,0,0,0,0,0,0,0,0,0,0,0,0,0,0,0,0,0,0,0,0,0,0,0,0,0,0,0,0,0,0,0,0,0,0,0,0,0,0,0,0,0,0,0,0,0,0,0,0,0,0,0,0,0,0,0,0,0,0,0,0,0,0,0,0,0,0,0,0,0,0,0,0,0,0,0,0,0,0,0,0,0,0,0,0,0,0,0,0,0,0,0,0,0,0,0,0,0,0,0,0,0,0,0,0,0,0,0,0,0,0,0,
0,0,0,0,0,0,0,0,0,0,0,0,0,0,0,0,0,0,0,0,0,0,0,0,0,0,0,0,0,0,0,0,0,0,0,0,0,0,0,0,0,0,0,0,0,0,0,0,0,0,0,0,0,0,0,0,0,0,0,0,0,0,0,0,0,0,0,0,0,0,0,0,0,0,0,0,0,0,0,0,0,0,0,0,0,0,0,0,0,0,0,0,0,0,0,0,0,0,0,0,0,0,0,0,0,0,0,0,0,0,0,0,0,0,0,0,0,0,0,0,0,0,0,0,0,0,0,0,
0,0,0,0,0,0,0,0,0,0,0,0,0,0,0,0,0,0,0,0,0,0,0,0,0,0,0,0,0,0,0,0,0,0,0,0,0,0,0,0,0,0,0,0,0,0,0,0,0,0,0,0,0,0,0,0,0,0,0,0,0,0,0,0,0,0,0,0,0,0,0,0,0,0,0,0,0,0,0,0,0,0,0,0,0,0,0,0,0,0,0,0,0,0,0,0,0,0,0,0,0,0,0,0,0,0,0,0,0,0,0,0,0,0,0,0,0,0,0,0,0,0,0,0,0,0,0,0,
0,0,0,0,0,0,0,0,0,0,0,0,0,0,0,0,0,0,0,0,0,0,0,0,0,0,0,0,0,0,0,0,0,0,0,0,0,0,0,0,0,0,0,0,0,0,0,0,0,0,0,0,0,0,0,0,0,0,0,0,0,0,0,0,0,0,0,0,0,0,0,0,0,0,0,0,0,0,0,0,0,0,0,0,0,0,0,0,0,0,0,0,0,0,0,0,0,0,0,0,0,0,0,0,0,0,0,0,0,0,0,0,0,0,0,0,0,0,0,0,0,0,0,0,0,0,0,0,
0,0,0,0,0,0,0,0,0,0,0,0,0,0,0,0,0,0,0,0,0,0,0,0,0,0,0,0,0,0,0,0,0,0,0,0,0,0,0,0,0,0,0,0,0,0,0,0,0,0,0,0,0,0,0,0,0,0,0,0,0,0,0,0,0,0,0,0,0,0,0,0,0,0,0,0,0,0,0,0,0,0,0,0,0,0,0,0,0,0,0,0,0,0,0,0,0,0,0,0,0,0,0,0,0,0,0,0,0,0,0,0,0,0,0,0,0,0,0,0,0,0,0,0,0,0,0,0,
0,0,0,0,0,0,0,0,0,0,0,0,0,0,0,0,0,0,0,0,0,0,0,0,0,0,0,0,0,0,0,0,0,0,0,0,0,0,0,0,0,0,0,0,0,0,0,0,0,0,0,0,0,0,0,0,0,0,0,0,0,0,0,0,0,0,0,0,0,0,0,0,0,0,0,0,0,0,0,0,0,0,0,0,0,0,0,0,0,0,0,0,0,0,0,0,0,0,0,0,0,0,0,0,0,0,0,0,0,0,0,0,0,0,0,0,0,0,0,0,0,0,0,0,0,0,0,0,
0,0,0,0,0,0,0,0,0,0,0,0,0,0,0,0,0,0,0,0,0,0,0,0,0,0,0,0,0,0,0,0,0,0,0,0,0,0,0,0,0,0,0,0,0,0,0,0,0,0,0,0,0,0,0,0,0,0,0,0,0,0,0,0,0,0,0,0,0,0,0,0,0,0,0,0,0,0,0,0,0,0,0,0,0,0,0,0,0,0,0,0,0,0,0,0,0,0,0,0,0,0,0,0,0,0,0,0,0,0,0,0,0,0,0,0,0,0,0,0,0,0,0,0,0,0,0,0,
0,0,0,0,0,0,0,0,0,0,0,0,0,0,0,0,0,0,0,0,0,0,0,0,0,0,0,0,0,0,0,0,0,0,0,0,0,0,0,0,0,0,0,0,0,0,0,0,0,0,0,0,0,0,0,0,0,0,0,0,0,0,0,0,0,0,0,0,0,0,0,0,0,0,0,0,0,0,0,0,0,0,0,0,0,0,0,0,0,0,0,0,0,0,0,0,0,0,0,0,0,0,0,0,0,0,0,0,0,0,0,0,0,0,0,0,0,0,0,0,0,0,0,0,0,0,0,0,
0,0,0,0,0,0,0,0,0,0,0,0,0,0,0,0,0,0,0,0,0,0,0,0,0,0,0,0,0,0,0,0,0,0,0,0,0,0,0,0,0,0,0,0,0,0,0,0,0,0,0,0,0,0,0,0,0,0,0,0,0,0,0,0,0,0,0,0,0,0,0,0,0,0,0,0,0,0,0,0,0,0,0,0,0,0,0,0,0,0,0,0,0,0,0,0,0,0,0,0,0,0,0,0,0,0,0,0,0,0,0,0,0,0,0,0,0,0,0,0,0,0,0,0,0,0,0,0,
0,0,0,0,0,0,0,0,0,0,0,0,0,0,0,0,0,0,0,0,0,0,0,0,0,0,0,0,0,0,0,0,0,0,0,0,0,0,0,0,0,0,0,0,0,0,0,0,0,0,0,0,0,0,0,0,0,0,0,0,0,0,0,0,0,0,0,0,0,0,0,0,0,0,0,0,0,0,0,0,0,0,0,0,0,0,0,0,0,0,0,0,0,0,0,0,0,0,0,0,0,0,0,0,0,0,0,0,0,0,0,0,0,0,0,0,0,0,0,0,0,0,0,0,0,0,0,0,
0,0,0,0,0,0,0,0,0,0,0,0,0,0,0,0,0,0,0,0,0,0,0,0,0,0,0,0,0,0,0,0,0,0,0,0,0,0,0,0,0,0,0,0,0,0,0,0,0,0,0,0,0,0,0,0,0,0,0,0,0,0,0,0,0,0,0,0,0,0,0,0,0,0,0,0,0,0,0,0,0,0,0,0,0,0,0,0,0,0,0,0,0,0,0,0,0,0,0,0,0,0,0,0,0,0,0,0,0,0,0,0,0,0,0,0,0,0,0,0,0,0,0,0,0,0,0,0,
0,0,0,0,0,0,0,0,0,0,0,0,0,0,0,0,0,0,0,0,0,0,0,0,0,0,0,0,0,0,0,0,0,0,0,0,0,0,0,0,0,0,0,0,0,0,0,0,0,0,0,0,0,0,0,0,0,0,0,0,0,0,0,0,0,0,0,0,0,0,0,0,0,0,0,0,0,0,0,0,0,0,0,0,0,0,0,0,0,0,0,0,0,0,0,0,0,0,0,0,0,0,0,0,0,0,0,0,0,0,0,0,0,0,0,0,0,0,0,0,0,0,0,0,0,0,0,0,
0,0,0,0,0,0,0,0,0,0,0,0,0,0,0,0,0,0,0,0,0,0,0,0,0,0,0,0,0,0,0,0,0,0,0,0,0,0,0,0,0,0,0,0,0,0,0,0,0,0,0,0,0,0,0,0,0,0,0,0,0,0,0,0,0,0,0,0,0,0,0,0,0,0,0,0,0,0,0,0,0,0,0,0,0,0,0,0,0,0,0,0,0,0,0,0,0,0,0,0,0,0,0,0,0,0,0,0,0,0,0,0,0,0,0,0,0,0,0,0,0,0,0,0,0,0,0,0,
0,0,0,0,0,0,0,0,0,0,0,0,0,0,0,0,0,0,0,0,0,0,0,0,0,0,0,0,0,0,0,0,0,0,0,0,0,0,0,0,0,0,0,0,0,0,0,0,0,0,0,0,0,0,0,0,0,0,0,0,0,0,0,0,0,0,0,0,0,0,0,0,0,0,0,0,0,0,0,0,0,0,0,0,0,0,0,0,0,0,0,0,0,0,0,0,0,0,0,0,0,0,0,0,0,0,0,0,0,0,0,0,0,0,0,0,0,0,0,0,0,0,0,0,0,0,0,0,
0,0,0,0,0,0,0,0,0,0,0,0,0,0,0,0,0,0,0,0,0,0,0,0,0,0,0,0,0,0,0,0,0,0,0,0,0,0,0,0,0,0,0,0,0,0,0,0,0,0,0,0,0,0,0,0,0,0,0,0,0,0,0,0,0,0,0,0,0,0,0,0,0,0,0,0,0,0,0,0,0,0,0,0,0,0,0,0,0,0,0,0,0,0,0,0,0,0,0,0,0,0,0,0,0,0,0,0,0,0,0,0,0,0,0,0,0,0,0,0,0,0,0,0,0,0,0,0,
0,0,0,0,0,0,0,0,0,0,0,0,0,0,0,0,0,0,0,0,0,0,0,0,0,0,0,0,0,0,0,0,0,0,0,0,0,0,0,0,0,0,0,0,0,0,0,0,0,0,0,0,0,0,0,0,0,0,0,0,0,0,0,0,0,0,0,0,0,0,0,0,0,0,0,0,0,0,0,0,0,0,0,0,0,0,0,0,0,0,0,0,0,0,0,0,0,0,0,0,0,0,0,0,0,0,0,0,0,0,0,0,0,0,0,0,0,0,0,0,0,0,0,0,0,0,0,0,
0,0,0,0,0,0,0,0,0,0,0,0,0,0,0,0,0,0,0,0,0,0,0,0,0,0,0,0,0,0,0,0,0,0,0,0,0,0,0,0,0,0,0,0,0,0,0,0,0,0,0,0,0,0,0,0,0,0,0,0,0,0,0,0,0,0,0,0,0,0,0,0,0,0,0,0,0,0,0,0,0,0,0,0,0,0,0,0,0,0,0,0,0,0,0,0,0,0,0,0,0,0,0,0,0,0,0,0,0,0,0,0,0,0,0,0,0,0,0,0,0,0,0,0,0,0,0,0,
0,0,0,0,0,0,0,0,0,0,0,0,0,0,0,0,0,0,0,0,0,0,0,0,0,0,0,0,0,0,0,0,0,0,0,0,0,0,0,0,0,0,0,0,0,0,0,0,0,0,0,0,0,0,0,0,0,0,0,0,0,0,0,0,0,0,0,0,0,0,0,0,0,0,0,0,0,0,0,0,0,0,0,0,0,0,0,0,0,0,0,0,0,0,0,0,0,0,0,0,0,0,0,0,0,0,0,0,0,0,0,0,0,0,0,0,0,0,0,0,0,0,0,0,0,0,0,0,
0,0,0,0,0,0,0,0,0,0,0,0,0,0,0,0,0,0,0,0,0,0,0,0,0,0,0,0,0,0,0,0,0,0,0,0,0,0,0,0,0,0,0,0,0,0,0,0,0,0,0,0,0,0,0,0,0,0,0,0,0,0,0,0,0,0,0,0,0,0,0,0,0,0,0,0,0,0,0,0,0,0,0,0,0,0,0,0,0,0,0,0,0,0,0,0,0,0,0,0,0,0,0,0,0,0,0,0,0,0,0,0,0,0,0,0,0,0,0,0,0,0,0,0,0,0,0,0,
0,0,0,0,0,0,0,0,0,0,0,0,0,0,0,0,0,0,0,0,0,0,0,0,0,0,0,0,0,0,0,0,0,0,0,0,0,0,0,0,0,0,0,0,0,0,0,0,0,0,0,0,0,0,0,0,0,0,0,0,0,0,0,0,0,0,0,0,0,0,0,0,0,0,0,0,0,0,0,0,0,0,0,0,0,0,0,0,0,0,0,0,0,0,0,0,0,0,0,0,0,0,0,0,0,0,0,0,0,0,0,0,0,0,0,0,0,0,0,0,0,0,0,0,0,0,0,0,
0,0,0,0,0,0,0,0,0,0,0,0,0,0,0,0,0,0,0,0,0,0,0,0,0,0,0,0,0,0,0,0,0,0,0,0,0,0,0,0,0,0,0,0,0,0,0,0,0,0,0,0,0,0,0,0,0,0,0,0,0,0,0,0,0,0,0,0,0,0,0,0,0,0,0,0,0,0,0,0,0,0,0,0,0,0,0,0,0,0,0,0,0,0,0,0,0,0,0,0,0,0,0,0,0,0,0,0,0,0,0,0,0,0,0,0,0,0,0,0,0,0,0,0,0,0,0,0,
0,0,0,0,0,0,0,0,0,0,0,0,0,0,0,0,0,0,0,0,0,0,0,0,0,0,0,0,0,0,0,0,0,0,0,0,0,0,0,0,0,0,0,0,0,0,0,0,0,0,0,0,0,0,0,0,0,0,0,0,0,0,0,0,0,0,0,0,0,0,0,0,0,0,0,0,0,0,0,0,0,0,0,0,0,0,0,0,0,0,0,0,0,0,0,0,0,0,0,0,0,0,0,0,0,0,0,0,0,0,0,0,0,0,0,0,0,0,0,0,0,0,0,0,0,0,0,0,
0,0,0,0,0,0,0,0,0,0,0,0,0,0,0,0,0,0,0,0,0,0,0,0,0,0,0,0,0,0,0,0,0,0,0,0,0,0,0,0,0,0,0,0,0,0,0,0,0,0,0,0,0,0,0,0,0,0,0,0,0,0,0,0,0,0,0,0,0,0,0,0,0,0,0,0,0,0,0,0,0,0,0,0,0,0,0,0,0,0,0,0,0,0,0,0,0,0,0,0,0,0,0,0,0,0,0,0,0,0,0,0,0,0,0,0,0,0,0,0,0,0,0,0,0,0,0,0,
0,0,0,0,0,0,0,0,0,0,0,0,0,0,0,0,0,0,0,0,0,0,0,0,0,0,0,0,0,0,0,0,0,0,0,0,0,0,0,0,0,0,0,0,0,0,0,0,0,0,0,0,0,0,0,0,0,0,0,0,0,0,0,0,0,0,0,0,0,0,0,0,0,0,0,0,0,0,0,0,0,0,0,0,0,0,0,0,0,0,0,0,0,0,0,0,0,0,0,0,0,0,0,0,0,0,0,0,0,0,0,0,0,0,0,0,0,0,0,0,0,0,0,0,0,0,0,0,
0,0,0,0,0,0,0,0,0,0,0,0,0,0,0,0,0,0,0,0,0,0,0,0,0,0,0,0,0,0,0,0,0,0,0,0,0,0,0,0,0,0,0,0,0,0,0,0,0,0,0,0,0,0,0,0,0,0,0,0,0,0,0,0,0,0,0,0,0,0,0,0,0,0,0,0,0,0,0,0,0,0,0,0,0,0,0,0,0,0,0,0,0,0,0,0,0,0,0,0,0,0,0,0,0,0,0,0,0,0,0,0,0,0,0,0,0,0,0,0,0,0,0,0,0,0,0,0,
0,0,0,0,0,0,0,0,0,0,0,0,0,0,0,0,0,0,0,0,0,0,0,0,0,0,0,0,0,0,0,0,0,0,0,0,0,0,0,0,0,0,0,0,0,0,0,0,0,0,0,0,0,0,0,0,0,0,0,0,0,0,0,0,0,0,0,0,0,0,0,0,0,0,0,0,0,0,0,0,0,0,0,0,0,0,0,0,0,0,0,0,0,0,0,0,0,0,0,0,0,0,0,0,0,0,0,0,0,0,0,0,0,0,0,0,0,0,0,0,0,0,0,0,0,0,0,0,
0,0,0,0,0,0,0,0,0,0,0,0,0,0,0,0,0,0,0,0,0,0,0,0,0,0,0,0,0,0,0,0,0,0,0,0,0,0,0,0,0,0,0,0,0,0,0,0,0,0,0,0,0,0,0,0,0,0,0,0,0,0,0,0,0,0,0,0,0,0,0,0,0,0,0,0,0,0,0,0,0,0,0,0,0,0,0,0,0,0,0,0,0,0,0,0,0,0,0,0,0,0,0,0,0,0,0,0,0,0,0,0,0,0,0,0,0,0,0,0,0,0,0,0,0,0,0,0,
0,0,0,0,0,0,0,0,0,0,0,0,0,0,0,0,0,0,0,0,0,0,0,0,0,0,0,0,0,0,0,0,0,0,0,0,0,0,0,0,0,0,0,0,0,0,0,0,0,0,0,0,0,0,0,0,0,0,0,0,0,0,0,0,0,0,0,0,0,0,0,0,0,0,0,0,0,0,0,0,0,0,0,0,0,0,0,0,0,0,0,0,0,0,0,0,0,0,0,0,0,0,0,0,0,0,0,0,0,0,0,0,0,0,0,0,0,0,0,0,0,0,0,0,0,0,0,0,
0,0,0,0,0,0,0,0,0,0,0,0,0,0,0,0,0,0,0,0,0,0,0,0,0,0,0,0,0,0,0,0,0,0,0,0,0,0,0,0,0,0,0,0,0,0,0,0,0,0,0,0,0,0,0,0,0,0,0,0,0,0,0,0,0,0,0,0,0,0,0,0,0,0,0,0,0,0,0,0,0,0,0,0,0,0,0,0,0,0,0,0,0,0,0,0,0,0,0,0,0,0,0,0,0,0,0,0,0,0,0,0,0,0,0,0,0,0,0,0,0,0,0,0,0,0,0,0,
0,0,0,0,0,0,0,0,0,0,0,0,0,0,0,0,0,0,0,0,0,0,0,0,0,0,0,0,0,0,0,0,0,0,0,0,0,0,0,0,0,0,0,0,0,0,0,0,0,0,0,0,0,0,0,0,0,0,0,0,0,0,0,0,0,0,0,0,0,0,0,0,0,0,0,0,0,0,0,0,0,0,0,0,0,0,0,0,0,0,0,0,0,0,0,0,0,0,0,0,0,0,0,0,0,0,0,0,0,0,0,0,0,0,0,0,0,0,0,0,0,0,0,0,0,0,0,0,
0,0,0,0,0,0,0,0,0,0,0,0,0,0,0,0,0,0,0,0,0,0,0,0,0,0,0,0,0,0,0,0,0,0,0,0,0,0,0,0,0,0,0,0,0,0,0,0,0,0,0,0,0,0,0,0,0,0,0,0,0,0,0,0,0,0,0,0,0,0,0,0,0,0,0,0,0,0,0,0,0,0,0,0,0,0,0,0,0,0,0,0,0,0,0,0,0,0,0,0,0,0,0,0,0,0,0,0,0,0,0,0,0,0,0,0,0,0,0,0,0,0,0,0,0,0,0,0,
0,0,0,0,0,0,0,0,0,0,0,0,0,0,0,0,0,0,0,0,0,0,0,0,0,0,0,0,0,0,0,0,0,0,0,0,0,0,0,0,0,0,0,0,0,0,0,0,0,0,0,0,0,0,0,0,0,0,0,0,0,0,0,0,0,0,0,0,0,0,0,0,0,0,0,0,0,0,0,0,0,0,0,0,0,0,0,0,0,0,0,0,0,0,0,0,0,0,0,0,0,0,0,0,0,0,0,0,0,0,0,0,0,0,0,0,0,0,0,0,0,0,0,0,0,0,0,0,
0,0,0,0,0,0,0,0,0,0,0,0,0,0,0,0,0,0,0,0,0,0,0,0,0,0,0,0,0,0,0,0,0,0,0,0,0,0,0,0,0,0,0,0,0,0,0,0,0,0,0,0,0,0,0,0,0,0,0,0,0,0,0,0,0,0,0,0,0,0,0,0,0,0,0,0,0,0,0,0,0,0,0,0,0,0,0,0,0,0,0,0,0,0,0,0,0,0,0,0,0,0,0,0,0,0,0,0,0,0,0,0,0,0,0,0,0,0,0,0,0,0,0,0,0,0,0,0,
0,0,0,0,0,0,0,0,0,0,0,0,0,0,0,0,0,0,0,0,0,0,0,0,0,0,0,0,0,0,0,0,0,0,0,0,0,0,0,0,0,0,0,0,0,0,0,0,0,0,0,0,0,0,0,0,0,0,0,0,0,0,0,0,0,0,0,0,0,0,0,0,0,0,0,0,0,0,0,0,0,0,0,0,0,0,0,0,0,0,0,0,0,0,0,0,0,0,0,0,0,0,0,0,0,0,0,0,0,0,0,0,0,0,0,0,0,0,0,0,0,0,0,0,0,0,0,0,
0,0,0,0,0,0,0,0,0,0,0,0,0,0,0,0,0,0,0,0,0,0,0,0,0,0,0,0,0,0,0,0,0,0,0,0,0,0,0,0,0,0,0,0,0,0,0,0,0,0,0,0,0,0,0,0,0,0,0,0,0,0,0,0,0,0,0,0,0,0,0,0,0,0,0,0,0,0,0,0,0,0,0,0,0,0,0,0,0,0,0,0,0,0,0,0,0,0,0,0,0,0,0,0,0,0,0,0,0,0,0,0,0,0,0,0,0,0,0,0,0,0,0,0,0,0,0,0,
0,0,0,0,0,0,0,0,0,0,0,0,0,0,0,0,0,0,0,0,0,0,0,0,0,0,0,0,0,0,0,0,0,0,0,0,0,0,0,0,0,0,0,0,0,0,0,0,0,0,0,0,0,0,0,0,0,0,0,0,0,0,0,0,0,0,0,0,0,0,0,0,0,0,0,0,0,0,0,0,0,0,0,0,0,0,0,0,0,0,0,0,0,0,0,0,0,0,0,0,0,0,0,0,0,0,0,0,0,0,0,0,0,0,0,0,0,0,0,0,0,0,0,0,0,0,0,0,
0,0,0,0,0,0,0,0,0,0,0,0,0,0,0,0,0,0,0,0,0,0,0,0,0,0,0,0,0,0,0,0,0,0,0,0,0,0,0,0,0,0,0,0,0,0,0,0,0,0,0,0,0,0,0,0,0,0,0,0,0,0,0,0,0,0,0,0,0,0,0,0,0,0,0,0,0,0,0,0,0,0,0,0,0,0,0,0,0,0,0,0,0,0,0,0,0,0,0,0,0,0,0,0,0,0,0,0,0,0,0,0,0,0,0,0,0,0,0,0,0,0,0,0,0,0,0,0,
0,0,0,0,0,0,0,0,0,0,0,0,0,0,0,0,0,0,0,0,0,0,0,0,0,0,0,0,0,0,0,0,0,0,0,0,0,0,0,0,0,0,0,0,0,0,0,0,0,0,0,0,0,0,0,0,0,0,0,0,0,0,0,0,0,0,0,0,0,0,0,0,0,0,0,0,0,0,0,0,0,0,0,0,0,0,0,0,0,0,0,0,0,0,0,0,0,0,0,0,0,0,0,0,0,0,0,0,0,0,0,0,0,0,0,0,0,0,0,0,0,0,0,0,0,0,0,0,
0,0,0,0,0,0,0,0,0,0,0,0,0,0,0,0,0,0,0,0,0,0,0,0,0,0,0,0,0,0,0,0,0,0,0,0,0,0,0,0,0,0,0,0,0,0,0,0,0,0,0,0,0,0,0,0,0,0,0,0,0,0,0,0,0,0,0,0,0,0,0,0,0,0,0,0,0,0,0,0,0,0,0,0,0,0,0,0,0,0,0,0,0,0,0,0,0,0,0,0,0,0,0,0,0,0,0,0,0,0,0,0,0,0,0,0,0,0,0,0,0,0,0,0,0,0,0,0,
0,0,0,0,0,0,0,0,0,0,0,0,0,0,0,0,0,0,0,0,0,0,0,0,0,0,0,0,0,0,0,0,0,0,0,0,0,0,0,0,0,0,0,0,0,0,0,0,0,0,0,0,0,0,0,0,0,0,0,0,0,0,0,0,0,0,0,0,0,0,0,0,0,0,0,0,0,0,0,0,0,0,0,0,0,0,0,0,0,0,0,0,0,0,0,0,0,0,0,0,0,0,0,0,0,0,0,0,0,0,0,0,0,0,0,0,0,0,0,0,0,0,0,0,0,0,0,0,
0,0,0,0,0,0,0,0,0,0,0,0,0,0,0,0,0,0,0,0,0,0,0,0,0,0,0,0,0,0,0,0,0,0,0,0,0,0,0,0,0,0,0,0,0,0,0,0,0,0,0,0,0,0,0,0,0,0,0,0,0,0,0,0,0,0,0,0,0,0,0,0,0,0,0,0,0,0,0,0,0,0,0,0,0,0,0,0,0,0,0,0,0,0,0,0,0,0,0,0,0,0,0,0,0,0,0,0,0,0,0,0,0,0,0,0,0,0,0,0,0,0,0,0,0,0,0,0,
0,0,0,0,0,0,0,0,0,0,0,0,0,0,0,0,0,0,0,0,0,0,0,0,0,0,0,0,0,0,0,0,0,0,0,0,0,0,0,0,0,0,0,0,0,0,0,0,0,0,0,0,0,0,0,0,0,0,0,0,0,0,0,0,0,0,0,0,0,0,0,0,0,0,0,0,0,0,0,0,0,0,0,0,0,0,0,0,0,0,0,0,0,0,0,0,0,0,0,0,0,0,0,0,0,0,0,0,0,0,0,0,0,0,0,0,0,0,0,0,0,0,0,0,0,0,0,0,
0,0,0,0,0,0,0,0,0,0,0,0,0,0,0,0,0,0,0,0,0,0,0,0,0,0,0,0,0,0,0,0,0,0,0,0,0,0,0,0,0,0,0,0,0,0,0,0,0,0,0,0,0,0,0,0,0,0,0,0,0,0,0,0,0,0,0,0,0,0,0,0,0,0,0,0,0,0,0,0,0,0,0,0,0,0,0,0,0,0,0,0,0,0,0,0,0,0,0,0,0,0,0,0,0,0,0,0,0,0,0,0,0,0,0,0,0,0,0,0,0,0,0,0,0,0,0,0,
0,0,0,0,0,0,0,0,0,0,0,0,0,0,0,0,0,0,0,0,0,0,0,0,0,0,0,0,0,0,0,0,0,0,0,0,0,0,0,0,0,0,0,0,0,0,0,0,0,0,0,0,0,0,0,0,0,0,0,0,0,0,0,0,0,0,0,0,0,0,0,0,0,0,0,0,0,0,0,0,0,0,0,0,0,0,0,0,0,0,0,0,0,0,0,0,0,0,0,0,0,0,0,0,0,0,0,0,0,0,0,0,0,0,0,0,0,0,0,0,0,0,0,0,0,0,0,0,
0,0,0,0,0,0,0,0,0,0,0,0,0,0,0,0,0,0,0,0,0,0,0,0,0,0,0,0,0,0,0,0,0,0,0,0,0,0,0,0,0,0,0,0,0,0,0,0,0,0,0,0,0,0,0,0,0,0,0,0,0,0,0,0,0,0,0,0,0,0,0,0,0,0,0,0,0,0,0,0,0,0,0,0,0,0,0,0,0,0,0,0,0,0,0,0,0,0,0,0,0,0,0,0,0,0,0,0,0,0,0,0,0,0,0,0,0,0,0,0,0,0,0,0,0,0,0,0,
0,0,0,0,0,0,0,0,0,0,0,0,0,0,0,0,0,0,0,0,0,0,0,0,0,0,0,0,0,0,0,0,0,0,0,0,0,0,0,0,0,0,0,0,0,0,0,0,0,0,0,0,0,0,0,0,0,0,0,0,0,0,0,0,0,0,0,0,0,0,0,0,0,0,0,0,0,0,0,0,0,0,0,0,0,0,0,0,0,0,0,0,0,0,0,0,0,0,0,0,0,0,0,0,0,0,0,0,0,0,0,0,0,0,0,0,0,0,0,0,0,0,0,0,0,0,0,0,
0,0,0,0,0,0,0,0,0,0,0,0,0,0,0,0,0,0,0,0,0,0,0,0,0,0,0,0,0,0,0,0,0,0,0,0,0,0,0,0,0,0,0,0,0,0,0,0,0,0,0,0,0,0,0,0,0,0,0,0,0,0,0,0,0,0,0,0,0,0,0,0,0,0,0,0,0,0,0,0,0,0,0,0,0,0,0,0,0,0,0,0,0,0,0,0,0,0,0,0,0,0,0,0,0,0,0,0,0,0,0,0,0,0,0,0,0,0,0,0,0,0,0,0,0,0,0,0,
0,0,0,0,0,0,0,0,0,0,0,0,0,0,0,0,0,0,0,0,0,0,0,0,0,0,0,0,0,0,0,0,0,0,0,0,0,0,0,0,0,0,0,0,0,0,0,0,0,0,0,0,0,0,0,0,0,0,0,0,0,0,0,0,0,0,0,0,0,0,0,0,0,0,0,0,0,0,0,0,0,0,0,0,0,0,0,0,0,0,0,0,0,0,0,0,0,0,0,0,0,0,0,0,0,0,0,0,0,0,0,0,0,0,0,0,0,0,0,0,0,0,0,0,0,0,0,0,
0,0,0,0,0,0,0,0,0,0,0,0,0,0,0,0,0,0,0,0,0,0,0,0,0,0,0,0,0,0,0,0,0,0,0,0,0,0,0,0,0,0,0,0,0,0,0,0,0,0,0,0,0,0,0,0,0,0,0,0,0,0,0,0,0,0,0,0,0,0,0,0,0,0,0,0,0,0,0,0,0,0,0,0,0,0,0,0,0,0,0,0,0,0,0,0,0,0,0,0,0,0,0,0,0,0,0,0,0,0,0,0,0,0,0,0,0,0,0,0,0,0,0,0,0,0,0,0,
0,0,0,0,0,0,0,0,0,0,0,0,0,0,0,0,0,0,0,0,0,0,0,0,0,0,0,0,0,0,0,0,0,0,0,0,0,0,0,0,0,0,0,0,0,0,0,0,0,0,0,0,0,0,0,0,0,0,0,0,0,0,0,0,0,0,0,0,0,0,0,0,0,0,0,0,0,0,0,0,0,0,0,0,0,0,0,0,0,0,0,0,0,0,0,0,0,0,0,0,0,0,0,0,0,0,0,0,0,0,0,0,0,0,0,0,0,0,0,0,0,0,0,0,0,0,0,0,
0,0,0,0,0,0,0,0,0,0,0,0,0,0,0,0,0,0,0,0,0,0,0,0,0,0,0,0,0,0,0,0,0,0,0,0,0,0,0,0,0,0,0,0,0,0,0,0,0,0,0,0,0,0,0,0,0,0,0,0,0,0,0,0,0,0,0,0,0,0,0,0,0,0,0,0,0,0,0,0,0,0,0,0,0,0,0,0,0,0,0,0,0,0,0,0,0,0,0,0,0,0,0,0,0,0,0,0,0,0,0,0,0,0,0,0,0,0,0,0,0,0,0,0,0,0,0,0,
0,0,0,0,0,0,0,0,0,0,0,0,0,0,0,0,0,0,0,0,0,0,0,0,0,0,0,0,0,0,0,0,0,0,0,0,0,0,0,0,0,0,0,0,0,0,0,0,0,0,0,0,0,0,0,0,0,0,0,0,0,0,0,0,0,0,0,0,0,0,0,0,0,0,0,0,0,0,0,0,0,0,0,0,0,0,0,0,0,0,0,0,0,0,0,0,0,0,0,0,0,0,0,0,0,0,0,0,0,0,0,0,0,0,0,0,0,0,0,0,0,0,0,0,0,0,0,0,
0,0,0,0,0,0,0,0,0,0,0,0,0,0,0,0,0,0,0,0,0,0,0,0,0,0,0,0,0,0,0,0,0,0,0,0,0,0,0,0,0,0,0,0,0,0,0,0,0,0,0,0,0,0,0,0,0,0,0,0,0,0,0,0,0,0,0,0,0,0,0,0,0,0,0,0,0,0,0,0,0,0,0,0,0,0,0,0,0,0,0,0,0,0,0,0,0,0,0,0,0,0,0,0,0,0,0,0,0,0,0,0,0,0,0,0,0,0,0,0,0,0,0,0,0,0,0,0,
0,0,0,0,0,0,0,0,0,0,0,0,0,0,0,0,0,0,0,0,0,0,0,0,0,0,0,0,0,0,0,0,0,0,0,0,0,0,0,0,0,0,0,0,0,0,0,0,0,0,0,0,0,0,0,0,0,0,0,0,0,0,0,0,0,0,0,0,0,0,0,0,0,0,0,0,0,0,0,0,0,0,0,0,0,0,0,0,0,0,0,0,0,0,0,0,0,0,0,0,0,0,0,0,0,0,0,0,0,0,0,0,0,0,0,0,0,0,0,0,0,0,0,0,0,0,0,0,
0,0,0,0,0,0,0,0,0,0,0,0,0,0,0,0,0,0,0,0,0,0,0,0,0,0,0,0,0,0,0,0,0,0,0,0,0,0,0,0,0,0,0,0,0,0,0,0,0,0,0,0,0,0,0,0,0,0,0,0,0,0,0,0,0,0,0,0,0,0,0,0,0,0,0,0,0,0,0,0,0,0,0,0,0,0,0,0,0,0,0,0,0,0,0,0,0,0,0,0,0,0,0,0,0,0,0,0,0,0,0,0,0,0,0,0,0,0,0,0,0,0,0,0,0,0,0,0,
0,0,0,0,0,0,0,0,0,0,0,0,0,0,0,0,0,0,0,0,0,0,0,0,0,0,0,0,0,0,0,0,0,0,0,0,0,0,0,0,0,0,0,0,0,0,0,0,0,0,0,0,0,0,0,0,0,0,0,0,0,0,0,0,0,0,0,0,0,0,0,0,0,0,0,0,0,0,0,0,0,0,0,0,0,0,0,0,0,0,0,0,0,0,0,0,0,0,0,0,0,0,0,0,0,0,0,0,0,0,0,0,0,0,0,0,0,0,0,0,0,0,0,0,0,0,0,0,
0,0,0,0,0,0,0,0,0,0,0,0,0,0,0,0,0,0,0,0,0,0,0,0,0,0,0,0,0,0,0,0,0,0,0,0,0,0,0,0,0,0,0,0,0,0,0,0,0,0,0,0,0,0,0,0,0,0,0,0,0,0,0,0,0,0,0,0,0,0,0,0,0,0,0,0,0,0,0,0,0,0,0,0,0,0,0,0,0,0,0,0,0,0,0,0,0,0,0,0,0,0,0,0,0,0,0,0,0,0,0,0,0,0,0,0,0,0,0,0,0,0,0,0,0,0,0,0,
0,0,0,0,0,0,0,0,0,0,0,0,0,0,0,0,0,0,0,0,0,0,0,0,0,0,0,0,0,0,0,0,0,0,0,0,0,0,0,0,0,0,0,0,0,0,0,0,0,0,0,0,0,0,0,0,0,0,0,0,0,0,0,0,0,0,0,0,0,0,0,0,0,0,0,0,0,0,0,0,0,0,0,0,0,0,0,0,0,0,0,0,0,0,0,0,0,0,0,0,0,0,0,0,0,0,0,0,0,0,0,0,0,0,0,0,0,0,0,0,0,0,0,0,0,0,0,0,
0,0,0,0,0,0,0,0,0,0,0,0,0,0,0,0,0,0,0,0,0,0,0,0,0,0,0,0,0,0,0,0,0,0,0,0,0,0,0,0,0,0,0,0,0,0,0,0,0,0,0,0,0,0,0,0,0,0,0,0,0,0,0,0,0,0,0,0,0,0,0,0,0,0,0,0,0,0,0,0,0,0,0,0,0,0,0,0,0,0,0,0,0,0,0,0,0,0,0,0,0,0,0,0,0,0,0,0,0,0,0,0,0,0,0,0,0,0,0,0,0,0,0,0,0,0,0,0,
0,0,0,0,0,0,0,0,0,0,0,0,0,0,0,0,0,0,0,0,0,0,0,0,0,0,0,0,0,0,0,0,0,0,0,0,0,0,0,0,0,0,0,0,0,0,0,0,0,0,0,0,0,0,0,0,0,0,0,0,0,0,0,0,0,0,0,0,0,0,0,0,0,0,0,0,0,0,0,0,0,0,0,0,0,0,0,0,0,0,0,0,0,0,0,0,0,0,0,0,0,0,0,0,0,0,0,0,0,0,0,0,0,0,0,0,0,0,0,0,0,0,0,0,0,0,0,0,
0,0,0,0,0,0,0,0,0,0,0,0,0,0,0,0,0,0,0,0,0,0,0,0,0,0,0,0,0,0,0,0,0,0,0,0,0,0,0,0,0,0,0,0,0,0,0,0,0,0,0,0,0,0,0,0,0,0,0,0,0,0,0,0,0,0,0,0,0,0,0,0,0,0,0,0,0,0,0,0,0,0,0,0,0,0,0,0,0,0,0,0,0,0,0,0,0,0,0,0,0,0,0,0,0,0,0,0,0,0,0,0,0,0,0,0,0,0,0,0,0,0,0,0,0,0,0,0,
0,0,0,0,0,0,0,0,0,0,0,0,0,0,0,0,0,0,0,0,0,0,0,0,0,0,0,0,0,0,0,0,0,0,0,0,0,0,0,0,0,0,0,0,0,0,0,0,0,0,0,0,0,0,0,0,0,0,0,0,0,0,0,0,0,0,0,0,0,0,0,0,0,0,0,0,0,0,0,0,0,0,0,0,0,0,0,0,0,0,0,0,0,0,0,0,0,0,0,0,0,0,0,0,0,0,0,0,0,0,0,0,0,0,0,0,0,0,0,0,0,0,0,0,0,0,0,0,
0,0,0,0,0,0,0,0,0,0,0,0,0,0,0,0,0,0,0,0,0,0,0,0,0,0,0,0,0,0,0,0,0,0,0,0,0,0,0,0,0,0,0,0,0,0,0,0,0,0,0,0,0,0,0,0,0,0,0,0,0,0,0,0,0,0,0,0,0,0,0,0,0,0,0,0,0,0,0,0,0,0,0,0,0,0,0,0,0,0,0,0,0,0,0,0,0,0,0,0,0,0,0,0,0,0,0,0,0,0,0,0,0,0,0,0,0,0,0,0,0,0,0,0,0,0,0,0,
0,0,0,0,0,0,0,0,0,0,0,0,0,0,0,0,0,0,0,0,0,0,0,0,0,0,0,0,0,0,0,0,0,0,0,0,0,0,0,0,0,0,0,0,0,0,0,0,0,0,0,0,0,0,0,0,0,0,0,0,0,0,0,0,0,0,0,0,0,0,0,0,0,0,0,0,0,0,0,0,0,0,0,0,0,0,0,0,0,0,0,0,0,0,0,0,0,0,0,0,0,0,0,0,0,0,0,0,0,0,0,0,0,0,0,0,0,0,0,0,0,0,0,0,0,0,0,0,
0,0,0,0,0,0,0,0,0,0,0,0,0,0,0,0,0,0,0,0,0,0,0,0,0,0,0,0,0,0,0,0,0,0,0,0,0,0,0,0,0,0,0,0,0,0,0,0,0,0,0,0,0,0,0,0,0,0,0,0,0,0,0,0,0,0,0,0,0,0,0,0,0,0,0,0,0,0,0,0,0,0,0,0,0,0,0,0,0,0,0,0,0,0,0,0,0,0,0,0,0,0,0,0,0,0,0,0,0,0,0,0,0,0,0,0,0,0,0,0,0,0,0,0,0,0,0,0,
0,0,0,0,0,0,0,0,0,0,0,0,0,0,0,0,0,0,0,0,0,0,0,0,0,0,0,0,0,0,0,0,0,0,0,0,0,0,0,0,0,0,0,0,0,0,0,0,0,0,0,0,0,0,0,0,0,0,0,0,0,0,0,0,0,0,0,0,0,0,0,0,0,0,0,0,0,0,0,0,0,0,0,0,0,0,0,0,0,0,0,0,0,0,0,0,0,0,0,0,0,0,0,0,0,0,0,0,0,0,0,0,0,0,0,0,0,0,0,0,0,0,0,0,0,0,0,0,
0,0,0,0,0,0,0,0,0,0,0,0,0,0,0,0,0,0,0,0,0,0,0,0,0,0,0,0,0,0,0,0,0,0,0,0,0,0,0,0,0,0,0,0,0,0,0,0,0,0,0,0,0,0,0,0,0,0,0,0,0,0,0,0,0,0,0,0,0,0,0,0,0,0,0,0,0,0,0,0,0,0,0,0,0,0,0,0,0,0,0,0,0,0,0,0,0,0,0,0,0,0,0,0,0,0,0,0,0,0,0,0,0,0,0,0,0,0,0,0,0,0,0,0,0,0,0,0,
0,0,0,0,0,0,0,0,0,0,0,0,0,0,0,0,0,0,0,0,0,0,0,0,0,0,0,0,0,0,0,0,0,0,0,0,0,0,0,0,0,0,0,0,0,0,0,0,0,0,0,0,0,0,0,0,0,0,0,0,0,0,0,0,0,0,0,0,0,0,0,0,0,0,0,0,0,0,0,0,0,0,0,0,0,0,0,0,0,0,0,0,0,0,0,0,0,0,0,0,0,0,0,0,0,0,0,0,0,0,0,0,0,0,0,0,0,0,0,0,0,0,0,0,0,0,0,0,
0,0,0,0,0,0,0,0,0,0,0,0,0,0,0,0,0,0,0,0,0,0,0,0,0,0,0,0,0,0,0,0,0,0,0,0,0,0,0,0,0,0,0,0,0,0,0,0,0,0,0,0,0,0,0,0,0,0,0,0,0,0,0,0,0,0,0,0,0,0,0,0,0,0,0,0,0,0,0,0,0,0,0,0,0,0,0,0,0,0,0,0,0,0,0,0,0,0,0,0,0,0,0,0,0,0,0,0,0,0,0,0,0,0,0,0,0,0,0,0,0,0,0,0,0,0,0,0,
0,0,0,0,0,0,0,0,0,0,0,0,0,0,0,0,0,0,0,0,0,0,0,0,0,0,0,0,0,0,0,0,0,0,0,0,0,0,0,0,0,0,0,0,0,0,0,0,0,0,0,0,0,0,0,0,0,0,0,0,0,0,0,0,0,0,0,0,0,0,0,0,0,0,0,0,0,0,0,0,0,0,0,0,0,0,0,0,0,0,0,0,0,0,0,0,0,0,0,0,0,0,0,0,0,0,0,0,0,0,0,0,0,0,0,0,0,0,0,0,0,0,0,0,0,0,0,0,
0,0,0,0,0,0,0,0,0,0,0,0,0,0,0,0,0,0,0,0,0,0,0,0,0,0,0,0,0,0,0,0,0,0,0,0,0,0,0,0,0,0,0,0,0,0,0,0,0,0,0,0,0,0,0,0,0,0,0,0,0,0,0,0,0,0,0,0,0,0,0,0,0,0,0,0,0,0,0,0,0,0,0,0,0,0,0,0,0,0,0,0,0,0,0,0,0,0,0,0,0,0,0,0,0,0,0,0,0,0,0,0,0,0,0,0,0,0,0,0,0,0,0,0,0,0,0,0,
0,0,0,0,0,0,0,0,0,0,0,0,0,0,0,0,0,0,0,0,0,0,0,0,0,0,0,0,0,0,0,0,0,0,0,0,0,0,0,0,0,0,0,0,0,0,0,0,0,0,0,0,0,0,0,0,0,0,0,0,0,0,0,0,0,0,0,0,0,0,0,0,0,0,0,0,0,0,0,0,0,0,0,0,0,0,0,0,0,0,0,0,0,0,0,0,0,0,0,0,0,0,0,0,0,0,0,0,0,0,0,0,0,0,0,0,0,0,0,0,0,0,0,0,0,0,0,0,
0,0,0,0,0,0,0,0,0,0,0,0,0,0,0,0,0,0,0,0,0,0,0,0,0,0,0,0,0,0,0,0,0,0,0,0,0,0,0,0,0,0,0,0,0,0,0,0,0,0,0,0,0,0,0,0,0,0,0,0,0,0,0,0,0,0,0,0,0,0,0,0,0,0,0,0,0,0,0,0,0,0,0,0,0,0,0,0,0,0,0,0,0,0,0,0,0,0,0,0,0,0,0,0,0,0,0,0,0,0,0,0,0,0,0,0,0,0,0,0,0,0,0,0,0,0,0,0,
0,0,0,0,0,0,0,0,0,0,0,0,0,0,0,0,0,0,0,0,0,0,0,0,0,0,0,0,0,0,0,0,0,0,0,0,0,0,0,0,0,0,0,0,0,0,0,0,0,0,0,0,0,0,0,0,0,0,0,0,0,0,0,0,0,0,0,0,0,0,0,0,0,0,0,0,0,0,0,0,0,0,0,0,0,0,0,0,0,0,0,0,0,0,0,0,0,0,0,0,0,0,0,0,0,0,0,0,0,0,0,0,0,0,0,0,0,0,0,0,0,0,0,0,0,0,0,0,
0,0,0,0,0,0,0,0,0,0,0,0,0,0,0,0,0,0,0,0,0,0,0,0,0,0,0,0,0,0,0,0,0,0,0,0,0,0,0,0,0,0,0,0,0,0,0,0,0,0,0,0,0,0,0,0,0,0,0,0,0,0,0,0,0,0,0,0,0,0,0,0,0,0,0,0,0,0,0,0,0,0,0,0,0,0,0,0,0,0,0,0,0,0,0,0,0,0,0,0,0,0,0,0,0,0,0,0,0,0,0,0,0,0,0,0,0,0,0,0,0,0,0,0,0,0,0,0,
0,0,0,0,0,0,0,0,0,0,0,0,0,0,0,0,0,0,0,0,0,0,0,0,0,0,0,0,0,0,0,0,0,0,0,0,0,0,0,0,0,0,0,0,0,0,0,0,0,0,0,0,0,0,0,0,0,0,0,0,0,0,0,0,0,0,0,0,0,0,0,0,0,0,0,0,0,0,0,0,0,0,0,0,0,0,0,0,0,0,0,0,0,0,0,0,0,0,0,0,0,0,0,0,0,0,0,0,0,0,0,0,0,0,0,0,0,0,0,0,0,0,0,0,0,0,0,0,
0,0,0,0,0,0,0,0,0,0,0,0,0,0,0,0,0,0,0,0,0,0,0,0,0,0,0,0,0,0,0,0,0,0,0,0,0,0,0,0,0,0,0,0,0,0,0,0,0,0,0,0,0,0,0,0,0,0,0,0,0,0,0,0,0,0,0,0,0,0,0,0,0,0,0,0,0,0,0,0,0,0,0,0,0,0,0,0,0,0,0,0,0,0,0,0,0,0,0,0,0,0,0,0,0,0,0,0,0,0,0,0,0,0,0,0,0,0,0,0,0,0,0,0,0,0,0,0,
0,0,0,0,0,0,0,0,0,0,0,0,0,0,0,0,0,0,0,0,0,0,0,0,0,0,0,0,0,0,0,0,0,0,0,0,0,0,0,0,0,0,0,0,0,0,0,0,0,0,0,0,0,0,0,0,0,0,0,0,0,0,0,0,0,0,0,0,0,0,0,0,0,0,0,0,0,0,0,0,0,0,0,0,0,0,0,0,0,0,0,0,0,0,0,0,0,0,0,0,0,0,0,0,0,0,0,0,0,0,0,0,0,0,0,0,0,0,0,0,0,0,0,0,0,0,0,0,
0,0,0,0,0,0,0,0,0,0,0,0,0,0,0,0,0,0,0,0,0,0,0,0,0,0,0,0,0,0,0,0,0,0,0,0,0,0,0,0,0,0,0,0,0,0,0,0,0,0,0,0,0,0,0,0,0,0,0,0,0,0,0,0,0,0,0,0,0,0,0,0,0,0,0,0,0,0,0,0,0,0,0,0,0,0,0,0,0,0,0,0,0,0,0,0,0,0,0,0,0,0,0,0,0,0,0,0,0,0,0,0,0,0,0,0,0,0,0,0,0,0,0,0,0,0,0,0,
0,0,0,0,0,0,0,0,0,0,0,0,0,0,0,0,0,0,0,0,0,0,0,0,0,0,0,0,0,0,0,0,0,0,0,0,0,0,0,0,0,0,0,0,0,0,0,0,0,0,0,0,0,0,0,0,0,0,0,0,0,0,0,0,0,0,0,0,0,0,0,0,0,0,0,0,0,0,0,0,0,0,0,0,0,0,0,0,0,0,0,0,0,0,0,0,0,0,0,0,0,0,0,0,0,0,0,0,0,0,0,0,0,0,0,0,0,0,0,0,0,0,0,0,0,0,0,0,
0,0,0,0,0,0,0,0,0,0,0,0,0,0,0,0,0,0,0,0,0,0,0,0,0,0,0,0,0,0,0,0,0,0,0,0,0,0,0,0,0,0,0,0,0,0,0,0,0,0,0,0,0,0,0,0,0,0,0,0,0,0,0,0,0,0,0,0,0,0,0,0,0,0,0,0,0,0,0,0,0,0,0,0,0,0,0,0,0,0,0,0,0,0,0,0,0,0,0,0,0,0,0,0,0,0,0,0,0,0,0,0,0,0,0,0,0,0,0,0,0,0,0,0,0,0,0,0,
0,0,0,0,0,0,0,0,0,0,0,0,0,0,0,0,0,0,0,0,0,0,0,0,0,0,0,0,0,0,0,0,0,0,0,0,0,0,0,0,0,0,0,0,0,0,0,0,0,0,0,0,0,0,0,0,0,0,0,0,0,0,0,0,0,0,0,0,0,0,0,0,0,0,0,0,0,0,0,0,0,0,0,0,0,0,0,0,0,0,0,0,0,0,0,0,0,0,0,0,0,0,0,0,0,0,0,0,0,0,0,0,0,0,0,0,0,0,0,0,0,0,0,0,0,0,0,0
</data>
 </layer>
 <layer id="6" name="over" width="128" height="96" opacity="0.99">
  <data encoding="csv">
1322,1323,1124,1125,1172,1173,1174,1175,1124,1125,1176,1177,1178,1179,1124,1125,1172,1173,1174,1175,1176,1177,1178,1179,1322,1323,1128,1129,1124,1125,1172,1173,1174,1175,1124,1125,1128,1129,1128,1129,1172,1173,1174,1175,1126,1127,1322,1323,1172,1173,1174,1175,1176,1177,1178,1179,1172,1173,1174,1175,1172,1173,1174,1175,1322,1323,1322,1323,1172,1173,1174,1175,1128,1129,1124,1125,1128,1129,1172,1173,1174,1175,1126,1127,1124,1125,1172,1173,1174,1175,1126,1127,1128,1129,1322,1323,1124,1125,1128,1129,1176,1177,1178,1179,1172,1173,1174,1175,1176,1177,1178,1179,1128,1129,1126,1127,1126,1127,1126,1127,1176,1177,1178,1179,1124,1125,1124,1125,
1126,1127,1124,1125,0,0,0,0,1322,1323,0,0,0,0,1128,1129,0,0,0,0,0,0,0,0,1322,1323,1124,1125,1126,1127,0,0,0,0,1176,1177,1178,1179,1126,1127,0,0,0,0,1128,1129,1124,1125,0,0,0,0,0,0,0,0,0,0,0,0,0,0,0,0,1128,1129,1128,1129,0,0,0,0,1128,1129,1322,1323,1124,1125,0,0,0,0,1126,1127,1128,1129,0,0,0,0,1128,1129,1176,1177,1178,1179,1124,1125,1128,1129,0,0,0,0,0,0,0,0,0,0,0,0,1126,1127,1126,1127,1124,1125,1322,1323,0,0,0,0,1124,1125,1128,1129,
1172,1173,1174,1175,1172,1173,1174,1175,1126,1127,1128,1129,1176,1177,1178,1179,1176,1177,1178,1179,1128,1129,1322,1323,1124,1125,1126,1127,1172,1173,1174,1175,1126,1127,0,0,0,0,1176,1177,1178,1179,1128,1129,1172,1173,1174,1175,1176,1177,1178,1179,1126,1127,1126,1127,1124,1125,1126,1127,1128,1129,1322,1323,1124,1125,1124,1125,1172,1173,1174,1175,1128,1129,1126,1127,1128,1129,1172,1173,1174,1175,1172,1173,1174,1175,1126,1127,1128,1129,1322,1323,0,0,0,0,1124,1125,1124,1125,1176,1177,1178,1179,1172,1173,1174,1175,1128,1129,1128,1129,1322,1323,1126,1127,1126,1127,1322,1323,1124,1125,1172,1173,1174,1175,1322,1323,
0,0,0,0,0,0,0,0,1126,1127,1126,1127,0,0,0,0,0,0,0,0,1124,1125,1176,1177,1178,1179,1124,1125,0,0,0,0,0,1126,1127,0,0,0,0,0,0,0,0,0,0,0,0,0,0,0,0,0,1176,1177,1178,1179,1124,1125,1176,1177,1178,1179,1322,1323,1128,1129,1126,1127,0,0,0,0,1124,1125,1172,1173,1174,1175,0,0,0,0,0,0,0,0,1322,1323,1172,1173,1174,1175,1176,1177,1178,1179,1322,1323,1322,1323,0,0,0,0,0,0,0,0,1128,1129,1128,1129,1172,1173,1174,1175,0,1322,1323,1128,1129,0,0,0,0,0,1124,1125,
1124,1125,1124,1125,0,1126,1127,1126,1127,0,1128,1129,1176,1177,1178,1179,1126,1127,1128,1129,1124,1125,0,0,0,0,1128,1129,1128,1129,0,0,1128,1129,1128,1129,0,1128,1129,1128,1129,0,0,1322,1323,1176,1177,1178,1179,1128,1129,0,0,0,0,0,1124,1125,0,0,0,0,1128,1129,1322,1323,1176,1177,1178,1179,1126,1127,1126,1127,0,0,0,0,0,1128,1129,1126,1127,0,1124,1125,1124,1125,0,0,0,0,0,0,0,0,1172,1173,1174,1175,1322,1323,1128,1129,1126,1127,1172,1173,1174,1175,1128,1129,0,0,0,0,1322,1323,1126,1127,1176,1177,1178,1179,0,1124,1125,0,
1126,1127,1176,1177,1178,1179,1322,1323,0,1322,1323,0,0,0,0,0,1172,1173,1174,1175,1176,1177,1178,1179,1124,1125,1124,1125,0,1124,1125,1124,1125,0,1172,1173,1174,1175,1172,1173,1174,1175,1128,1129,0,0,0,0,0,0,1126,1127,1322,1323,1128,1129,1176,1177,1178,1179,1124,1125,0,0,1128,1129,0,0,0,0,1124,1125,1128,1129,1126,1127,0,1126,1127,1126,1127,1128,1129,1126,1127,1322,1323,1172,1173,1174,1175,0,1126,1127,1126,1127,0,0,0,0,0,1176,1177,1178,1179,0,0,0,0,0,1124,1125,1124,1125,1128,1129,0,0,1322,1323,0,0,0,0,0,1126,1127,0,
1124,1125,0,0,0,0,1124,1125,1172,1173,1174,1175,0,0,1124,1125,0,0,0,0,0,0,0,0,1126,1127,0,1124,1125,1126,1127,1126,1127,0,0,0,0,0,0,0,0,0,0,0,0,1124,1125,1172,1173,1174,1175,1322,1323,1124,1125,0,0,0,0,0,1124,1125,1128,1129,1126,1127,0,0,1322,1323,1176,1177,1178,1179,1322,1323,1322,1323,1128,1129,0,1124,1125,1126,1127,1126,1127,0,0,0,0,0,0,1176,1177,1178,1179,0,1322,1323,0,0,0,0,0,1126,1127,1172,1173,1174,1175,1176,1177,1178,1179,1322,1323,1126,1127,1322,1323,1128,1129,1322,1323,1322,1323,0,
1124,1125,1124,1125,1128,1129,1128,1129,0,0,0,0,0,0,0,0,0,0,0,1176,1177,1178,1179,1124,1125,1126,1127,0,1322,1323,0,1176,1177,1178,1179,1126,1127,0,1128,1129,0,1124,1125,0,1322,1323,0,0,0,0,0,0,0,1128,1129,0,1124,1125,1128,1129,1124,1125,1128,1129,0,1172,1173,1174,1175,0,0,0,0,0,1322,1323,0,1176,1177,1178,1179,1128,1129,0,1124,1125,1322,1323,0,1172,1173,1174,1175,0,0,0,0,0,1176,1177,1178,1179,1176,1177,1178,1179,0,0,0,0,0,0,0,0,0,1124,1125,1172,1173,1174,1175,0,1124,1125,0,1124,1125,0,
1176,1177,1178,1179,1128,1129,0,1128,1129,0,0,0,0,0,0,0,0,0,0,0,0,0,0,0,1322,1323,1126,1127,1126,1127,0,0,0,0,0,1126,1127,0,1126,1127,1124,1125,1124,1125,1172,1173,1174,1175,1128,1129,1176,1177,1178,1179,0,1128,1129,0,1124,1125,1176,1177,1178,1179,0,0,0,0,0,1322,1323,1124,1125,1172,1173,1174,1175,0,0,0,0,1172,1173,1174,1175,1322,1323,1126,1127,0,0,0,0,0,0,0,0,0,0,0,0,0,0,0,0,0,1126,1127,1124,1125,0,1176,1177,1178,1179,1124,1125,0,0,0,0,1172,1173,1174,1175,1124,1125,0,
0,0,0,0,1322,1323,1322,1323,0,0,0,0,0,0,0,0,0,0,0,1172,1173,1174,1175,1124,1125,1128,1129,1126,1127,1124,1125,0,1176,1177,1178,1179,0,1322,1323,1124,1125,1128,1129,0,0,0,0,0,0,0,0,0,0,0,0,0,1322,1323,0,0,0,0,0,0,0,1124,1125,1126,1127,0,0,1128,1129,0,0,0,0,0,1124,1125,0,0,0,0,0,1176,1177,1178,1179,1322,1323,0,1176,1177,1178,1179,0,0,0,0,1128,1129,0,1126,1127,0,1124,1125,1124,1125,0,0,0,0,0,1124,1125,1128,1129,1124,1125,0,0,0,0,1322,1323,0,
1322,1323,1172,1173,1174,1175,1322,1323,1128,1129,0,0,0,0,0,0,0,0,0,0,0,0,0,0,1176,1177,1178,1179,1126,1127,1124,1125,0,0,0,0,0,1322,1323,1322,1323,0,1172,1173,1174,1175,0,0,0,0,1176,1177,1178,1179,0,0,0,0,0,0,1322,1323,0,1176,1177,1178,1179,1126,1127,1126,1127,1172,1173,1174,1175,0,1126,1127,0,0,1128,1129,1124,1125,0,0,0,0,0,1128,1129,0,0,0,0,0,0,0,2007,2008,0,0,0,0,1176,1177,1178,1179,1128,1129,1126,1127,1172,1173,1174,1175,0,0,1176,1177,1178,1179,1124,1125,0,1322,1323,0,
1128,1129,0,0,0,0,1128,1129,1126,1127,0,0,0,0,0,0,0,0,0,1128,1129,0,0,0,0,0,0,0,0,0,0,0,0,1176,1177,1178,1179,1322,1323,1128,1129,0,0,0,0,0,1176,1177,1178,1179,0,0,0,0,0,0,0,0,0,0,0,0,0,0,0,0,0,0,1128,1129,0,0,0,0,0,0,0,0,1124,1125,1172,1173,1174,1175,1172,1173,1174,1175,0,0,1128,1129,0,0,0,0,0,0,0,0,0,1124,1125,0,0,0,0,0,0,1126,1127,0,0,0,0,0,1126,1127,0,0,0,0,1124,1125,0,1126,1127,0,
1172,1173,1174,1175,1128,1129,1322,1323,0,0,0,0,0,0,0,0,0,0,1322,1323,0,1128,1129,0,1126,1127,0,0,0,0,0,0,0,0,0,0,0,0,0,0,0,0,1124,1125,1128,1129,0,0,0,0,0,0,1126,1127,1128,1129,0,0,0,0,0,0,0,0,1128,1129,1176,1177,1178,1179,0,0,0,1322,1323,0,0,1322,1323,0,0,0,0,0,0,0,0,0,0,0,1176,1177,1178,1179,0,0,0,0,0,0,0,0,0,1176,1177,1178,1179,0,0,1172,1173,1174,1175,0,0,1124,1125,0,0,0,1124,1125,1322,1323,0,1322,1323,0,
0,0,0,0,1126,1127,1322,1323,1322,1323,0,0,0,0,0,0,0,0,1172,1173,1174,1175,0,0,0,0,0,0,0,0,1128,1129,0,0,1322,1323,0,0,0,0,0,0,0,0,0,0,0,0,0,0,0,0,1172,1173,1174,1175,0,0,0,0,0,0,0,0,0,0,0,0,0,0,1172,1173,1174,1175,0,0,0,0,0,0,0,0,0,0,1172,1173,1174,1175,0,0,0,0,0,0,0,0,0,0,0,0,0,0,0,0,0,0,0,1124,1125,0,0,0,0,0,0,0,0,0,1124,1125,0,0,1126,1127,0,1124,1125,0,
1124,1125,1124,1125,1124,1125,1322,1323,1124,1125,0,0,0,0,0,0,0,0,0,0,0,0,0,0,0,0,0,0,0,0,0,0,0,0,0,0,0,0,0,0,0,0,0,0,0,0,0,0,0,0,0,0,0,0,0,0,0,0,0,0,0,0,0,0,0,0,0,0,0,0,0,0,0,0,0,0,0,0,0,0,0,0,0,0,0,0,0,0,0,0,0,0,0,0,0,0,0,0,0,0,0,0,1126,1127,0,0,0,0,0,0,0,0,0,1128,1129,0,1128,1129,1176,1177,1178,1179,1128,1129,0,1128,1129,0,
1172,1173,1174,1175,1172,1173,1174,1175,1176,1177,1178,1179,0,0,0,0,0,0,0,0,0,0,0,0,0,0,0,0,0,0,0,0,0,0,0,0,0,0,0,0,0,0,0,0,0,2007,2008,0,0,0,0,0,0,0,0,0,0,1556,1557,1558,1559,1560,1561,0,0,0,0,0,0,0,0,0,0,0,0,0,0,0,0,0,0,0,0,0,0,0,0,0,0,0,0,0,0,0,0,0,0,0,0,0,0,0,0,0,0,0,0,0,0,0,0,0,0,0,1176,1177,1178,1179,0,0,0,0,1322,1323,0,1126,1127,0,
0,0,0,0,0,0,0,0,0,0,0,0,1126,1127,0,0,0,0,0,0,0,0,0,0,0,0,0,0,0,0,0,0,0,0,0,0,0,0,0,0,0,0,0,0,0,0,0,0,0,0,0,0,0,0,0,0,0,0,0,0,0,0,0,0,0,0,0,0,0,0,0,0,0,0,0,0,0,0,0,0,0,0,0,0,0,0,0,0,0,0,0,0,0,0,0,0,0,0,0,0,0,0,0,0,0,0,0,0,0,0,0,0,0,0,0,0,0,0,1172,1173,1174,1175,1126,1127,0,1128,1129,0,
1172,1173,1174,1175,0,1176,1177,1178,1179,0,1322,1323,0,0,0,0,0,0,0,0,0,0,0,0,0,0,0,0,0,0,0,0,0,0,0,0,0,0,0,0,0,0,0,0,0,0,0,0,0,0,0,0,0,0,0,0,0,0,0,0,0,0,0,0,0,0,0,0,0,0,0,0,0,0,0,0,0,0,0,0,0,0,0,0,0,0,0,0,0,0,0,0,0,0,0,0,0,0,0,0,0,0,0,0,0,0,0,0,0,0,0,0,0,0,0,1124,1125,0,0,0,0,0,0,1124,1125,1322,1323,0,
0,0,0,0,0,0,0,0,0,1176,1177,1178,1179,0,1126,1127,0,0,0,0,0,0,0,0,0,0,0,0,0,0,0,0,0,0,0,0,0,0,0,0,0,0,0,0,0,0,0,0,0,0,0,0,0,0,0,0,0,0,0,0,0,0,0,0,0,0,0,0,0,0,0,0,0,0,0,0,0,0,0,0,0,0,0,0,0,0,0,0,0,0,0,0,0,0,0,0,0,0,0,0,0,0,0,0,0,0,0,0,0,0,0,0,1124,1125,0,0,0,1126,1127,0,0,0,0,1128,1129,1124,1125,0,
1176,1177,1178,1179,1176,1177,1178,1179,0,0,0,0,0,1126,1127,0,0,0,0,0,0,0,0,0,0,0,0,0,0,0,0,0,0,0,0,0,0,0,0,0,0,0,0,0,0,0,0,0,0,0,0,0,0,0,0,0,0,0,0,0,0,0,0,0,0,0,0,0,0,0,0,0,0,0,0,0,0,2007,2008,0,0,0,0,0,0,2274,2275,2276,0,1859,1860,1861,0,0,0,0,2007,2008,0,0,0,0,0,0,0,0,0,0,0,0,0,0,0,1128,1129,0,0,0,0,0,0,1172,1173,1174,1175,1124,1125,0,
0,0,0,0,0,0,0,0,1128,1129,1176,1177,1178,1179,0,0,0,0,0,0,0,0,0,0,0,0,0,0,0,0,0,0,0,0,0,2007,2008,0,0,0,0,0,0,0,0,0,0,0,0,0,0,0,0,0,0,0,0,0,0,0,0,0,0,0,0,0,0,0,0,0,0,0,0,0,0,0,0,0,0,0,0,0,0,0,0,0,0,0,0,0,0,0,0,0,0,0,0,0,0,0,0,0,0,0,0,0,0,0,0,0,0,0,0,1128,1129,0,0,0,0,0,0,0,0,0,0,1124,1125,0,
1322,1323,1128,1129,0,1322,1323,1322,1323,0,0,0,0,0,0,0,0,0,0,0,0,0,0,0,0,0,0,0,0,0,0,0,0,0,0,0,0,0,0,0,0,0,0,0,0,0,0,0,0,0,0,0,0,0,0,0,0,2007,2008,0,0,0,0,0,0,0,0,0,0,0,0,0,0,0,0,0,0,0,0,0,0,0,0,0,0,0,0,0,0,0,0,0,0,0,0,0,0,0,0,0,0,0,0,0,0,0,0,0,0,0,0,0,0,0,1126,1127,0,0,0,0,0,0,0,1128,1129,1322,1323,0,
1172,1173,1174,1175,0,1126,1127,1124,1125,0,1124,1125,1322,1323,0,0,0,0,0,0,0,0,0,0,0,0,0,0,0,0,0,0,2007,2008,0,0,0,0,0,0,0,0,0,0,0,0,0,0,0,0,0,0,0,0,0,0,0,0,0,0,0,0,0,0,0,0,0,0,0,0,0,0,0,0,0,0,0,0,0,0,0,0,0,0,0,0,0,0,0,0,0,0,0,0,0,0,2007,2008,0,0,0,0,0,0,0,0,0,0,0,0,0,0,0,0,0,0,0,0,0,0,0,0,0,1128,1129,1322,1323,0,
0,0,0,0,0,1322,1323,1172,1173,1174,1175,1128,1129,0,0,0,0,0,0,0,0,0,0,0,0,0,0,0,0,0,0,0,0,0,0,0,0,0,0,0,0,0,0,0,0,0,0,0,0,0,0,0,0,0,0,0,0,0,0,0,0,0,0,0,0,0,0,0,0,0,0,0,0,0,0,0,0,0,0,0,0,0,0,0,0,0,0,0,0,0,0,0,0,0,0,0,0,0,0,0,0,0,0,0,0,0,0,0,0,0,0,0,0,1322,1323,0,0,0,0,0,0,0,0,1124,1125,1322,1323,0,
1124,1125,1172,1173,1174,1175,0,0,0,0,0,0,0,0,0,0,0,0,0,0,0,0,0,0,0,0,0,0,0,0,0,0,0,0,0,0,0,0,0,0,0,0,0,0,0,0,0,0,0,0,0,0,0,0,0,0,0,0,0,0,0,0,0,0,0,0,0,0,0,0,0,0,0,0,0,0,0,0,0,0,0,0,0,0,0,0,0,0,0,0,0,0,0,0,0,0,0,0,0,0,0,0,0,0,1628,1629,1630,1631,0,0,0,0,0,0,1322,1323,0,0,0,0,0,0,0,1128,1129,1128,1129,0,
1322,1323,0,0,0,0,0,0,1322,1323,0,0,0,2007,2008,0,0,0,0,0,0,0,0,0,0,0,0,0,0,0,0,0,0,0,0,0,0,0,0,0,0,0,0,0,0,0,0,0,0,0,0,0,0,0,0,0,0,0,0,0,0,0,0,0,0,0,0,0,0,0,0,0,0,0,0,0,0,0,0,0,0,0,0,0,0,0,0,0,0,0,0,0,0,0,0,0,0,0,0,0,0,0,0,0,0,0,0,0,0,0,0,0,0,1128,1129,0,1126,1127,0,0,0,0,0,1322,1323,1322,1323,0,
1322,1323,1124,1125,1322,1323,1322,1323,1176,1177,1178,1179,0,0,0,0,0,0,0,0,0,0,0,0,0,0,0,0,0,0,0,0,0,0,0,0,0,0,0,0,0,0,0,0,0,0,0,0,0,0,0,0,0,0,0,0,0,0,0,0,0,0,0,0,0,0,0,0,0,0,0,0,0,0,0,0,0,0,0,0,0,0,0,0,0,0,0,0,0,0,0,0,0,0,0,0,0,0,0,0,0,0,0,0,0,0,0,0,0,0,0,0,0,0,0,1124,1125,0,0,0,0,0,0,0,0,1322,1323,0,
1176,1177,1178,1179,1124,1125,0,0,0,0,0,0,1128,1129,0,0,0,0,0,0,0,0,0,0,0,0,0,0,0,0,0,0,0,0,0,0,0,0,0,0,0,0,0,0,0,0,0,0,0,0,0,0,0,0,0,0,0,0,0,0,0,0,0,0,0,0,0,0,0,0,0,0,0,0,0,0,0,0,0,0,0,0,0,0,0,0,0,0,0,0,0,0,0,0,0,0,0,0,0,0,0,0,0,0,0,0,0,0,0,0,0,0,0,1126,1127,0,0,0,0,0,0,0,0,1126,1127,1124,1125,0,
0,0,0,0,1176,1177,1178,1179,0,1172,1173,1174,1175,0,0,0,0,0,0,0,0,0,0,0,0,0,0,0,0,0,0,0,0,0,0,0,0,0,0,0,0,0,0,0,0,0,0,0,0,0,0,0,0,0,0,0,0,0,0,0,0,0,0,0,0,0,0,0,0,0,0,0,0,0,0,0,0,0,0,0,0,0,0,0,0,0,0,0,0,0,0,0,0,0,0,0,0,0,0,0,0,0,0,0,0,0,0,0,0,0,0,0,0,1176,1177,1178,1179,0,0,0,0,0,0,1128,1129,1128,1129,0,
1322,1323,1128,1129,0,0,0,0,0,0,0,0,0,0,0,0,0,0,0,0,0,0,0,0,0,0,0,0,0,0,0,0,0,0,0,0,0,0,0,0,0,0,0,0,0,0,0,0,0,0,0,0,0,0,0,0,0,0,0,0,0,0,0,0,0,0,0,0,0,0,0,0,0,0,0,0,0,0,0,0,0,0,0,0,0,0,0,0,0,0,0,0,0,0,0,0,0,0,0,0,0,0,0,0,0,0,0,0,0,0,0,0,0,0,0,0,0,0,0,0,0,0,0,1128,1129,1126,1127,0,
1176,1177,1178,1179,1124,1125,0,1124,1125,1124,1125,1176,1177,1178,1179,0,0,0,0,0,0,0,0,0,0,0,0,0,0,0,0,0,0,0,0,0,0,0,0,0,0,0,0,0,0,0,0,0,0,0,0,0,0,0,0,0,0,0,0,0,0,0,0,0,0,0,0,0,0,0,0,0,0,0,0,0,0,0,0,0,0,0,0,0,0,0,0,0,0,0,0,0,0,0,0,0,0,0,0,0,0,0,0,0,0,0,0,0,0,0,0,0,0,0,0,1176,1177,1178,1179,0,0,0,0,0,0,1322,1323,0,
0,0,0,0,1124,1125,1322,1323,1128,1129,0,0,0,0,0,0,0,0,0,0,0,0,0,0,0,0,0,0,0,0,0,0,0,0,0,0,0,0,0,0,0,0,0,0,0,0,0,0,0,0,0,0,0,0,0,0,0,0,0,0,0,0,0,0,0,0,0,0,0,0,0,0,0,0,0,0,0,0,0,0,0,0,0,0,0,0,0,0,0,0,0,0,0,0,0,0,0,0,0,0,0,0,0,0,0,0,0,0,2274,2275,2276,0,0,0,0,0,0,0,0,1322,1323,0,1128,1129,0,1124,1125,0,
1322,1323,1176,1177,1178,1179,0,0,1124,1125,0,0,0,0,0,0,0,0,0,0,0,0,0,0,0,0,0,0,0,0,0,0,0,0,0,0,0,0,0,0,0,0,0,0,0,0,0,0,0,0,0,0,0,0,0,0,0,0,0,0,0,0,0,0,0,0,1559,1560,1561,0,0,0,0,0,0,0,0,0,0,0,0,0,0,0,0,0,0,0,0,0,0,0,0,0,0,0,0,0,0,0,0,0,0,0,0,0,0,0,0,0,0,1172,1173,1174,1175,0,1126,1127,1126,1127,0,1322,1323,1126,1127,1126,1127,0,
1322,1323,0,0,0,0,0,0,0,0,0,0,0,0,0,0,0,0,0,0,0,0,0,0,0,0,0,0,0,0,0,0,0,0,0,0,0,0,0,0,0,0,0,0,0,0,0,0,0,0,0,0,0,0,0,0,0,0,0,0,0,0,0,0,0,0,0,0,0,0,0,0,0,0,0,0,0,0,0,0,0,0,0,0,0,0,0,0,0,0,0,0,0,0,0,0,0,0,0,0,0,0,0,0,0,0,0,0,0,0,0,0,0,0,0,0,1126,1127,0,0,1128,1129,0,1124,1125,1124,1125,0,
1322,1323,1322,1323,1126,1127,0,0,0,0,0,0,0,0,0,0,0,0,0,0,0,0,0,0,0,0,0,0,0,0,0,0,0,0,0,0,0,0,0,0,0,0,0,0,0,0,0,0,0,0,0,0,0,0,0,0,0,0,0,0,0,0,0,0,0,0,0,0,0,0,0,0,0,0,0,0,0,0,0,0,0,0,0,0,0,0,0,0,0,0,0,0,0,0,0,0,0,0,0,0,0,0,0,0,0,0,0,0,0,0,0,0,0,1124,1125,1128,1129,0,1322,1323,1322,1323,0,1126,1127,1322,1323,0,
1172,1173,1174,1175,1124,1125,0,0,0,0,0,0,0,0,0,0,0,0,0,0,0,0,0,0,0,0,0,0,0,0,0,0,0,0,0,0,0,0,0,0,0,0,0,0,0,0,0,0,0,0,0,0,0,0,0,0,0,0,0,0,0,0,0,0,0,0,0,0,0,0,0,0,0,0,0,0,0,0,0,0,0,0,0,0,0,0,0,0,0,0,0,0,0,0,0,0,0,0,0,0,0,0,0,0,0,0,0,0,0,0,0,0,0,0,0,0,0,0,1126,1127,0,1128,1129,1126,1127,1124,1125,0,
0,0,0,0,1124,1125,0,0,0,0,0,0,0,0,0,0,0,0,0,0,0,0,0,0,0,0,0,0,0,0,0,0,0,0,0,0,0,0,0,0,0,0,0,0,0,0,0,0,0,0,0,0,0,0,0,0,0,0,0,0,0,0,0,0,0,0,0,0,0,0,0,0,0,0,0,0,0,0,0,0,0,0,0,0,0,0,0,0,0,0,0,0,0,0,0,0,0,0,0,0,0,0,0,0,0,0,0,0,0,0,0,0,0,0,0,1126,1127,1126,1127,1322,1323,0,1124,1125,0,1126,1127,0,
1124,1125,1124,1125,1322,1323,0,0,0,0,0,0,0,0,0,0,0,0,0,0,0,0,0,0,0,0,0,0,0,0,0,0,0,0,0,0,0,0,0,0,0,0,0,0,0,0,0,0,0,0,0,0,0,0,0,0,0,0,0,0,0,0,0,0,0,0,1562,1563,1564,0,0,0,0,0,0,0,0,0,0,0,0,0,0,0,0,0,2115,2116,2117,2118,0,0,0,0,0,0,0,0,0,0,0,0,0,0,0,0,0,0,0,0,0,0,0,0,0,1322,1323,0,1322,1323,1172,1173,1174,1175,0,1322,1323,0,
1124,1125,1176,1177,1178,1179,0,0,0,0,0,0,0,0,0,0,0,0,0,0,0,0,0,0,0,0,0,0,0,0,0,0,0,0,0,0,0,0,0,0,0,0,0,0,0,0,0,0,0,0,0,0,0,0,0,0,0,0,0,0,0,0,0,0,0,0,0,0,0,0,0,0,0,0,0,0,0,0,0,0,0,0,0,0,0,0,2148,2149,2150,2151,0,0,2274,2275,2276,0,0,0,0,0,0,0,0,0,0,0,0,0,0,0,0,0,0,1124,1125,0,0,1128,1129,0,0,0,0,0,0,1128,1129,0,
1126,1127,0,0,0,0,0,0,0,0,0,0,0,0,0,0,0,0,0,0,0,0,0,0,0,0,0,0,0,0,0,0,0,0,0,0,0,0,0,0,0,0,0,0,0,0,0,0,0,0,0,0,0,0,0,0,0,0,0,0,0,0,0,0,0,0,0,0,0,0,0,0,0,0,0,0,0,0,0,0,0,0,0,0,0,0,0,0,0,0,0,0,0,0,0,0,0,0,0,0,0,0,0,0,0,0,0,0,0,0,0,0,0,0,0,0,1124,1125,1172,1173,1174,1175,1322,1323,0,1322,1323,0,
1172,1173,1174,1175,0,0,0,0,0,0,0,1126,1127,0,0,0,0,0,0,0,0,0,0,0,0,0,0,0,0,0,0,0,0,0,0,0,0,0,0,0,0,0,0,0,0,0,0,0,0,0,0,2107,0,0,0,0,0,0,0,0,0,0,0,0,0,0,0,0,0,0,0,0,0,0,0,0,0,0,0,0,0,0,0,0,0,0,0,0,0,0,0,0,0,0,0,0,0,0,0,0,0,0,0,0,0,0,0,0,0,0,0,0,1126,1127,0,0,0,0,0,0,0,0,0,1126,1127,1128,1129,0,
0,0,0,0,0,0,0,0,1172,1173,1174,1175,0,0,0,0,0,0,0,0,0,0,0,0,0,0,0,0,0,0,0,0,0,0,0,0,0,0,0,0,0,0,0,0,0,0,0,0,0,0,0,0,0,0,0,0,0,0,0,0,0,0,0,0,0,0,0,0,0,0,0,0,0,0,0,0,0,0,0,0,0,0,0,0,0,0,0,0,0,0,0,0,0,0,0,0,0,0,0,0,0,0,0,0,0,0,0,0,0,0,0,0,0,0,0,0,0,0,1176,1177,1178,1179,1128,1129,0,1128,1129,0,
1322,1323,1176,1177,1178,1179,0,0,0,0,0,0,1124,1125,0,0,0,0,0,0,0,0,0,0,0,0,0,0,0,0,0,0,0,0,0,0,0,0,0,0,0,0,0,0,0,0,0,0,0,0,0,0,0,0,0,0,0,0,0,0,0,0,0,0,0,0,0,0,0,0,0,0,0,0,0,0,0,0,0,0,0,0,0,0,0,0,0,0,0,0,0,0,0,0,0,0,0,0,0,0,0,0,0,0,0,0,0,0,0,0,0,0,0,1322,1323,1128,1129,0,0,0,0,0,1322,1323,0,1322,1323,0,
1322,1323,0,0,0,0,1124,1125,0,1172,1173,1174,1175,0,0,0,0,0,0,0,0,0,0,0,0,0,0,0,0,0,0,0,0,0,0,0,0,0,0,0,0,0,0,0,0,0,0,0,0,0,0,0,0,0,0,0,0,0,0,0,0,0,0,0,0,0,0,0,0,0,0,0,0,0,0,0,0,0,0,0,0,0,0,0,0,0,0,0,0,0,0,0,0,0,0,0,0,0,0,0,0,0,0,0,0,0,0,0,0,0,0,0,0,0,0,1176,1177,1178,1179,1128,1129,1172,1173,1174,1175,1126,1127,0,
1128,1129,1322,1323,1128,1129,0,0,0,0,0,0,0,0,0,0,0,0,0,0,0,0,0,0,0,0,0,0,0,0,0,0,0,0,0,0,0,0,0,0,0,0,0,0,0,0,0,0,0,0,0,0,0,0,0,0,0,0,0,0,0,0,0,0,0,0,0,0,0,0,0,0,0,0,0,0,0,0,0,0,0,0,0,0,0,0,0,0,0,0,0,0,0,0,0,0,0,0,0,0,0,0,0,1789,1790,1791,0,0,0,0,0,0,0,0,0,0,0,0,0,1124,1125,0,0,0,0,1322,1323,0,
1172,1173,1174,1175,1172,1173,1174,1175,1322,1323,0,1172,1173,1174,1175,0,0,0,0,0,0,0,0,0,0,0,0,0,0,0,0,0,0,0,0,0,0,0,0,0,0,0,0,0,0,0,0,0,0,0,0,0,0,0,0,0,0,0,0,0,0,0,0,0,0,0,0,0,0,0,0,0,0,0,0,0,0,0,0,0,0,0,0,0,0,0,0,0,0,0,0,0,0,2410,0,0,0,0,0,0,0,0,0,1822,1823,1824,0,0,0,0,0,0,0,1124,1125,1124,1125,1126,1127,1126,1127,1322,1323,1128,1129,1124,1125,0,
0,0,0,0,0,0,0,0,1126,1127,0,0,0,0,0,0,0,0,0,0,0,0,0,0,0,0,0,0,0,0,0,0,0,0,0,0,0,0,0,0,0,0,0,0,0,0,0,0,1628,1629,1630,1631,0,0,0,0,0,0,0,0,0,0,0,0,0,0,0,0,0,0,0,0,0,0,0,0,0,0,0,0,0,0,0,0,0,0,0,0,0,0,0,0,0,0,0,0,0,0,0,0,0,0,0,0,0,0,0,0,0,0,0,0,0,0,0,1124,1125,1124,1125,1128,1129,1176,1177,1178,1179,1322,1323,0,
1176,1177,1178,1179,1322,1323,1128,1129,1128,1129,1126,1127,0,1172,1173,1174,1175,0,0,0,0,0,0,0,0,0,0,0,0,0,0,0,0,0,0,0,0,0,0,0,0,0,0,0,0,0,0,0,0,0,0,0,0,0,0,0,0,0,0,0,0,0,0,0,0,0,0,0,0,0,0,0,0,0,0,0,0,0,0,0,0,0,0,0,0,0,0,0,0,0,0,0,0,0,0,0,0,0,0,0,0,0,0,0,0,0,0,0,0,0,0,0,0,0,0,1128,1129,0,0,1128,1129,0,0,0,0,1124,1125,0,
0,0,0,0,0,1172,1173,1174,1175,0,0,1126,1127,0,0,0,0,0,0,0,0,0,0,0,0,0,0,0,0,0,0,0,0,0,0,0,0,0,0,0,0,0,0,0,0,0,0,0,0,0,0,0,0,0,0,0,0,0,0,0,0,0,0,0,0,0,0,0,0,0,0,0,1559,1560,1561,0,0,0,0,0,0,0,0,0,0,0,0,0,0,0,0,0,0,0,0,0,0,0,0,0,0,0,0,0,0,0,0,0,0,0,0,0,0,0,0,1124,1125,1128,1129,0,0,0,1124,1125,0,1128,1129,0,
1172,1173,1174,1175,0,0,0,0,0,0,1322,1323,0,1176,1177,1178,1179,0,0,0,0,0,0,0,0,0,0,0,0,0,0,0,0,0,0,0,0,0,0,0,0,0,0,0,0,0,0,0,0,0,0,0,0,0,0,0,0,0,0,0,0,0,0,0,0,0,0,0,0,0,0,0,0,0,0,0,0,0,0,0,0,0,0,0,0,0,0,0,0,0,0,0,0,0,0,0,0,0,0,0,0,0,0,0,0,0,0,0,0,0,0,0,0,0,0,1176,1177,1178,1179,0,0,0,1124,1125,0,1126,1127,0,
0,0,0,0,1322,1323,1124,1125,1124,1125,1126,1127,0,0,0,0,0,0,0,0,0,0,0,0,0,0,0,0,0,0,0,0,0,0,0,0,0,0,0,0,0,0,0,0,0,0,0,0,0,0,0,0,0,0,0,0,0,0,0,0,2274,2275,2276,0,0,0,0,0,0,0,0,0,0,0,0,0,0,0,0,0,0,0,0,0,0,0,0,0,0,0,0,0,0,0,0,0,0,0,0,0,0,0,0,0,0,0,0,0,0,0,0,0,0,0,0,0,0,0,0,0,0,0,0,0,0,1128,1129,0,
1128,1129,1126,1127,1322,1323,1176,1177,1178,1179,1322,1323,0,0,0,0,0,0,0,0,0,0,0,0,0,0,0,0,0,0,0,0,0,0,0,0,0,0,0,0,0,0,0,0,0,0,0,0,0,0,0,0,0,0,0,0,0,0,0,0,0,0,0,0,0,0,0,0,0,0,0,0,0,0,0,0,0,0,0,0,0,0,0,0,0,0,0,0,0,0,0,0,0,0,0,0,0,0,0,0,0,0,0,0,0,0,0,0,0,0,0,0,0,0,0,0,1124,1125,0,0,0,0,0,0,0,1322,1323,0,
1128,1129,1124,1125,1128,1129,0,0,0,0,0,1172,1173,1174,1175,0,0,0,0,0,0,0,0,0,0,0,0,0,0,0,0,0,0,0,0,0,0,0,0,0,0,0,0,0,0,0,0,0,0,0,0,0,0,0,0,0,0,0,0,0,0,0,0,0,0,0,0,0,0,0,0,0,0,0,0,0,0,0,0,0,0,0,0,0,0,0,0,0,0,0,0,0,0,0,0,0,0,0,0,0,0,1654,1655,1656,0,0,0,0,0,0,0,0,0,0,0,0,1128,1129,0,0,0,0,0,0,0,1322,1323,0,
1124,1125,1124,1125,1124,1125,1322,1323,1322,1323,0,0,0,0,0,0,0,0,0,0,0,0,0,0,0,0,0,0,0,0,0,0,0,0,0,0,0,0,0,0,0,0,0,0,0,0,0,0,0,0,0,0,0,0,0,0,0,0,0,0,0,0,0,0,0,0,0,0,0,0,0,0,0,0,0,0,0,0,0,0,0,0,0,0,0,0,0,0,0,0,0,0,0,0,0,0,0,0,0,0,0,0,0,0,0,0,0,0,0,0,0,0,0,0,0,1128,1129,0,0,0,0,0,0,0,0,1124,1125,0,
1124,1125,1124,1125,1322,1323,1124,1125,0,0,0,1126,1127,1124,1125,0,0,0,0,0,0,0,0,0,0,0,0,0,0,0,0,0,0,0,0,0,0,0,0,0,0,0,0,0,0,0,0,0,0,0,0,0,0,0,0,0,0,0,0,0,0,0,0,0,0,0,0,0,0,0,0,0,0,0,0,0,0,0,0,0,0,0,0,0,0,0,0,0,0,0,0,0,0,0,0,0,0,0,0,0,0,0,0,0,0,0,0,0,0,0,0,0,0,0,0,0,0,1126,1127,0,0,0,0,0,0,0,0,0,
1172,1173,1174,1175,1124,1125,0,0,0,0,0,0,1126,1127,0,0,0,0,0,0,0,0,0,0,0,0,0,0,0,0,0,0,0,0,0,0,0,0,0,0,0,0,0,0,0,0,0,0,0,0,0,0,0,0,0,0,0,0,0,0,0,0,0,0,0,0,0,0,0,0,0,0,0,0,0,0,0,0,0,0,0,0,0,0,0,0,0,0,0,0,0,0,0,0,0,0,0,0,0,0,0,0,0,0,0,0,0,0,0,0,0,0,0,0,0,0,0,1126,1127,0,1126,1127,0,0,0,0,0,0,
0,0,0,0,0,0,0,0,0,0,0,0,0,0,0,0,0,0,0,0,0,0,0,0,0,0,0,0,0,0,0,0,0,0,0,0,0,0,0,0,0,0,0,0,0,0,0,0,0,0,0,0,0,0,0,0,0,0,0,0,0,0,0,0,0,0,0,0,0,0,0,0,0,0,0,0,0,0,0,0,0,0,0,0,0,0,0,0,0,0,0,0,0,0,0,0,0,0,0,0,0,0,0,0,0,0,0,0,0,0,0,0,0,0,0,1126,1127,0,1126,1127,0,0,0,0,0,0,0,0,
1126,1127,0,0,0,0,0,0,0,0,0,0,0,0,0,0,0,0,0,0,0,0,0,0,0,0,0,0,0,0,0,0,0,0,0,0,0,0,0,0,0,0,0,0,0,0,0,0,0,0,0,0,0,0,0,0,0,0,0,0,0,0,0,0,0,0,0,0,0,0,0,0,0,0,0,0,0,0,0,0,0,0,0,0,0,0,0,0,0,0,0,0,0,0,0,0,0,0,0,0,0,0,0,0,0,0,0,0,0,0,0,0,0,0,0,0,0,0,0,0,0,0,0,0,0,0,0,0,
0,0,0,0,0,0,0,0,0,0,0,0,0,0,0,0,0,0,0,0,0,0,0,0,0,0,0,0,0,0,0,0,0,0,0,0,0,0,0,0,0,0,0,0,0,0,0,0,0,0,0,0,0,0,0,0,0,0,0,0,0,0,0,0,0,0,0,0,0,0,0,0,0,0,0,0,0,0,0,0,0,0,0,0,0,0,0,0,0,0,0,0,0,0,0,0,0,0,0,0,0,0,0,0,0,0,0,0,0,0,0,0,0,0,0,0,0,0,0,0,0,0,0,0,0,0,0,0,
0,0,0,0,0,0,0,0,0,0,0,0,0,0,0,0,0,0,0,0,0,0,0,0,0,0,0,0,0,0,0,0,0,0,0,0,0,0,0,0,0,0,0,0,0,0,0,0,0,0,0,0,0,0,0,0,0,0,0,0,0,0,0,0,0,0,0,0,0,0,0,0,0,0,0,0,0,0,0,0,0,0,0,0,0,0,0,0,0,0,0,0,0,0,0,0,0,0,0,0,0,0,0,0,0,0,0,0,0,0,0,0,0,0,0,0,0,0,0,0,0,0,0,0,0,0,0,0,
0,0,0,0,0,0,0,0,0,0,0,0,0,0,0,0,0,0,0,0,0,0,0,0,0,0,0,0,0,0,0,0,0,0,0,0,0,0,0,0,0,0,0,0,0,0,0,0,0,0,0,0,0,0,0,0,0,0,0,0,0,0,0,0,0,0,0,0,0,0,0,0,0,0,0,0,0,0,0,0,0,0,0,0,0,0,0,0,0,0,0,0,0,0,0,0,0,0,0,0,0,0,0,0,0,0,0,0,0,0,0,0,0,0,0,0,0,0,0,0,0,0,0,0,0,1124,1125,0,
0,0,0,0,0,0,0,0,0,0,0,0,0,0,0,0,0,0,0,0,0,0,0,0,0,0,0,0,0,0,0,0,0,0,0,0,0,0,0,0,0,0,0,0,0,0,0,0,0,0,0,0,0,0,0,0,0,0,0,0,0,0,0,0,0,0,0,0,0,0,0,0,0,0,0,0,0,0,0,0,0,0,0,0,0,0,0,0,0,0,0,0,0,0,0,0,0,0,0,0,0,0,0,0,0,0,0,0,0,0,0,0,0,0,0,0,0,0,0,0,0,0,0,0,0,1126,1127,0,
0,0,0,0,0,0,0,1176,1177,1178,1179,1322,1323,0,0,0,0,0,0,0,0,0,0,0,0,0,0,0,0,0,0,0,0,0,0,0,0,0,0,0,0,0,0,0,0,0,0,0,0,0,0,0,0,0,0,0,0,0,0,0,0,0,0,0,0,0,0,0,0,0,0,0,0,0,0,0,0,0,0,0,0,0,0,0,0,0,0,0,0,0,0,0,0,0,0,0,0,0,0,0,0,0,0,0,0,0,0,0,0,0,0,0,0,0,0,0,0,0,0,0,0,1176,1177,1178,1179,1128,1129,0,
0,0,0,0,1128,1129,0,0,0,0,0,1126,1127,0,0,0,0,0,0,0,0,0,0,0,0,0,0,0,0,0,0,0,0,0,0,0,0,0,0,0,0,0,0,0,0,0,0,0,0,0,0,0,0,0,0,0,0,0,0,0,0,0,0,0,0,0,0,0,0,0,0,0,0,0,0,0,0,0,0,0,0,0,0,0,1628,1629,1630,1631,0,0,0,0,0,0,0,0,0,0,0,0,0,0,0,0,0,0,0,0,0,0,0,0,0,0,0,0,0,0,0,1126,1127,0,0,0,0,1124,1125,0,
0,0,0,0,1322,1323,1172,1173,1174,1175,1322,1323,1124,1125,0,0,0,0,0,0,0,0,0,0,0,0,0,0,0,0,0,0,0,0,0,0,0,0,0,0,0,0,0,0,0,0,0,0,0,0,0,0,0,0,0,0,0,0,0,0,0,0,0,0,0,0,0,0,0,0,0,0,0,0,0,0,0,0,0,0,0,0,0,0,0,0,0,0,0,0,0,0,0,0,0,0,0,0,0,0,0,0,0,0,0,0,0,0,0,0,0,0,0,0,0,1126,1127,1124,1125,1172,1173,1174,1175,0,0,1126,1127,0,
0,0,0,1124,1125,0,0,0,0,0,1124,1125,0,0,0,0,0,0,0,0,0,0,0,0,0,0,0,0,0,0,0,0,0,0,0,0,0,0,0,0,0,0,0,0,0,0,0,0,0,0,0,0,0,0,0,0,0,0,0,0,0,0,0,0,0,0,0,0,0,0,0,2007,2008,0,0,0,0,0,0,0,0,0,0,0,0,0,0,0,0,0,0,0,0,0,0,0,0,0,0,0,0,0,0,0,0,0,0,0,0,0,0,0,1176,1177,1178,1179,0,0,0,0,0,0,0,0,0,1126,1127,0,
1126,1127,1124,1125,0,1128,1129,0,1322,1323,0,0,0,0,0,0,0,0,0,0,0,0,0,0,0,0,0,0,0,0,0,0,0,0,0,0,0,0,0,0,0,0,0,0,0,0,0,0,0,0,0,0,0,0,0,0,0,0,0,0,0,0,0,0,0,0,0,1651,1652,1653,0,0,0,0,0,0,0,0,0,0,0,0,0,0,0,0,0,0,0,0,0,0,0,0,0,1632,1633,1634,1635,0,0,0,0,0,0,0,0,0,0,0,0,0,0,0,0,0,1124,1125,0,0,0,0,0,0,0,1126,1127,0,
1124,1125,1128,1129,0,1172,1173,1174,1175,1124,1125,0,0,0,0,0,0,0,0,0,0,0,0,0,0,0,0,0,0,0,0,0,0,0,0,0,0,0,0,0,0,0,0,0,0,0,0,0,0,0,0,0,0,0,0,0,0,0,0,0,0,0,0,0,0,0,0,0,0,0,0,0,0,0,0,0,0,0,0,0,0,0,0,0,0,0,0,0,0,0,0,0,0,0,0,0,0,0,0,0,0,0,0,0,0,0,0,0,0,0,0,0,0,0,0,1126,1127,0,0,0,0,0,0,0,0,1126,1127,0,
1176,1177,1178,1179,0,0,0,0,0,1124,1125,0,0,0,0,0,0,0,0,0,0,0,0,0,0,0,0,0,0,0,0,0,0,0,0,0,0,0,0,0,0,0,0,0,0,0,0,0,0,0,0,0,0,0,0,0,0,0,0,0,0,0,0,0,0,0,0,0,0,0,0,0,0,0,0,0,0,0,0,0,0,0,0,0,0,0,0,0,0,0,0,0,0,0,0,0,0,0,0,0,0,0,0,0,0,0,0,0,0,0,0,0,0,0,0,0,0,0,0,0,0,0,0,0,0,1124,1125,0,
0,0,0,0,0,1128,1129,1322,1323,1322,1323,1128,1129,0,0,1556,1557,1558,0,0,0,0,0,0,0,0,0,0,0,2007,2008,0,0,0,0,0,0,0,0,0,0,0,0,0,0,0,0,0,0,0,0,0,0,0,0,0,0,0,0,0,0,0,0,0,0,0,0,0,0,0,0,0,0,0,0,0,0,0,0,0,0,0,0,0,0,0,0,0,0,0,0,0,0,0,0,0,0,0,0,0,0,0,0,0,0,0,0,0,0,1628,1629,1630,1631,0,0,0,0,0,0,0,0,0,0,0,0,1128,1129,0,
1124,1125,1176,1177,1178,1179,1124,1125,0,1124,1125,1322,1323,0,0,0,0,0,0,0,0,0,0,0,0,0,0,0,0,0,0,0,0,0,0,0,0,0,0,0,0,0,0,0,0,0,0,0,0,0,0,0,0,0,0,0,0,0,0,0,0,0,0,0,0,0,0,0,0,0,0,0,0,0,0,0,0,0,0,0,0,0,0,0,0,0,0,0,0,0,0,0,0,0,0,0,0,0,0,0,0,0,0,0,0,0,0,0,0,0,0,0,0,0,0,0,0,0,0,0,0,0,0,0,0,1126,1127,0,
1124,1125,0,0,0,0,1128,1129,1128,1129,1172,1173,1174,1175,0,0,0,0,0,0,0,0,0,0,0,0,0,0,0,0,0,0,0,0,0,0,0,0,0,0,0,0,0,0,0,0,0,0,0,0,0,0,0,0,0,0,0,0,0,0,0,0,0,0,0,0,0,0,0,0,0,0,0,0,0,0,0,0,0,0,0,0,0,0,0,0,0,0,0,0,0,0,0,0,0,0,0,0,0,0,0,0,0,0,0,0,0,0,0,0,0,0,0,0,0,0,0,0,0,0,1559,1560,1561,0,0,1126,1127,0,
1176,1177,1178,1179,1176,1177,1178,1179,1124,1125,0,0,0,0,0,0,0,0,0,0,0,0,0,0,0,0,0,0,0,0,0,0,0,0,0,0,0,0,0,0,0,0,0,0,1559,1560,1561,0,0,0,0,0,0,0,0,0,0,0,0,0,0,0,0,0,0,0,0,0,0,0,0,0,0,0,0,0,0,0,0,0,0,0,0,0,0,0,0,0,0,0,0,0,0,0,0,0,0,0,0,0,0,0,0,0,0,0,0,0,0,0,0,0,0,0,0,0,0,0,0,0,0,0,0,0,0,1322,1323,0,
0,0,0,0,0,0,0,0,1128,1129,1128,1129,1126,1127,0,0,0,0,0,0,0,0,0,0,0,0,0,0,0,0,0,0,0,0,0,0,0,0,0,0,0,0,0,0,0,0,0,0,0,0,0,0,0,0,0,0,0,0,0,0,0,0,0,0,0,0,0,0,0,0,0,0,0,0,0,0,0,0,0,0,0,0,0,0,0,0,0,0,0,0,0,0,0,0,0,0,0,0,0,0,0,0,0,0,0,0,0,0,0,0,0,0,0,0,0,0,0,0,0,0,0,0,0,0,0,1126,1127,0,
1322,1323,1128,1129,1128,1129,1176,1177,1178,1179,0,0,0,0,0,0,0,0,0,0,0,0,0,0,0,0,0,0,0,0,0,0,0,0,0,0,0,0,0,0,0,0,0,0,0,0,0,0,0,0,0,0,0,0,0,0,0,0,0,0,0,0,1654,1655,1656,0,0,0,0,0,0,0,0,0,0,0,0,0,0,0,0,0,0,0,0,0,0,0,0,0,0,0,0,0,0,0,0,0,0,0,0,0,0,0,0,0,0,0,0,0,0,0,0,0,1124,1125,0,0,0,0,0,0,0,0,0,1322,1323,0,
1126,1127,1322,1323,0,0,0,0,0,0,1126,1127,0,1126,1127,0,0,0,0,0,0,0,0,0,0,0,0,0,0,0,0,0,0,0,0,0,0,2107,0,0,0,0,0,0,0,0,0,0,0,0,0,0,0,0,0,0,0,0,0,0,0,0,0,0,0,0,0,0,0,0,0,0,0,0,0,0,0,0,0,0,0,0,0,0,0,0,0,0,0,0,0,0,0,0,0,0,0,0,0,0,0,0,0,0,0,0,0,0,0,0,0,0,0,0,1322,1323,0,0,0,0,0,0,0,0,0,1322,1323,0,
1176,1177,1178,1179,1128,1129,1322,1323,1322,1323,0,1126,1127,0,0,0,0,0,0,0,0,0,1859,1860,1861,0,0,0,0,0,0,0,0,0,0,0,0,0,0,0,0,0,0,0,0,0,0,0,0,0,0,0,0,0,0,0,0,0,0,0,0,0,0,0,0,0,0,0,0,0,0,0,0,0,0,0,0,0,0,0,0,0,0,0,0,0,0,0,0,0,0,0,0,0,0,0,0,0,0,0,0,0,0,0,0,0,0,0,0,0,0,0,0,0,0,0,1126,1127,0,0,0,0,0,0,0,1322,1323,0,
0,0,0,0,1176,1177,1178,1179,0,1128,1129,0,0,1126,1127,0,0,0,0,0,0,0,0,0,0,0,0,0,0,0,0,0,0,0,0,0,0,0,0,0,0,0,0,0,0,0,0,0,0,0,0,0,0,0,0,0,0,0,0,0,0,0,0,0,0,0,0,0,0,0,0,0,0,0,0,0,0,0,0,0,0,0,0,0,0,0,0,0,0,0,0,0,0,0,0,0,0,0,0,0,0,0,2007,2008,0,0,0,0,0,0,0,0,0,0,1126,1127,0,0,0,0,0,0,0,0,0,1126,1127,0,
1322,1323,1128,1129,0,0,0,0,0,1126,1127,0,0,0,1126,1127,0,0,0,0,0,0,0,0,0,0,0,0,0,0,0,0,0,0,0,0,0,0,0,0,0,0,0,0,0,0,0,0,0,0,0,0,0,0,0,0,0,0,0,0,0,0,0,0,0,0,0,0,0,0,0,0,0,0,0,0,0,0,0,0,0,0,0,0,0,0,0,0,0,0,0,0,0,0,0,0,0,0,0,0,0,0,0,0,0,0,0,0,0,0,0,0,0,0,0,0,0,0,0,0,0,0,0,1124,1125,1124,1125,0,
1322,1323,1128,1129,0,1172,1173,1174,1175,1128,1129,0,0,0,0,0,0,0,0,0,0,0,0,0,0,0,0,0,0,0,0,0,0,0,0,0,0,0,0,0,0,0,0,0,0,0,0,0,0,0,0,0,0,0,0,0,0,0,0,0,0,0,0,0,0,0,0,0,0,0,0,0,0,0,0,0,0,0,0,0,0,0,0,0,0,0,0,0,0,0,0,0,0,0,0,0,0,0,0,0,0,0,0,0,0,0,0,0,0,0,0,0,0,0,0,0,0,0,0,0,0,0,0,0,0,1126,1127,0,
1176,1177,1178,1179,0,0,0,0,0,1322,1323,1172,1173,1174,1175,0,0,0,1172,1173,1174,1175,0,0,0,0,0,0,1124,1125,0,0,0,0,0,0,1124,1125,0,0,0,0,0,0,0,0,0,0,0,1322,1323,0,0,0,1322,1323,0,0,1176,1177,1178,1179,0,0,0,0,0,0,0,0,0,0,0,1124,1125,0,0,0,0,0,0,0,0,0,0,1124,1125,0,0,0,0,0,0,0,1126,1127,0,0,0,0,1126,1127,1176,1177,1178,1179,0,0,1172,1173,1174,1175,0,1126,1127,1322,1323,0,0,0,0,0,0,1128,1129,1322,1323,0,
0,0,0,0,1124,1125,0,0,1124,1125,0,0,0,0,0,0,0,0,0,0,0,0,0,0,1124,1125,0,0,0,0,1128,1129,0,1126,1127,0,0,0,0,0,0,0,0,0,0,0,0,0,0,0,0,1172,1173,1174,1175,0,0,0,0,0,0,0,0,1176,1177,1178,1179,1322,1323,0,1172,1173,1174,1175,0,0,0,0,0,0,0,1176,1177,1178,1179,1126,1127,0,0,1124,1125,1124,1125,0,1176,1177,1178,1179,1176,1177,1178,1179,0,0,0,0,0,0,0,0,0,0,0,1124,1125,0,0,0,0,0,0,0,0,1124,1125,1126,1127,0,
1176,1177,1178,1179,1124,1125,1176,1177,1178,1179,0,1176,1177,1178,1179,0,0,0,1124,1125,1124,1125,0,0,1172,1173,1174,1175,1126,1127,0,0,1124,1125,0,0,1176,1177,1178,1179,0,0,1322,1323,1176,1177,1178,1179,1322,1323,0,0,0,0,0,0,0,0,0,0,1124,1125,0,0,0,0,0,0,0,0,0,0,0,0,0,0,0,1124,1125,0,0,0,0,0,0,1124,1125,1322,1323,0,1126,1127,1322,1323,0,0,0,0,0,0,0,0,1126,1127,0,0,0,0,0,0,0,0,1172,1173,1174,1175,0,0,0,0,0,0,0,0,0,1128,1129,0,
0,0,0,0,1124,1125,0,0,0,0,0,0,0,0,0,0,0,1176,1177,1178,1179,0,0,0,0,0,0,0,1126,1127,1322,1323,1128,1129,0,0,0,0,0,0,1172,1173,1174,1175,0,0,0,0,1172,1173,1174,1175,1124,1125,0,0,0,1124,1125,0,0,0,0,0,1124,1125,1128,1129,0,1126,1127,1126,1127,0,1124,1125,0,0,0,1128,1129,0,1176,1177,1178,1179,0,0,1124,1125,0,0,0,1124,1125,0,1176,1177,1178,1179,0,0,1322,1323,0,0,0,0,0,0,0,0,0,0,0,0,0,0,0,0,0,0,0,0,0,1128,1129,0,
1176,1177,1178,1179,0,1124,1125,1176,1177,1178,1179,0,0,1172,1173,1174,1175,0,0,0,0,1126,1127,1322,1323,1322,1323,1124,1125,0,1128,1129,1128,1129,0,0,0,0,0,0,0,0,0,0,1172,1173,1174,1175,0,0,0,0,0,0,1128,1129,0,1128,1129,1172,1173,1174,1175,0,0,0,1322,1323,1124,1125,0,1176,1177,1178,1179,1128,1129,1322,1323,1124,1125,0,0,0,0,0,1126,1127,0,1124,1125,1172,1173,1174,1175,0,0,0,0,0,0,1124,1125,0,0,1322,1323,0,0,0,0,0,0,0,0,0,0,0,0,0,0,0,0,0,0,1124,1125,0,
0,0,0,0,1322,1323,0,0,0,0,0,1128,1129,0,0,0,0,0,1172,1173,1174,1175,1176,1177,1178,1179,0,1322,1323,1176,1177,1178,1179,1126,1127,0,0,0,0,0,1128,1129,0,0,0,0,0,0,0,0,1172,1173,1174,1175,0,0,0,0,0,0,0,0,0,0,0,0,1172,1173,1174,1175,0,0,0,0,0,0,0,1322,1323,0,1322,1323,1124,1125,1124,1125,0,0,0,1126,1127,0,0,0,0,1126,1127,0,1128,1129,1172,1173,1174,1175,0,1124,1125,0,0,0,0,1322,1323,0,0,0,0,0,0,0,0,0,0,0,0,1322,1323,0,
1322,1323,1124,1125,1128,1129,1126,1127,1322,1323,1126,1127,0,1172,1173,1174,1175,0,0,0,0,0,0,0,0,0,1126,1127,0,0,0,0,0,0,0,0,0,0,0,1126,1127,1126,1127,0,1124,1125,1172,1173,1174,1175,0,0,0,0,1124,1125,0,0,0,1124,1125,1124,1125,1128,1129,0,0,0,0,0,1128,1129,1124,1125,1126,1127,0,0,1322,1323,1176,1177,1178,1179,0,0,1172,1173,1174,1175,0,1126,1127,1172,1173,1174,1175,1128,1129,0,0,0,0,0,0,1322,1323,1172,1173,1174,1175,0,0,1128,1129,1172,1173,1174,1175,0,0,0,0,0,0,1124,1125,0,
1126,1127,1172,1173,1174,1175,1126,1127,1124,1125,1128,1129,0,0,0,0,0,1128,1129,1322,1323,1172,1173,1174,1175,0,1176,1177,1178,1179,1176,1177,1178,1179,0,0,0,0,1322,1323,0,1124,1125,0,1126,1127,0,0,0,0,0,1124,1125,0,1124,1125,1172,1173,1174,1175,0,1322,1323,1124,1125,1124,1125,1124,1125,1128,1129,1176,1177,1178,1179,0,0,0,1126,1127,0,0,0,0,1126,1127,0,0,0,0,1124,1125,0,0,0,0,0,1128,1129,0,1172,1173,1174,1175,1124,1125,0,0,0,0,0,0,1124,1125,0,0,0,0,0,0,0,0,0,0,0,1322,1323,0,
1128,1129,0,0,0,0,1126,1127,1322,1323,0,0,0,0,0,1172,1173,1174,1175,1124,1125,0,0,0,0,0,0,0,0,0,0,0,0,0,1176,1177,1178,1179,0,0,1126,1127,0,1172,1173,1174,1175,1128,1129,1124,1125,1124,1125,0,1126,1127,0,0,0,0,0,1172,1173,1174,1175,1172,1173,1174,1175,1124,1125,0,0,0,0,1322,1323,1126,1127,1172,1173,1174,1175,1176,1177,1178,1179,0,1126,1127,0,0,1128,1129,1124,1125,0,1124,1125,0,0,0,0,0,0,0,1172,1173,1174,1175,0,1124,1125,0,0,0,1176,1177,1178,1179,0,0,0,0,0,1322,1323,0,
1124,1125,1176,1177,1178,1179,1126,1127,1124,1125,0,0,0,0,0,0,0,0,0,1128,1129,1322,1323,0,1128,1129,1124,1125,0,1124,1125,1126,1127,0,0,0,0,0,0,1322,1323,1126,1127,0,0,0,0,0,1322,1323,1124,1125,1124,1125,1126,1127,1176,1177,1178,1179,0,0,0,0,0,0,0,0,0,1172,1173,1174,1175,1128,1129,0,1126,1127,0,0,0,0,0,0,0,0,0,1322,1323,0,1172,1173,1174,1175,1124,1125,0,1126,1127,1322,1323,1128,1129,0,1126,1127,0,0,0,0,1322,1323,1176,1177,1178,1179,0,0,0,0,0,0,0,0,0,1126,1127,0,
1322,1323,0,0,0,0,1126,1127,0,1124,1125,0,1128,1129,1126,1127,1172,1173,1174,1175,1124,1125,1322,1323,1176,1177,1178,1179,1176,1177,1178,1179,1126,1127,0,0,0,0,0,1176,1177,1178,1179,1124,1125,1172,1173,1174,1175,1176,1177,1178,1179,1128,1129,0,0,0,0,0,0,1322,1323,1176,1177,1178,1179,1126,1127,0,0,0,0,1176,1177,1178,1179,1172,1173,1174,1175,1126,1127,1128,1129,1128,1129,1124,1125,0,0,0,0,0,1126,1127,1126,1127,1176,1177,1178,1179,0,1172,1173,1174,1175,1176,1177,1178,1179,0,0,0,0,0,0,0,1124,1125,0,0,0,0,0,1322,1323,0,
1128,1129,1126,1127,0,0,1126,1127,1172,1173,1174,1175,1126,1127,1126,1127,0,0,0,0,1176,1177,1178,1179,0,0,0,0,0,0,0,0,0,1176,1177,1178,1179,0,0,0,0,0,0,1128,1129,0,0,0,0,0,0,0,0,1124,1125,1124,1125,1128,1129,1322,1323,1126,1127,0,0,0,0,1128,1129,1172,1173,1174,1175,0,0,0,0,0,0,0,0,1172,1173,1174,1175,1128,1129,1322,1323,1128,1129,1176,1177,1178,1179,1124,1125,0,0,0,0,0,0,0,0,0,0,0,0,0,0,1322,1323,0,1176,1177,1178,1179,1172,1173,1174,1175,0,0,0,1126,1127,0,
1322,1323,1322,1323,1124,1125,1126,1127,0,0,0,0,1128,1129,1124,1125,1124,1125,1322,1323,0,0,0,0,1322,1323,0,1124,1125,1322,1323,1126,1127,0,0,0,0,0,1322,1323,1128,1129,0,0,1124,1125,0,1128,1129,1124,1125,1124,1125,1322,1323,1124,1125,1322,1323,1124,1125,1128,1129,1126,1127,1124,1125,1322,1323,0,0,0,0,1128,1129,1126,1127,0,1126,1127,0,0,0,0,0,1124,1125,1322,1323,1128,1129,0,0,0,0,1128,1129,1124,1125,1126,1127,1126,1127,1322,1323,0,1124,1125,1322,1323,1322,1323,1126,1127,0,0,0,0,0,0,0,0,1124,1125,0,1126,1127,0,
1126,1127,1176,1177,1178,1179,1322,1323,1172,1173,1174,1175,1322,1323,1176,1177,1178,1179,1128,1129,1124,1125,1172,1173,1174,1175,1124,1125,1322,1323,1128,1129,1128,1129,1172,1173,1174,1175,1322,1323,1172,1173,1174,1175,1124,1125,1124,1125,1172,1173,1174,1175,1128,1129,1128,1129,1172,1173,1174,1175,1322,1323,1126,1127,1126,1127,1126,1127,1322,1323,1124,1125,1126,1127,1322,1323,1128,1129,1124,1125,1128,1129,1124,1125,1124,1125,1322,1323,1176,1177,1178,1179,1176,1177,1178,1179,1126,1127,1126,1127,1322,1323,1322,1323,1128,1129,1176,1177,1178,1179,1322,1323,1124,1125,1322,1323,1126,1127,1126,1127,1124,1125,1322,1323,1126,1127,1126,1127,
1126,1127,0,0,0,0,1124,1125,0,0,0,0,1126,1127,0,0,0,0,1128,1129,1322,1323,0,0,0,0,1128,1129,1322,1323,1126,1127,1124,1125,0,0,0,0,1126,1127,0,0,0,0,1322,1323,1128,1129,0,0,0,0,1128,1129,1128,1129,0,0,0,0,1126,1127,1126,1127,1126,1127,1128,1129,1126,1127,1128,1129,1322,1323,1126,1127,1322,1323,1126,1127,1126,1127,1128,1129,1126,1127,1322,1323,0,0,0,0,0,0,0,0,1128,1129,1124,1125,1126,1127,1126,1127,1128,1129,0,0,0,0,1126,1127,1322,1323,1126,1127,1322,1323,1322,1323,1322,1323,1128,1129,1126,1127,1128,1129,
0,0,0,0,0,0,0,0,0,0,0,0,0,0,0,0,0,0,0,0,0,0,0,0,0,0,0,0,0,0,0,0,0,0,0,0,0,0,0,0,0,0,0,0,0,0,0,0,0,0,0,0,0,0,0,0,0,0,0,0,0,0,0,0,0,0,0,0,0,0,0,0,0,0,0,0,0,0,0,0,0,0,0,0,0,0,0,0,0,0,0,0,0,0,0,0,0,0,0,0,0,0,0,0,0,0,0,0,0,0,0,0,0,0,0,0,0,0,0,0,0,0,0,0,0,0,0,0
</data>
 </layer>
 <objectgroup id="7" name="interactions">
  <object id="3" name="LOST_CORK_TAVERN" x="1392" y="656" width="16" height="16">
   <properties>
    <property name="obj_type" value="exit"/>
    <property name="to_map" value="LOST_CORK_TAVERN"/>
    <property name="destination_entry_point" value="Door"/>
   </properties>
  </object>
  <object id="5" name="JACOBS_CHAMBER" x="1488" y="640" width="16" height="16">
   <properties>
    <property name="obj_type" value="exit"/>
    <property name="to_map" value="JACOBS_CHAMBER"/>
    <property name="destination_entry_point" value="Door"/>
   </properties>
  </object>
  <object id="7" name="JACOBS_CHAMBER" x="1664" y="752" width="16" height="16">
   <properties>
    <property name="obj_type" value="exit"/>
    <property name="to_map" value="JACOBS_CHAMBER"/>
    <property name="destination_entry_point" value="Door"/>
   </properties>
  </object>
  <object id="10" name="JACOBS_CHAMBER" x="1008" y="1216" width="16" height="16">
   <properties>
    <property name="obj_type" value="exit"/>
    <property name="to_map" value="JACOBS_CHAMBER"/>
    <property name="destination_entry_point" value="Door"/>
   </properties>
  </object>
  <object id="13" name="JACOBS_CHAMBER" x="368" y="1248" width="16" height="16">
   <properties>
    <property name="obj_type" value="exit"/>
    <property name="to_map" value="JACOBS_CHAMBER"/>
    <property name="destination_entry_point" value="Door"/>
   </properties>
  </object>
  <object id="15" name="JACOBS_CHAMBER" x="1360" y="1040" width="16" height="16">
   <properties>
    <property name="obj_type" value="exit"/>
    <property name="to_map" value="JACOBS_CHAMBER"/>
    <property name="destination_entry_point" value="Door"/>
   </properties>
  </object>
  <object id="18" name="JACOBS_CHAMBER" x="1536" y="1088" width="16" height="16">
   <properties>
    <property name="obj_type" value="exit"/>
    <property name="to_map" value="JACOBS_CHAMBER"/>
    <property name="destination_entry_point" value="Door"/>
   </properties>
  </object>
  <object id="36" name="JACOBS_CHAMBER" x="976" y="832" width="16" height="16">
   <properties>
    <property name="obj_type" value="exit"/>
    <property name="to_map" value="JACOBS_CHAMBER"/>
    <property name="destination_entry_point" value="Door"/>
   </properties>
  </object>
  <object id="39" name="JACOBS_CHAMBER" x="1632" y="864" width="16" height="16">
   <properties>
    <property name="obj_type" value="exit"/>
    <property name="to_map" value="JACOBS_CHAMBER"/>
    <property name="destination_entry_point" value="Door"/>
   </properties>
  </object>
  <object id="41" name="JACOBS_CHAMBER" x="1760" y="1136" width="16" height="16">
   <properties>
    <property name="obj_type" value="exit"/>
    <property name="to_map" value="JACOBS_CHAMBER"/>
    <property name="destination_entry_point" value="Door"/>
   </properties>
  </object>
  <object id="44" name="JACOBS_CHAMBER" x="784" y="768" width="16" height="16">
   <properties>
    <property name="obj_type" value="exit"/>
    <property name="to_map" value="JACOBS_CHAMBER"/>
    <property name="destination_entry_point" value="Door"/>
   </properties>
  </object>
  <object id="46" name="JACOBS_CHAMBER" x="1744" y="528" width="16" height="16">
   <properties>
    <property name="obj_type" value="exit"/>
    <property name="to_map" value="JACOBS_CHAMBER"/>
    <property name="destination_entry_point" value="Door"/>
   </properties>
  </object>
  <object id="48" name="JACOBS_CHAMBER" x="1088" y="1088" width="16" height="16">
   <properties>
    <property name="obj_type" value="exit"/>
    <property name="to_map" value="JACOBS_CHAMBER"/>
    <property name="destination_entry_point" value="Door"/>
   </properties>
  </object>
 </objectgroup>
 <objectgroup id="8" name="entry_points">
  <object id="4" name="LOST_CORK_TAVERN_DOOR" x="1400" y="680">
   <point/>
  </object>
  <object id="6" name="JACOBS_CHAMBER_DOOR" x="1496" y="664">
   <point/>
  </object>
  <object id="8" name="SMITHY_FRONT" x="1672" y="776">
   <point/>
  </object>
  <object id="11" name="HAMMER_HOAXHEART_FRONT" x="1016" y="1240">
   <point/>
  </object>
  <object id="14" name="POTIONEER_PUZZLEMINT_FRONT" x="376" y="1272">
   <point/>
  </object>
  <object id="16" name="BART_FRONT" x="1368" y="1064">
   <point/>
  </object>
  <object id="19" name="JOHNY_FRONT" x="1544" y="1112">
   <point/>
  </object>
  <object id="37" name="wies_polnoc_02_FRONT" x="984" y="856">
   <point/>
  </object>
  <object id="40" name="wies_polnoc_04_FRONT" x="1640" y="888">
   <point/>
  </object>
  <object id="42" name="wies_polnoc_05_FRONT" x="1768" y="1160">
   <point/>
  </object>
  <object id="45" name="wies_poludnie_07_FRONT" x="792" y="792">
   <point/>
  </object>
  <object id="47" name="wies_poludnie_08_FRONT" x="1752" y="552">
   <point/>
  </object>
  <object id="49" name="wies_poludnie_09_FRONT" x="1096" y="1112">
   <point/>
  </object>
  <object id="50" name="start" x="1512" y="680">
   <point/>
  </object>
  <object id="51" name="DrogaZachod" x="40" y="1032">
   <point/>
  </object>
  <object id="52" name="DrogaWschod" x="2008" y="920">
   <point/>
  </object>
 </objectgroup>
 <objectgroup id="9" name="waypoints"/>
 <objectgroup id="10" name="places">
  <object id="53" name="well" x="1496" y="784"/>
  <object id="54" name="smithy" x="1672" y="784"/>
  <object id="55" name="house_smith" x="1016" y="1248"/>
  <object id="56" name="house_bart" x="1368" y="1072"/>
  <object id="57" name="house_johny" x="1544" y="1120"/>
  <object id="58" name="house_barman" x="1400" y="688"/>
 </objectgroup>
 <objectgroup id="11" name="spawn_points">
  <object id="20" name="COW_01" gid="2833" x="1360" y="448" width="16" height="16"/>
  <object id="21" name="COW_02" gid="2833" x="1600" y="400" width="16" height="16"/>
  <object id="22" name="PIG_01" gid="2832" x="1552" y="400" width="16" height="16"/>
  <object id="23" name="CHICKEN_WHITE_01" gid="2831" x="1680" y="384" width="16" height="16"/>
  <object id="24" name="CHICKEN_BROWN_01" gid="2829" x="1552" y="416" width="16" height="16"/>
  <object id="25" name="CHICKEN_BLACK" gid="2828" x="1696" y="320" width="16" height="16"/>
  <object id="26" name="CHICKEN_CUTE_01" gid="2830" x="1360" y="400" width="16" height="16"/>
  <object id="27" name="HORSE" gid="2834" x="1648" y="368" width="16" height="16"/>
  <object id="28" name="DOG_ORANGE" gid="2826" x="1648" y="320" width="16" height="16"/>
  <object id="29" name="CHICKEN_WHITE_02" gid="2831" x="336" y="848" width="16" height="16"/>
  <object id="30" name="CHICKEN_BROWN_02" gid="2829" x="320" y="864" width="16" height="16"/>
  <object id="31" name="CHICKEN_CUTE_02" gid="2830" x="352" y="752" width="16" height="16"/>
  <object id="32" name="PIG_02" gid="2832" x="336" y="752" width="16" height="16"/>
  <object id="33" name="COW_03" gid="2833" x="416" y="816" width="16" height="16"/>
  <object id="34" name="DOG_PURPLE" gid="2827" x="384" y="816" width="16" height="16"/>
  <object id="60" name="BARMAN_ABSINTHRAYNER" gid="2847" x="1392" y="704" width="16" height="16"/>
  <object id="61" name="HAMMER_HOAXHEART" gid="2819" x="1664" y="800" width="16" height="16"/>
  <object id="62" name="POTIONEER_PUZZLEMINT" gid="2849" x="368" y="1280" width="16" height="16"/>
  <object id="63" name="MARRY" gid="2822" x="1440" y="800" width="16" height="16"/>
  <object id="64" name="BART" gid="2820" x="1360" y="1072" width="16" height="16"/>
  <object id="65" name="JOHNY" gid="2818" x="1536" y="1120" width="16" height="16"/>
  <object id="66" name="ROB" gid="2821" x="1520" y="816" width="16" height="16"/>
  <object id="67" name="CLAPBACK_SWORD" gid="2848" x="1504" y="688" width="16" height="16"/>
  <object id="68" name="CAT" gid="2825" x="1408" y="832" width="16" height="16"/>
 </objectgroup>
 <objectgroup id="12" name="zones">
  <object id="1" name="field_west" x="288" y="288" width="224" height="288"/>
  <object id="2" name="field_north" x="608" y="288" width="224" height="288"/>
  <object id="9" name="backyard_HAMMER_HOAXHEART" x="960" y="1168" width="112" height="112"/>
  <object id="12" name="backyard_POTIONEER_PUZZLEMINT" x="320" y="1200" width="112" height="112"/>
  <object id="17" name="backyard_JOHNY" x="1504" y="1056" width="96" height="80"/>
  <object id="35" name="backyard_01" x="928" y="784" width="112" height="112"/>
  <object id="38" name="backyard_03" x="1600" y="832" width="80" height="80"/>
  <object id="43" name="backyard_06" x="752" y="736" width="96" height="80"/>
  <object id="59" name="plains" x="896" y="320" width="416" height="208"/>
 </objectgroup>
</map>
