<?xml version="1.0" encoding="UTF-8"?>
<map version="1.10" tiledversion="1.12.2" orientation="orthogonal" renderorder="right-down" width="256" height="128" tilewidth="16" tileheight="16" infinite="0" nextlayerid="13" nextobjectid="136">
 <properties>
  <property name="outdoor" type="bool" value="true"/>
  <property name="particles" value="leafs,rain"/>
  <property name="gen_seed" type="int" value="20260821"/>
  <property name="gen_brief" value="f1b4bca6d3c8"/>
 </properties>
 <tileset firstgid="1" source="../tilesets/Water.tsx"/>
 <tileset firstgid="477" source="../tilesets/Floor.tsx"/>
 <tileset firstgid="1049" source="../tilesets/Field.tsx"/>
 <tileset firstgid="1124" source="../tilesets/Nature.tsx"/>
 <tileset firstgid="1628" source="../tilesets/House.tsx"/>
 <tileset firstgid="2387" source="../tilesets/Element.tsx"/>
 <tileset firstgid="2627" source="../tilesets/FloorDetail.tsx"/>
 <tileset firstgid="2707" source="../../items/items.tsx"/>
 <tileset firstgid="2817" source="../tilesets/CharacterTileset.tsx"/>
 <layer id="1" name="ground" width="256" height="128">
  <data encoding="csv">
744,741,721,741,721,744,742,745,743,741,721,742,722,742,742,722,743,744,722,744,741,721,741,722,722,722,742,744,721,742,742,742,741,722,722,722,745,744,721,744,721,743,722,744,744,744,722,744,744,722,744,742,742,743,721,741,743,741,745,745,744,743,722,743,722,742,744,742,741,742,721,744,743,742,743,741,721,742,722,722,745,744,744,722,742,743,741,745,722,741,745,742,745,745,742,744,744,741,741,745,722,742,722,744,741,744,741,743,722,744,741,744,721,722,742,722,721,745,742,742,741,721,722,743,721,744,722,742,743,743,742,745,721,742,744,745,741,742,722,744,745,721,742,742,721,722,743,742,742,744,722,722,722,743,721,743,745,743,722,742,744,744,741,721,741,741,721,741,721,722,741,745,743,745,744,742,722,743,741,742,743,741,741,745,721,721,741,721,742,722,744,741,745,742,741,722,743,741,741,743,745,721,745,744,743,745,745,743,721,722,742,722,722,741,742,742,744,743,743,721,742,722,721,722,745,741,745,743,722,721,721,722,742,722,742,721,744,742,743,722,722,744,743,745,744,721,744,743,722,743,721,745,745,745,721,743,
743,721,721,722,743,721,742,742,721,741,722,721,743,743,742,741,742,745,745,721,745,744,744,722,742,722,742,742,741,744,722,742,722,743,742,722,721,743,722,741,743,721,721,722,721,721,743,721,745,721,744,742,744,721,722,742,741,743,722,744,745,721,744,745,745,743,722,744,741,721,745,745,722,721,743,742,722,743,743,721,743,743,722,745,743,744,721,722,744,722,722,722,722,744,744,744,743,742,744,744,722,743,742,745,741,744,721,742,722,745,721,722,745,741,742,745,741,741,744,741,742,742,745,742,743,743,744,741,721,744,743,741,722,743,742,722,744,744,721,722,743,722,741,722,743,745,741,742,741,744,722,721,741,741,722,721,745,741,745,744,722,744,722,743,721,743,745,741,741,744,744,721,721,721,742,741,744,742,722,722,722,741,722,742,741,722,721,721,744,721,722,722,742,722,721,744,742,744,741,741,721,722,745,742,741,741,743,741,745,741,742,744,743,721,745,741,722,721,745,745,742,742,741,742,721,722,722,742,722,744,744,721,722,741,742,741,744,741,721,745,722,743,745,745,722,745,721,744,744,744,722,742,721,742,721,721,
722,722,744,743,741,744,745,741,743,745,722,744,742,744,722,742,721,745,741,722,741,745,743,722,743,722,744,743,745,745,745,741,744,745,744,744,741,743,745,741,721,721,744,742,741,745,721,722,722,741,744,722,745,743,722,742,742,744,741,722,742,743,743,722,744,745,741,745,745,745,741,743,722,741,745,743,721,744,741,743,743,745,721,742,742,743,721,722,743,744,745,722,722,745,743,744,744,744,744,742,721,743,741,742,744,742,743,745,742,721,742,742,744,745,742,722,741,741,721,745,745,744,744,745,721,742,742,721,744,743,745,742,721,742,741,743,743,745,721,722,721,721,745,743,745,721,745,722,742,744,745,742,745,741,745,744,745,722,742,742,744,741,744,722,744,743,743,722,743,741,745,721,743,745,745,745,745,721,744,744,722,741,741,742,743,721,744,743,722,745,742,744,722,741,722,722,743,722,722,745,742,722,745,742,722,744,721,741,742,744,741,741,721,722,742,721,744,744,721,744,721,721,744,741,722,743,744,722,741,722,721,721,745,722,722,721,721,721,745,742,745,741,744,743,744,741,743,745,743,743,741,744,741,722,743,721,
743,722,721,742,741,744,745,744,741,741,744,721,742,722,745,741,745,742,721,743,741,721,745,721,741,742,744,722,743,722,722,721,745,742,745,745,721,721,722,744,741,743,721,744,742,722,742,742,742,745,744,745,744,745,743,744,721,743,744,741,742,741,722,741,741,743,722,722,742,743,722,741,741,722,745,745,745,721,745,721,741,745,741,743,721,722,742,722,721,741,744,745,721,742,722,722,741,741,741,741,722,721,722,741,742,741,742,742,741,742,744,743,742,744,741,742,741,721,745,721,744,721,721,742,743,742,741,743,721,745,721,741,742,743,743,721,721,745,722,745,745,721,743,741,721,744,722,742,744,744,721,741,742,744,721,721,722,721,743,741,721,743,744,721,744,742,743,742,744,741,742,744,741,742,745,744,721,745,742,722,742,721,742,744,722,742,721,721,744,722,743,743,722,741,742,741,721,743,721,741,744,721,741,744,745,742,722,744,743,743,741,721,722,741,722,722,721,741,741,745,722,721,743,721,741,721,721,743,745,741,721,744,722,742,744,722,721,743,722,722,742,744,722,745,743,721,744,742,743,745,742,743,741,744,744,743,
722,721,743,745,743,742,741,741,742,744,722,721,722,722,743,742,742,742,741,744,741,744,744,721,744,722,743,742,741,721,745,741,745,745,722,745,722,742,722,722,721,721,745,742,744,722,745,742,744,745,722,743,745,744,745,745,744,721,742,722,742,744,721,745,741,741,741,741,742,743,741,745,722,721,722,745,744,744,745,722,744,744,722,722,742,721,743,741,742,741,745,745,744,744,721,741,721,744,742,721,742,722,744,722,741,742,744,745,721,744,744,721,721,722,721,722,743,741,721,742,741,722,743,745,722,722,741,741,722,744,745,742,744,741,743,722,743,721,722,743,742,722,744,743,721,722,742,721,741,745,742,744,741,745,741,743,743,745,721,742,742,742,722,742,741,744,742,743,742,721,744,742,721,721,741,744,745,745,741,742,745,745,721,745,745,743,722,743,744,743,722,722,744,741,742,745,722,741,743,743,744,741,721,721,744,745,745,742,722,721,743,745,744,743,722,722,741,742,741,741,742,743,743,741,722,721,744,741,741,745,721,742,721,742,744,743,745,745,741,722,742,742,741,742,721,745,721,745,745,741,741,744,745,721,745,741,
721,722,745,722,745,744,744,743,742,743,722,722,721,721,721,745,741,744,721,741,722,745,722,743,743,742,745,721,741,743,722,743,742,741,741,745,742,721,741,722,743,742,721,744,744,741,741,745,745,745,721,722,744,741,743,742,722,722,742,721,722,742,744,742,721,741,722,721,742,721,743,745,721,745,721,742,721,741,743,745,745,745,744,744,741,745,721,743,741,745,722,742,743,745,721,742,743,722,721,722,745,741,743,741,745,742,743,745,741,744,741,742,745,721,721,744,721,744,741,743,744,745,743,744,722,722,744,744,745,741,745,745,722,741,721,744,721,743,741,744,721,745,744,722,741,741,745,745,721,744,744,741,742,742,742,722,742,722,742,741,721,744,721,744,743,742,741,742,743,741,745,744,744,721,721,722,742,741,741,743,741,744,742,743,745,721,722,743,744,741,743,743,743,721,721,722,722,744,745,722,743,745,742,745,744,743,744,744,742,744,742,743,721,743,722,722,744,742,742,743,744,721,743,741,745,722,721,743,743,745,722,721,721,745,743,741,721,741,745,742,721,721,743,721,741,744,742,743,741,722,742,742,741,743,721,721,
722,743,741,721,745,742,721,743,742,743,742,742,722,744,742,744,721,722,743,743,741,721,743,745,722,744,745,745,744,742,742,741,722,742,744,722,744,743,722,744,741,741,743,744,743,721,721,745,745,742,744,742,744,744,745,721,721,745,742,744,745,741,745,741,721,742,741,722,742,745,722,744,721,742,742,744,745,721,744,741,742,721,742,743,721,743,742,722,721,721,744,742,722,721,741,745,745,741,743,743,742,745,743,745,741,743,744,745,745,745,741,743,721,742,722,721,745,744,745,744,745,745,721,743,741,743,743,743,722,741,741,742,745,744,722,745,743,744,745,722,741,721,744,743,744,743,742,743,742,744,744,742,721,721,721,722,741,742,722,722,744,721,741,741,722,722,741,744,721,744,721,742,744,744,742,744,744,721,745,744,722,741,721,743,745,741,742,721,745,743,743,721,721,743,745,741,744,741,743,721,745,744,742,722,745,722,744,741,745,743,743,721,743,743,741,743,721,744,742,742,721,722,743,742,742,745,721,741,721,744,741,721,744,722,745,743,721,743,744,744,743,744,721,743,741,744,741,722,722,743,744,745,743,722,744,721,
744,721,722,741,722,745,741,722,741,744,745,744,744,742,743,722,743,745,741,721,745,744,721,721,722,742,721,745,722,742,722,741,722,742,742,722,741,745,741,745,743,744,744,743,741,722,745,742,745,722,745,722,743,721,745,742,743,745,743,745,743,741,741,722,745,744,722,741,742,741,744,743,742,722,744,741,745,745,742,745,744,743,722,745,744,745,742,741,721,721,721,744,741,745,745,741,741,745,744,745,745,722,721,742,745,743,745,742,721,742,743,721,741,722,745,722,743,742,745,744,741,722,744,721,744,743,742,721,741,745,741,744,741,742,741,745,744,741,744,745,721,742,741,744,741,742,744,745,741,741,744,722,744,744,741,744,743,721,722,745,743,722,743,745,741,721,722,744,741,722,745,742,722,741,721,744,721,744,745,745,722,744,745,745,743,741,743,744,745,741,721,742,744,721,744,742,743,721,741,745,744,741,741,742,742,745,721,742,721,744,745,744,721,722,741,743,744,741,745,721,744,743,741,741,741,722,721,744,721,744,741,743,741,741,741,742,744,745,742,741,743,744,743,745,743,741,745,721,743,721,744,745,745,741,721,721,
722,741,722,745,745,745,744,743,741,744,743,743,742,722,745,722,742,743,743,743,744,742,742,722,744,742,745,745,743,744,741,742,721,721,743,742,745,743,745,721,744,742,745,745,742,743,745,721,745,742,722,743,721,741,742,721,744,721,742,722,742,744,721,741,721,741,722,741,742,745,722,743,744,743,721,721,742,741,741,745,741,741,741,744,743,741,722,742,742,721,722,743,742,722,742,743,741,743,742,744,743,742,721,742,745,743,745,744,721,745,742,721,722,721,722,742,743,743,743,745,721,745,741,743,742,743,721,741,743,745,743,745,721,745,741,743,745,741,722,742,741,744,742,742,741,743,743,742,741,741,745,743,742,742,742,741,741,742,741,743,721,721,722,742,721,721,742,742,741,743,722,742,721,745,721,722,741,722,745,741,722,745,721,744,742,745,721,741,741,721,722,743,722,742,741,721,743,722,744,742,741,742,722,743,744,741,743,743,722,743,742,741,743,744,744,744,743,743,722,741,721,741,743,721,742,745,722,722,744,721,745,745,741,744,721,741,743,721,721,745,743,743,742,744,722,722,745,743,721,722,742,742,745,743,722,743,
741,721,721,742,741,742,743,745,722,745,742,743,745,722,743,745,721,722,741,743,743,742,722,741,721,745,741,721,721,722,722,742,741,721,743,741,741,741,742,722,744,742,745,741,745,745,722,722,722,721,744,721,745,744,744,744,745,722,745,741,741,742,722,722,744,721,742,744,722,742,741,741,722,741,742,744,744,745,743,741,721,745,745,742,742,743,741,742,743,742,744,722,741,721,721,722,742,722,741,721,722,722,742,745,721,744,722,741,745,722,721,742,722,742,742,745,743,744,721,742,742,743,745,722,722,743,745,722,722,743,745,744,721,742,721,741,741,743,745,741,721,744,722,742,721,743,742,741,742,741,721,741,745,722,744,742,742,743,722,721,744,744,722,744,744,721,745,742,721,721,745,721,741,742,741,742,744,722,741,742,742,742,741,721,722,722,745,743,721,742,722,722,743,743,743,745,721,722,722,745,722,741,744,721,743,742,745,721,722,744,741,721,721,742,743,743,744,721,741,721,722,741,744,741,722,742,741,742,743,742,741,745,742,742,743,741,721,743,721,742,744,742,744,745,742,721,745,743,743,744,721,722,745,743,741,741,
742,744,744,722,745,743,744,743,741,742,721,722,741,744,721,743,742,744,741,741,742,721,744,722,745,745,744,742,745,743,722,721,744,744,721,741,722,722,741,721,743,742,722,721,722,742,745,722,721,743,721,722,722,722,722,721,722,742,721,722,721,743,722,743,741,721,744,722,742,743,743,742,742,744,721,743,742,741,722,722,743,743,721,743,745,743,722,722,745,722,722,745,745,741,721,741,744,741,742,722,745,744,721,745,743,744,741,721,741,744,744,721,741,745,721,742,722,722,721,722,742,722,744,745,741,742,745,744,722,742,742,721,741,722,743,721,745,722,745,744,742,722,745,742,741,742,722,721,745,743,742,741,741,743,745,741,741,741,721,722,743,743,743,745,742,721,741,741,743,742,745,743,721,745,741,744,745,743,742,744,741,722,741,721,722,721,741,721,742,742,741,721,721,744,743,722,743,745,741,745,721,742,721,745,743,743,745,722,721,721,745,743,743,744,745,743,745,744,721,743,721,742,742,721,743,742,722,744,745,742,742,745,745,722,744,721,744,743,741,742,741,722,721,722,742,744,721,745,721,745,742,743,741,722,744,744,
743,741,745,721,744,743,742,721,744,745,742,745,721,722,722,741,743,742,744,722,744,721,741,745,722,722,743,745,742,745,743,722,722,721,722,721,741,741,721,742,743,745,722,745,721,742,743,741,722,742,744,742,741,743,722,744,745,743,744,744,721,744,743,744,742,741,744,745,722,745,743,741,745,744,743,722,741,721,744,745,742,744,722,741,743,742,744,743,744,743,745,722,744,743,742,744,745,743,745,745,721,745,722,745,743,721,741,721,721,742,743,742,744,744,722,745,721,721,743,722,745,744,743,721,721,721,722,741,745,721,743,741,742,722,744,722,743,745,741,743,741,742,741,743,721,741,744,743,743,744,741,741,742,745,742,745,721,741,744,721,744,744,743,741,745,742,742,721,722,722,743,742,743,744,741,743,721,743,743,744,743,742,743,721,745,743,744,743,743,722,721,722,741,722,742,721,743,722,721,741,742,742,742,722,741,745,741,742,745,741,742,744,742,744,721,743,743,744,744,741,721,742,741,721,721,722,742,722,741,741,745,721,742,721,744,745,741,742,745,741,722,721,722,721,722,722,744,743,743,741,722,741,721,741,722,741,
722,721,745,721,744,743,744,745,722,741,743,741,743,743,744,744,743,743,745,721,744,744,744,722,721,721,742,745,744,744,722,745,744,721,741,741,721,745,744,721,742,741,745,721,743,722,721,741,744,744,742,745,744,742,744,721,721,741,741,741,721,722,743,741,742,741,722,744,742,722,742,745,722,743,721,745,742,722,721,742,744,743,722,745,721,722,722,722,744,742,721,721,741,722,744,721,743,722,743,745,722,744,742,722,721,743,721,721,722,742,722,742,721,741,744,743,722,744,722,721,721,742,721,722,745,721,742,743,745,745,744,722,745,721,721,745,742,745,743,722,743,742,741,745,741,741,744,742,741,741,743,722,721,722,744,722,722,722,722,742,722,722,721,742,745,743,722,743,742,721,745,745,721,722,721,743,742,721,744,744,741,744,742,722,742,744,743,742,741,743,741,743,743,722,744,722,743,722,743,745,744,741,721,742,741,745,721,721,743,742,741,744,721,744,745,745,744,743,722,722,745,744,743,722,741,742,745,721,721,744,742,743,722,743,743,744,721,745,742,721,743,745,743,722,745,745,743,742,741,741,744,744,722,744,742,722,
742,721,722,721,721,744,745,741,744,722,745,721,721,741,721,741,743,742,742,745,743,745,744,722,721,721,741,741,745,743,744,744,742,745,741,745,722,745,742,742,744,742,721,745,721,744,743,741,742,744,742,745,745,743,745,743,722,722,744,741,722,745,741,742,745,721,722,744,722,722,743,743,742,722,743,742,744,743,722,744,742,744,742,742,743,741,741,745,745,745,722,745,722,744,745,722,742,742,743,722,745,744,745,741,745,745,721,744,743,741,722,742,743,742,744,745,743,743,741,741,742,743,745,721,745,742,721,721,721,721,721,745,741,721,743,741,744,721,743,741,744,741,743,741,722,744,722,743,742,745,744,741,741,744,743,721,745,742,742,722,745,743,745,721,745,745,722,721,721,741,745,722,745,742,721,721,742,721,744,742,741,721,742,745,741,722,721,741,744,745,744,721,744,743,722,721,721,722,741,722,721,743,722,743,721,744,745,745,744,745,744,741,744,744,722,721,745,741,744,722,744,743,742,742,741,741,721,742,721,744,743,721,721,721,722,744,722,741,721,722,743,721,742,745,721,745,745,742,722,741,744,721,745,745,743,743,
721,722,742,722,744,744,745,741,722,745,745,745,721,743,743,721,722,741,742,743,741,742,742,744,742,743,744,742,745,742,722,721,742,744,722,743,721,741,742,745,745,721,743,741,743,741,721,742,742,745,743,743,743,741,741,742,743,721,742,741,744,742,721,743,722,741,741,722,743,742,722,741,741,743,744,745,742,721,722,745,743,745,721,745,742,722,722,743,742,742,744,722,722,722,721,744,721,742,722,745,741,743,745,721,745,742,741,744,721,743,741,742,741,721,745,721,745,742,744,721,745,743,742,741,722,743,745,721,722,745,745,722,742,743,741,742,744,743,741,721,744,744,745,743,721,721,745,745,744,722,741,721,722,744,722,743,721,722,722,744,741,721,745,722,741,722,721,721,743,722,722,742,741,722,744,742,721,722,743,745,722,722,741,744,743,741,744,743,741,744,722,721,742,743,741,741,722,742,743,743,744,745,742,741,744,742,741,744,744,742,742,721,744,745,744,722,722,741,743,741,742,742,745,745,742,722,741,721,742,742,742,745,722,742,744,742,745,741,722,721,743,721,744,742,741,744,721,744,722,744,741,743,742,743,745,721,
743,721,745,741,745,741,722,742,743,742,721,722,741,721,744,741,745,721,722,722,722,743,744,742,745,721,745,722,721,743,741,743,722,742,745,721,742,745,721,741,744,741,745,745,721,722,741,745,741,721,743,744,742,742,741,722,742,743,744,741,744,741,744,741,744,744,745,742,744,745,744,743,722,722,744,745,741,744,741,743,722,743,721,722,721,745,721,743,743,743,722,743,721,743,745,742,741,742,741,744,745,743,741,743,721,722,742,743,741,745,744,741,741,745,742,722,722,742,722,744,744,743,745,744,742,743,745,741,742,741,745,742,743,743,721,722,744,745,743,745,742,722,722,745,741,742,722,744,721,722,722,721,722,721,745,722,745,722,743,741,721,745,743,743,741,721,743,745,742,741,742,742,741,743,722,722,721,745,743,744,742,745,721,743,742,722,742,743,742,742,741,721,745,742,722,722,721,744,721,741,745,721,744,743,745,742,744,722,722,722,742,743,722,741,741,744,721,721,744,743,743,742,744,722,722,745,741,722,722,745,743,721,741,741,741,742,721,745,741,742,745,744,742,743,722,722,743,743,721,741,721,743,741,722,741,745,
741,744,742,741,721,722,722,745,721,721,721,745,744,722,721,741,741,722,742,722,745,741,741,745,745,744,742,722,721,745,743,744,745,742,722,745,744,744,744,741,745,745,744,742,722,742,745,744,743,742,722,741,722,742,742,744,743,722,722,722,743,744,721,745,722,722,721,742,722,745,741,742,722,744,743,721,745,721,745,744,741,743,741,742,722,744,742,744,722,742,744,742,742,744,743,742,741,744,743,745,741,743,741,745,743,741,721,741,745,741,742,721,742,721,744,745,742,744,722,721,743,744,742,722,742,745,741,745,743,744,741,721,745,745,741,722,743,721,742,744,722,742,743,741,741,722,744,722,721,743,742,721,743,744,745,741,743,744,741,742,741,722,742,743,741,744,743,741,741,743,744,745,744,722,722,741,742,743,744,742,722,745,741,745,745,741,742,741,744,722,741,743,745,721,742,722,721,741,743,743,743,744,745,743,741,745,744,744,742,721,721,744,743,722,742,722,743,745,745,744,721,742,745,745,741,741,743,744,721,745,741,722,741,722,722,722,745,743,742,745,745,744,744,741,721,742,741,741,721,722,742,722,721,744,721,721,
721,742,745,744,744,742,721,742,744,744,721,741,745,742,722,743,745,745,721,742,721,745,743,744,743,743,745,722,722,743,743,745,722,743,721,744,741,745,721,722,722,721,745,745,742,742,741,741,741,721,745,721,744,743,745,745,742,722,741,743,721,741,744,741,722,742,743,722,721,741,744,743,722,744,742,721,744,744,742,721,745,721,744,741,744,721,741,745,741,722,742,741,744,743,722,722,743,745,721,743,745,744,743,721,741,743,721,741,744,722,721,721,742,722,743,722,744,745,721,722,743,742,744,744,742,721,722,745,722,745,742,744,742,721,744,741,741,722,743,741,744,741,742,745,743,745,743,741,722,721,744,721,744,742,722,744,742,744,744,741,721,742,722,742,722,744,722,722,744,743,743,742,744,722,741,742,742,722,744,745,721,722,722,741,743,721,744,742,721,742,722,744,741,745,745,744,741,744,744,742,721,743,745,742,744,741,721,741,744,741,722,744,722,743,743,744,721,722,743,744,744,745,742,744,744,743,742,744,745,743,742,743,745,741,744,741,742,742,745,721,744,744,722,741,745,743,741,745,743,742,745,722,741,744,741,744,
745,722,742,722,722,742,744,742,742,743,745,745,722,742,721,743,742,721,741,744,744,744,742,741,742,743,745,743,742,722,741,742,742,742,721,741,742,744,722,722,742,721,744,743,741,745,744,745,745,742,745,721,722,745,744,745,741,744,741,745,743,741,741,744,742,721,741,744,745,742,743,742,721,742,721,745,744,745,722,722,741,745,742,722,745,741,722,744,721,722,721,745,745,743,743,743,742,721,742,722,721,743,721,743,741,722,722,744,744,743,742,743,744,744,722,745,743,741,744,721,721,743,722,744,743,741,721,722,741,745,745,743,721,742,744,741,721,745,744,745,744,742,744,721,743,744,721,743,742,743,745,743,742,742,745,741,722,741,722,742,721,741,742,722,741,721,741,722,744,743,741,744,742,745,741,743,741,721,744,745,741,721,741,741,744,743,744,744,743,721,743,743,743,721,743,744,721,722,745,744,742,721,743,741,742,743,722,744,742,745,742,742,741,742,742,745,742,722,745,742,745,743,722,741,741,745,743,721,721,722,722,741,721,722,742,743,745,743,744,742,741,744,744,744,742,743,721,745,742,722,742,721,741,742,743,744,
745,722,743,721,742,743,745,741,742,742,745,741,722,721,743,741,743,742,722,745,722,741,742,744,741,745,741,742,743,722,743,722,722,743,722,742,722,743,744,744,744,743,722,722,741,745,744,745,721,743,721,743,741,745,745,722,741,722,743,741,741,722,744,745,743,744,722,721,721,743,744,722,722,744,722,744,743,722,741,743,721,721,744,721,744,743,744,744,741,745,741,745,745,744,741,742,742,721,722,722,743,744,722,721,721,742,741,742,744,722,721,744,744,721,741,742,742,721,722,743,722,744,742,721,742,721,742,721,721,742,742,745,721,741,745,745,721,742,744,743,721,721,721,745,744,745,742,743,743,721,722,745,743,741,745,741,744,744,741,722,721,722,742,722,743,745,741,721,743,745,743,721,743,742,745,721,722,741,722,744,722,722,722,741,745,745,722,743,741,741,742,742,743,721,741,742,745,742,741,742,741,743,741,743,745,722,741,744,743,722,745,721,744,722,741,741,741,722,742,743,744,742,744,744,743,744,742,721,722,745,741,745,722,722,741,745,743,742,721,744,744,722,742,721,745,722,722,741,745,741,745,745,742,722,745,744,
745,741,722,722,721,745,741,722,722,742,745,742,742,722,745,741,721,721,741,744,743,744,744,745,722,722,721,742,722,744,743,742,743,742,722,745,721,744,742,743,722,744,722,742,742,743,744,744,743,741,721,745,722,721,741,741,722,721,745,742,721,743,741,742,721,743,721,744,744,741,743,742,744,745,744,745,744,743,721,721,745,742,721,744,721,745,743,743,745,743,742,721,743,742,743,722,721,745,745,745,745,743,743,743,743,741,743,722,742,722,742,745,744,744,742,721,741,745,745,741,741,743,722,721,722,742,742,741,745,722,744,721,743,744,743,745,722,722,721,744,721,745,721,721,745,721,744,742,742,741,744,742,741,745,743,722,745,745,744,742,744,745,722,722,743,745,743,745,741,742,722,722,744,744,722,721,742,722,722,745,743,741,741,745,722,741,742,742,721,745,722,742,741,721,744,741,744,742,721,742,742,742,721,743,721,742,743,742,721,722,722,741,743,743,741,744,743,742,742,721,721,721,742,745,741,745,743,745,722,742,742,743,742,722,722,721,743,744,722,741,742,745,742,722,741,722,741,741,743,744,742,745,743,722,742,722,
741,744,745,745,745,744,721,742,722,741,742,721,744,742,744,742,721,744,741,745,743,745,721,745,744,745,742,744,744,721,742,721,742,745,721,744,743,721,742,721,743,721,722,721,745,721,745,742,721,742,744,741,744,742,745,745,745,742,745,742,722,741,745,741,744,743,722,742,745,722,722,722,742,744,722,745,741,745,744,744,741,741,744,742,721,745,744,745,722,743,721,743,741,721,744,722,743,743,722,722,744,744,721,744,722,745,743,745,745,743,743,745,743,741,741,742,722,742,741,742,745,721,743,741,743,742,742,721,743,741,743,741,744,741,744,721,741,742,741,721,721,722,721,741,744,722,745,744,741,744,721,743,721,721,743,742,721,744,743,742,722,722,722,744,741,742,742,721,721,722,722,745,742,722,721,743,744,742,741,744,722,722,721,744,741,742,744,743,722,745,744,744,744,745,721,745,742,743,743,741,744,744,745,721,722,722,742,745,722,741,742,721,745,742,742,744,722,741,745,742,745,745,722,722,741,743,743,745,722,744,744,722,741,722,722,743,741,743,741,742,743,745,721,722,745,744,721,745,743,742,741,742,742,745,742,742,
741,741,743,742,742,745,742,722,745,742,741,741,745,741,745,745,721,722,745,722,742,745,742,742,744,742,745,742,743,741,722,744,741,722,721,744,745,721,741,744,721,722,741,743,743,741,721,742,722,745,743,744,722,743,742,743,743,745,741,741,741,744,741,741,742,741,741,722,742,744,721,742,741,741,722,741,744,744,742,744,742,722,741,722,743,741,721,721,722,721,745,742,744,741,741,745,721,742,722,722,743,742,742,744,745,722,744,745,743,745,743,743,743,722,743,722,722,743,742,744,744,742,745,722,741,722,745,722,722,743,745,722,744,721,721,721,721,741,741,721,721,742,744,742,722,721,743,742,722,721,742,745,722,722,721,745,743,741,743,721,745,745,722,722,744,722,741,743,745,741,742,721,741,742,743,722,743,722,742,722,744,741,722,722,742,722,743,743,743,721,722,742,741,743,743,744,721,742,721,722,745,742,722,741,722,721,743,743,722,721,742,741,745,722,745,722,721,742,721,722,741,742,744,722,722,742,745,721,722,745,722,721,744,743,741,743,741,744,745,745,745,743,743,745,742,742,745,743,744,745,743,743,745,742,722,742,
745,722,745,745,721,742,742,744,741,722,745,742,722,742,722,742,742,745,742,721,741,744,742,743,741,744,721,721,745,722,721,743,744,744,743,722,745,721,744,722,721,722,741,744,742,745,721,745,743,743,743,722,741,742,745,744,744,745,743,743,743,742,742,722,745,742,743,744,743,745,722,745,722,741,722,721,742,741,721,742,745,745,722,742,742,743,741,745,745,744,741,721,742,742,722,721,741,743,722,741,721,743,742,744,745,745,722,743,743,742,722,742,722,722,743,742,721,744,741,744,721,742,741,745,741,721,744,744,722,744,742,722,743,741,744,744,745,722,721,745,722,744,742,744,722,742,742,722,741,742,743,742,743,721,745,741,721,744,741,743,742,745,741,721,745,745,722,745,744,722,742,745,741,743,744,721,745,721,743,743,742,741,743,721,722,721,742,744,722,722,745,744,742,722,721,722,722,743,745,721,745,743,722,742,721,745,721,743,744,742,742,721,741,743,742,742,741,741,745,744,744,745,721,722,743,721,744,744,742,745,721,743,722,743,742,722,721,744,741,741,741,722,744,744,742,722,743,721,721,744,722,744,745,744,744,743,
722,743,742,741,721,741,741,744,722,743,741,722,744,744,742,721,745,741,721,743,745,722,741,743,743,742,721,722,744,745,722,741,741,721,743,744,721,745,741,741,741,722,722,745,721,744,722,742,743,742,742,744,744,745,741,742,744,741,722,742,744,745,742,744,721,741,743,722,721,744,721,744,741,744,744,742,745,743,721,722,722,722,742,743,721,743,744,742,743,722,741,722,745,741,722,741,743,722,744,741,741,741,742,741,742,742,744,745,721,722,722,743,745,721,741,721,744,744,742,742,721,745,722,722,721,741,741,721,741,743,743,722,741,742,744,742,743,745,745,743,741,741,743,742,745,745,722,741,742,722,743,742,721,721,745,722,741,744,743,743,741,721,742,745,743,742,743,743,742,741,743,741,743,743,721,742,721,722,745,743,745,743,741,743,744,744,722,742,741,741,721,744,743,722,741,722,745,744,742,721,744,722,745,742,745,722,744,744,744,722,742,741,744,743,722,744,743,721,721,744,744,745,743,722,721,742,745,721,741,744,741,741,743,721,743,741,744,721,743,745,741,721,745,743,743,741,742,745,743,722,722,721,741,742,721,722,
721,744,722,743,744,741,745,742,745,722,745,744,741,745,722,721,742,721,744,744,745,741,742,743,722,744,721,745,744,745,744,741,741,721,742,743,745,745,744,742,721,745,721,722,743,721,721,744,721,744,745,742,742,743,741,742,742,742,741,741,743,743,741,745,745,722,743,743,741,742,745,722,743,743,741,722,742,722,741,743,745,745,721,741,722,743,722,744,742,743,721,722,741,742,743,722,745,722,721,741,721,722,742,741,741,745,741,722,741,743,722,722,741,744,721,745,743,744,744,745,722,743,722,743,721,721,742,744,741,744,742,742,745,742,745,743,743,722,745,742,742,743,743,742,743,741,744,721,744,744,742,721,743,741,741,744,721,722,744,743,743,742,721,722,744,745,721,721,743,745,745,721,741,743,743,722,741,745,743,722,741,721,721,722,743,744,742,742,741,743,743,743,741,741,742,744,741,743,744,721,745,745,744,745,742,744,741,722,742,743,742,743,744,743,741,721,745,722,743,742,742,743,722,741,742,745,721,745,743,742,744,721,744,743,744,743,742,721,745,742,722,745,743,721,744,741,745,743,744,744,721,743,743,721,745,721,
744,721,743,721,721,743,744,744,721,744,744,722,745,743,744,745,743,744,721,721,741,742,721,741,741,742,741,721,721,721,721,742,741,741,742,744,744,722,722,743,742,745,744,743,743,745,743,741,721,742,745,722,745,742,741,722,722,744,741,721,721,744,722,743,721,745,721,721,741,745,745,744,743,744,721,722,745,742,742,743,743,722,745,744,742,744,744,722,745,741,722,745,741,741,743,721,742,743,721,741,741,722,743,722,742,722,744,742,744,745,741,743,742,721,741,722,745,742,742,741,721,743,744,722,722,745,722,743,745,744,743,741,741,745,722,744,741,742,722,745,721,742,745,741,721,745,745,741,722,744,744,721,721,745,744,722,741,743,742,744,742,741,743,741,722,744,722,742,743,741,745,743,744,742,722,742,721,741,721,745,741,745,744,745,741,721,743,722,722,721,721,722,721,722,744,741,722,722,741,743,721,744,745,744,742,721,743,744,722,743,744,743,744,743,741,745,741,722,742,743,744,721,745,742,741,722,743,722,743,743,744,745,744,722,721,744,743,744,741,743,742,721,741,743,742,743,721,741,741,722,741,743,721,744,741,741,
721,742,742,742,744,744,722,745,744,741,721,742,721,743,721,742,722,742,722,744,721,722,742,721,721,742,745,743,722,744,744,744,741,721,742,742,722,741,721,722,721,721,721,721,741,743,722,744,745,744,741,744,743,742,722,741,743,741,722,742,722,722,745,741,744,743,745,722,721,744,722,722,742,742,742,722,744,722,745,743,743,744,721,721,721,743,744,743,744,742,745,721,722,741,741,744,742,743,743,745,741,744,741,722,745,741,722,722,742,745,722,741,722,743,744,745,745,745,742,744,743,721,721,741,743,743,745,745,743,745,745,743,743,744,742,745,743,744,721,721,745,721,743,742,721,741,745,721,745,721,741,741,743,741,742,744,745,742,742,743,745,743,742,745,741,743,745,721,745,722,722,722,722,742,721,741,742,741,745,722,744,741,743,742,744,743,742,721,742,721,722,742,722,721,745,722,742,741,743,745,745,745,722,721,721,721,741,745,745,741,721,741,721,743,741,745,745,722,741,741,743,742,742,742,721,744,743,745,745,745,722,744,744,743,744,721,745,743,741,722,741,742,743,722,743,721,744,743,742,722,744,744,741,722,722,744,
743,721,741,743,742,745,744,742,722,744,741,743,721,744,722,744,745,721,742,741,741,741,744,722,721,721,744,745,742,745,744,741,741,742,743,745,721,722,745,721,742,741,722,741,744,744,743,722,722,721,722,742,745,745,741,741,745,742,745,743,721,741,743,743,722,744,742,745,721,742,745,742,721,743,722,722,745,742,722,741,743,722,722,744,722,744,743,722,722,722,722,721,745,744,744,743,722,721,721,745,744,722,743,722,743,741,745,742,742,743,743,742,722,744,743,722,745,745,742,743,744,742,742,721,742,743,721,721,721,744,745,741,741,722,741,744,742,744,742,742,721,742,743,745,745,742,721,744,741,721,721,742,722,741,741,744,745,722,745,722,741,743,741,741,743,742,741,721,744,741,722,741,722,721,722,742,745,744,742,743,743,745,741,743,743,745,745,742,741,741,742,741,721,743,743,743,741,722,745,721,745,721,721,721,743,742,742,745,741,743,722,741,744,745,722,722,741,743,743,745,721,722,742,741,742,745,742,721,721,744,742,744,742,722,743,741,744,741,745,743,745,744,744,722,745,743,744,721,741,741,745,743,722,745,743,745,
742,721,743,721,744,745,721,743,745,743,722,742,745,742,741,721,742,742,742,743,721,742,722,741,744,741,741,721,742,722,742,743,743,744,741,742,743,744,721,744,743,742,743,722,745,722,741,744,745,741,721,742,722,743,722,743,741,722,743,721,742,722,722,721,745,721,721,743,743,721,741,742,741,745,741,743,741,722,741,742,721,744,741,721,742,721,743,721,744,745,745,741,743,745,743,743,743,722,742,744,721,743,631,633,722,743,742,743,722,745,741,742,721,742,743,742,742,721,744,721,721,722,721,744,744,743,745,721,742,722,741,722,744,745,743,744,744,744,742,743,741,745,722,744,743,744,741,744,742,741,741,741,742,745,745,722,721,742,722,741,741,721,721,722,743,721,721,722,742,745,743,743,721,722,745,744,744,745,745,741,744,743,744,743,743,721,742,721,744,745,741,744,744,741,742,721,741,721,743,742,743,745,742,745,743,745,743,722,744,744,741,741,743,745,745,742,741,745,722,745,741,741,744,745,743,741,743,721,722,742,741,743,721,744,741,722,744,742,745,744,743,722,721,745,745,742,744,722,745,743,722,744,743,743,742,745,
742,744,744,745,721,721,721,745,745,722,741,722,745,722,741,721,742,745,741,745,742,741,721,745,745,722,741,742,742,745,722,745,722,722,722,721,742,721,722,741,722,743,721,721,743,744,745,722,721,744,743,743,744,743,741,721,721,722,721,722,743,743,745,743,744,741,744,745,744,742,745,745,741,722,721,721,745,743,722,745,745,745,742,742,745,721,745,743,721,721,745,722,722,721,722,745,744,721,721,722,744,631,681,680,633,744,741,743,743,745,721,742,721,741,745,745,721,722,745,743,745,744,721,743,722,741,745,745,721,743,745,744,722,722,721,742,744,743,745,741,744,721,745,744,741,742,722,741,721,745,721,721,744,741,743,743,721,744,741,741,745,743,721,741,742,721,745,721,722,722,743,722,741,742,744,745,742,743,741,741,743,743,721,742,721,744,743,722,742,742,722,744,721,721,743,722,741,721,721,742,742,742,722,741,722,721,721,742,745,745,741,722,742,741,743,742,722,744,742,722,741,744,741,742,722,722,745,742,721,744,741,744,744,745,722,744,745,722,741,722,741,745,741,721,741,721,722,741,741,721,721,744,744,745,743,722,
745,744,721,745,721,721,722,744,742,722,722,744,744,743,744,742,741,741,741,721,743,743,741,745,744,745,744,721,742,744,745,741,742,741,741,721,741,744,742,721,743,742,722,743,722,744,744,741,745,742,742,741,722,743,722,722,744,744,721,745,743,721,745,722,744,742,744,742,722,722,721,744,745,741,721,742,721,741,722,745,743,722,744,722,741,744,741,745,741,744,743,742,742,742,744,744,742,721,741,742,722,653,720,719,655,744,744,721,745,741,745,721,742,742,743,744,742,742,743,744,743,741,743,744,743,744,744,745,741,721,741,743,745,742,743,721,742,721,722,722,745,745,743,741,721,745,743,741,744,745,741,745,631,633,743,745,743,742,741,743,744,741,743,721,745,742,741,745,742,743,744,742,745,741,721,741,741,743,742,721,742,722,742,741,722,744,743,741,743,745,741,721,721,744,742,741,745,744,744,741,745,722,722,742,741,744,721,742,742,744,742,745,742,742,744,722,744,741,722,741,745,743,742,743,741,742,741,742,721,744,722,721,745,722,742,721,744,721,742,743,721,743,744,742,745,745,745,743,741,721,742,744,743,743,741,745,
722,743,743,742,742,745,743,742,743,744,744,742,745,742,721,722,745,742,721,721,742,721,741,722,722,721,721,743,743,741,745,745,722,744,743,742,742,721,743,741,741,722,742,745,741,745,722,742,721,745,742,743,743,742,722,745,743,745,721,721,741,742,741,722,741,722,722,722,743,742,745,742,742,741,742,744,744,745,743,741,721,741,744,721,744,743,741,744,745,743,743,741,745,722,742,741,743,721,742,741,745,653,654,719,655,744,722,743,721,741,742,745,743,722,742,745,742,741,745,745,742,722,741,743,744,742,721,721,741,745,722,745,745,744,745,742,744,741,722,743,721,741,721,721,743,742,721,721,743,741,742,631,681,680,633,741,721,745,722,744,744,722,744,745,741,741,722,742,741,741,741,721,742,742,722,744,722,743,743,722,721,721,741,745,722,745,721,744,745,743,742,745,741,743,745,742,742,743,741,721,722,741,721,722,744,744,745,722,743,744,721,743,745,741,742,741,741,741,745,745,745,743,721,741,722,722,744,745,744,742,743,744,743,721,744,744,742,741,721,745,744,745,722,743,743,722,721,743,745,741,741,722,721,744,745,721,
743,722,744,722,721,743,721,721,741,722,742,741,744,742,721,744,721,744,741,745,742,745,744,721,722,722,743,721,721,721,741,745,741,742,742,721,742,742,741,721,745,722,721,743,743,722,722,743,721,742,745,721,631,633,744,721,722,741,743,721,741,744,741,744,743,743,721,741,745,743,742,721,722,744,742,744,744,744,722,722,722,721,745,744,741,745,745,744,722,742,721,742,721,741,742,745,741,722,741,722,744,653,654,720,655,741,745,743,721,745,743,721,744,742,721,742,743,722,742,743,721,742,743,742,745,742,743,742,742,745,722,742,721,742,743,742,745,744,742,741,743,721,721,743,745,743,742,744,722,742,741,653,654,719,655,721,744,741,741,744,741,745,744,722,743,722,743,721,722,741,721,722,743,721,722,743,722,742,721,744,745,742,743,744,721,743,741,745,745,743,744,721,742,744,744,744,743,744,743,722,743,745,744,741,722,721,745,742,721,722,745,745,743,745,721,743,743,721,741,744,741,745,743,745,721,745,745,743,722,744,743,743,743,741,742,745,745,722,743,722,721,722,722,744,741,741,743,722,745,745,745,721,741,721,721,741,
744,743,742,743,745,722,721,722,743,744,745,721,741,742,743,722,741,744,742,744,721,743,743,721,745,721,722,745,742,743,722,721,741,743,722,741,742,745,721,742,741,722,721,743,745,744,742,743,742,721,743,631,681,680,633,721,745,742,741,743,721,722,721,721,721,721,744,744,741,745,742,721,741,721,742,744,744,741,745,721,741,745,721,744,745,744,743,722,743,722,722,722,741,743,721,722,721,721,741,722,721,653,719,719,655,721,743,745,721,741,743,742,741,744,745,721,745,745,722,742,722,741,721,744,743,745,741,744,745,721,744,741,722,741,743,721,743,743,744,722,722,721,721,743,745,745,744,741,744,721,722,653,719,719,655,744,721,743,743,721,741,743,744,743,743,722,743,743,745,741,744,744,742,722,722,745,742,742,744,743,722,722,745,745,744,745,722,744,742,745,742,741,744,721,721,742,742,721,743,745,745,721,721,722,742,745,745,745,722,721,741,722,745,721,745,722,721,744,743,721,722,741,745,744,721,722,745,745,745,742,744,741,722,745,722,744,721,741,742,743,721,721,722,721,742,745,743,741,745,743,722,741,745,742,743,722,
722,742,721,744,741,722,745,743,743,722,742,745,721,722,743,722,741,721,744,744,744,743,745,744,722,744,721,743,745,743,745,742,742,722,743,743,742,745,722,721,744,742,745,722,741,722,742,745,743,745,744,653,654,720,655,722,742,721,721,721,742,722,745,743,741,742,744,742,743,744,721,722,741,743,722,722,743,745,745,721,721,741,744,741,743,721,745,744,722,741,722,722,721,741,722,744,721,745,721,722,741,653,719,654,655,744,745,745,722,722,741,742,742,745,743,722,722,745,741,743,744,743,742,745,742,743,722,745,722,742,741,741,745,742,745,743,745,744,744,721,742,744,745,722,743,745,744,721,744,721,741,653,720,720,655,742,743,721,744,743,742,744,741,722,722,741,745,744,721,745,744,743,742,722,743,743,721,745,745,744,741,742,742,744,745,722,745,741,741,744,742,742,721,743,744,741,742,742,745,721,745,744,744,721,721,743,743,743,742,721,744,721,722,745,745,745,742,741,722,741,721,743,742,744,742,722,741,721,742,743,745,744,742,742,741,742,744,721,745,743,722,741,745,744,742,721,744,721,722,743,744,721,721,741,721,745,
721,722,744,745,721,742,721,721,744,742,721,722,742,722,742,742,745,721,722,744,742,744,745,743,741,745,721,743,742,722,722,743,742,743,743,721,742,722,745,742,741,742,741,741,742,721,744,744,742,742,742,653,720,720,655,742,743,742,742,743,743,744,741,743,741,745,742,743,743,722,722,722,742,741,722,743,722,742,743,742,722,721,743,743,744,744,743,743,741,744,741,743,741,742,745,745,743,742,741,744,741,653,719,720,655,744,743,744,741,744,721,721,741,722,742,741,721,742,741,742,741,741,744,742,721,741,742,742,741,744,722,743,721,721,742,744,745,722,721,743,721,741,742,741,742,743,742,744,743,742,743,653,720,719,655,721,741,742,745,721,721,722,745,741,744,744,722,741,741,743,742,722,743,745,744,743,721,744,741,721,742,743,744,721,721,742,721,721,741,744,744,721,743,745,743,744,741,721,742,742,744,745,741,743,744,745,744,722,741,744,721,745,743,742,741,721,722,722,742,744,721,742,722,721,742,742,745,722,743,745,741,745,741,744,743,722,744,722,722,744,742,722,721,743,741,722,722,742,744,743,743,744,745,722,744,745,
721,741,722,722,721,745,742,722,745,721,744,744,722,742,742,742,743,744,741,722,745,722,741,742,743,744,744,721,741,741,722,743,743,742,741,744,722,743,742,743,722,745,722,741,721,741,741,745,742,742,721,653,719,654,655,722,722,722,743,743,742,742,745,742,722,741,741,744,745,741,742,742,721,744,722,722,745,742,744,745,741,745,744,742,722,744,745,721,741,721,722,744,741,741,744,722,631,632,632,632,632,681,654,720,680,632,632,632,632,633,742,743,745,721,722,744,741,721,722,745,742,722,742,742,741,745,745,744,743,745,744,721,722,745,722,741,744,742,722,743,742,744,744,744,745,744,721,721,745,742,722,653,720,654,655,742,741,744,744,742,742,741,744,721,743,721,743,743,743,721,743,722,721,741,722,721,745,745,742,741,721,721,744,742,744,742,744,745,722,744,741,744,721,743,743,742,742,745,721,721,721,741,631,633,721,743,721,745,743,742,741,721,741,722,744,721,742,745,741,744,745,745,744,743,741,721,722,745,744,741,745,744,743,721,722,744,745,743,743,721,741,722,721,741,722,721,741,722,741,721,741,721,744,741,742,721,
742,743,743,741,744,721,742,744,722,741,742,721,743,741,742,722,721,741,741,744,742,722,744,721,722,742,743,743,745,722,722,744,741,744,743,745,742,743,745,744,743,743,745,745,742,745,745,742,744,743,742,653,654,720,655,722,722,741,745,744,745,743,742,745,743,741,742,741,743,744,721,743,722,742,741,742,744,742,742,741,745,744,742,743,743,743,741,721,744,721,721,742,744,741,745,631,681,719,654,654,654,719,719,654,719,720,720,719,720,680,633,721,744,745,742,744,721,743,721,745,721,743,721,741,721,722,742,741,744,744,722,741,741,722,741,745,741,721,741,741,722,721,744,742,742,721,722,741,743,722,745,653,720,720,655,743,721,741,741,721,741,742,744,745,742,744,743,721,742,745,742,721,722,743,745,745,744,742,721,744,741,743,722,741,722,744,721,743,721,745,742,721,744,721,743,744,722,742,743,744,744,631,681,680,633,722,745,741,741,722,745,741,745,742,745,744,742,742,743,743,744,742,743,741,745,721,722,744,741,741,744,745,741,744,722,742,741,741,745,742,745,744,745,744,722,743,741,722,721,722,741,722,743,722,722,743,
742,743,722,743,741,745,722,744,745,722,741,742,741,743,722,743,742,741,744,721,721,742,744,744,742,743,742,721,742,722,743,721,722,741,744,744,744,722,744,745,744,722,743,742,744,741,743,743,741,745,745,653,654,719,655,745,744,743,743,741,721,722,722,722,745,722,722,743,744,742,722,745,743,741,742,741,721,722,744,721,745,742,745,743,744,742,744,745,741,744,743,742,722,743,741,675,659,720,720,654,654,719,719,720,720,654,654,654,720,658,677,744,721,745,721,745,742,722,744,721,744,721,744,743,741,721,743,743,742,742,721,743,742,742,721,744,741,742,744,745,722,742,744,721,722,741,631,632,632,632,632,681,720,719,680,632,632,632,632,633,744,742,741,721,741,743,721,741,741,721,721,722,742,743,745,722,722,722,722,741,744,744,743,741,721,741,721,742,721,721,741,743,722,745,745,721,722,721,743,744,742,653,719,720,655,742,744,745,742,744,745,721,722,743,742,721,721,741,742,742,743,721,744,741,743,742,744,742,721,742,743,721,741,745,745,743,741,721,722,742,742,743,742,742,743,743,721,741,743,744,721,745,744,721,741,743,
744,743,741,722,721,742,742,742,741,721,722,743,741,745,742,744,741,745,745,743,721,742,721,744,745,741,722,721,741,721,721,743,745,745,745,744,742,721,721,722,741,742,742,745,743,744,722,743,745,742,722,653,654,720,655,743,741,744,742,743,741,722,722,721,742,742,722,722,742,744,745,745,744,742,722,743,721,742,742,743,743,742,743,744,744,745,744,744,742,745,743,745,722,743,743,721,675,676,676,676,676,659,654,719,658,676,676,676,676,677,722,741,745,722,741,722,745,744,741,722,744,741,721,744,744,745,742,741,745,741,721,741,721,722,741,722,744,742,721,744,743,722,742,741,741,631,681,719,654,720,654,654,720,654,720,720,720,654,654,680,633,744,744,741,744,722,743,743,721,745,743,744,745,744,742,745,741,744,741,722,722,742,743,745,743,721,744,743,745,722,743,745,742,743,721,741,742,722,744,745,741,653,719,720,655,744,743,722,742,744,721,743,744,744,742,742,743,741,722,721,721,742,741,721,744,741,742,741,721,744,721,743,742,745,744,742,722,741,721,745,722,722,721,721,744,743,743,744,744,722,721,742,741,722,742,721,
743,742,743,721,742,743,721,744,742,744,722,744,721,721,743,743,722,721,743,743,742,744,745,742,741,722,745,744,741,722,722,743,741,744,722,721,722,745,745,742,742,721,742,721,744,721,631,632,632,632,632,681,719,719,680,632,632,632,632,633,741,741,742,741,722,741,745,745,742,722,744,742,741,722,722,744,743,745,743,743,745,722,743,745,744,743,745,721,743,743,722,721,743,745,721,745,742,745,744,721,744,653,720,719,655,743,743,743,744,744,742,744,743,745,742,744,743,743,744,743,741,742,743,744,743,745,743,744,743,741,744,743,743,744,745,721,743,744,722,742,745,745,741,742,744,675,659,720,654,720,720,719,719,719,719,719,720,720,720,658,677,722,743,722,745,745,744,743,722,722,741,722,744,742,721,721,742,722,721,745,721,745,743,721,721,745,744,745,743,721,743,721,744,741,745,722,743,743,741,744,744,653,720,654,655,721,722,721,741,745,722,722,721,744,721,744,741,743,721,722,721,743,744,741,745,742,743,744,745,745,742,722,745,721,741,744,741,744,722,742,721,744,741,722,744,744,741,742,742,745,741,744,722,721,741,741,
721,744,741,741,721,744,744,744,744,745,743,742,744,721,742,744,744,721,741,744,741,722,745,721,744,744,742,722,743,745,742,741,744,743,744,744,744,722,721,741,743,742,722,741,721,631,681,719,654,654,719,654,654,720,720,720,654,720,654,680,633,741,742,741,722,744,743,742,742,745,741,741,744,721,743,741,745,745,743,721,721,722,721,744,742,721,743,745,742,742,742,722,745,745,745,741,744,721,741,721,722,653,654,719,655,722,745,743,722,744,745,721,722,742,744,742,745,721,744,742,742,745,745,745,741,745,743,744,743,721,722,741,745,742,743,745,721,745,743,743,743,721,741,741,722,722,675,676,676,676,676,659,720,720,658,676,676,676,676,677,722,743,742,742,722,742,742,742,743,742,741,743,721,743,741,721,741,745,745,742,744,742,742,722,744,742,744,741,744,722,721,742,745,742,745,745,745,741,745,722,743,653,654,720,655,743,722,745,744,741,744,741,741,744,742,744,744,742,742,743,721,742,742,744,744,743,722,745,742,741,743,743,745,744,744,742,743,744,742,743,721,721,721,745,721,744,721,744,721,722,743,722,742,743,722,745,
741,744,741,744,744,742,743,743,721,742,742,742,742,741,721,744,722,744,743,721,745,745,745,721,721,721,743,741,742,744,745,745,741,722,742,721,742,745,742,721,743,742,745,741,721,675,659,719,720,720,654,720,654,654,720,720,654,720,654,658,677,721,743,742,743,743,742,721,722,742,745,721,722,745,741,722,745,742,745,722,744,745,745,743,745,742,743,741,745,743,745,721,745,742,742,745,745,742,721,741,721,653,654,719,655,721,744,721,744,721,743,745,721,742,722,744,743,742,742,741,745,742,743,744,745,745,744,742,721,722,744,745,745,741,741,741,744,741,745,743,744,743,744,745,745,741,742,744,722,722,744,653,654,654,655,743,741,742,721,743,741,722,721,721,744,721,741,745,744,741,721,744,744,743,721,743,721,742,741,744,743,721,744,743,744,742,743,743,742,721,742,741,743,722,745,721,743,743,721,744,744,653,719,654,655,743,722,742,744,743,742,744,721,742,745,741,741,745,722,743,744,745,722,721,742,721,741,722,744,741,721,743,722,743,743,721,743,743,743,742,744,745,743,741,741,722,741,722,742,742,722,743,721,722,743,721,
741,722,745,742,743,721,743,741,721,722,721,741,722,744,745,742,722,741,722,744,743,742,722,745,721,745,743,743,742,721,743,722,722,745,741,722,744,745,745,722,721,741,744,743,743,744,675,676,676,676,676,659,720,719,658,676,676,676,676,677,742,745,744,742,745,743,743,741,741,741,722,744,743,722,743,721,744,722,742,741,722,745,742,744,722,722,721,742,744,745,742,744,741,741,743,741,741,742,745,743,741,653,654,654,655,721,742,744,741,743,745,742,744,722,744,745,741,742,743,742,721,721,745,745,742,742,741,743,741,721,742,745,722,721,742,741,741,745,741,745,741,741,722,721,743,742,721,741,742,721,742,653,719,720,655,745,743,744,722,722,745,741,745,745,743,742,741,745,745,744,744,742,742,741,741,743,743,743,744,722,743,721,742,721,721,742,741,744,745,741,742,745,722,721,742,744,741,741,743,743,722,653,654,720,655,721,745,744,745,743,721,744,722,743,722,742,744,721,721,743,742,745,721,721,744,744,741,745,743,742,742,721,722,722,744,722,741,744,722,742,722,742,722,742,721,741,744,722,745,743,722,744,722,743,742,744,
742,744,745,722,722,743,744,744,741,743,744,741,742,745,741,742,742,721,722,741,742,745,722,741,722,721,742,743,742,742,741,721,742,742,743,744,742,742,743,741,743,722,745,742,744,744,743,745,722,744,722,653,654,720,655,743,744,741,742,745,745,744,721,741,722,745,744,721,722,743,721,743,742,741,742,742,721,742,744,722,722,745,722,742,742,742,743,744,742,743,744,722,721,741,741,742,744,722,745,742,742,653,719,719,655,744,744,743,744,744,742,744,722,743,741,722,744,743,744,742,722,743,745,745,721,745,742,741,744,742,744,721,744,741,742,745,742,742,742,744,721,744,743,742,744,741,742,722,745,745,743,653,720,719,655,743,744,745,744,742,742,741,742,741,722,721,743,722,745,743,744,743,722,745,741,721,744,721,744,745,742,745,742,743,721,722,721,742,721,722,743,743,743,743,722,741,631,632,632,632,632,681,720,720,680,632,632,632,632,633,722,742,741,721,721,744,742,741,741,721,743,722,744,742,745,745,741,745,743,722,742,741,721,742,741,742,722,742,722,742,741,745,742,721,741,741,741,722,742,745,744,742,744,743,722,741,
722,745,743,742,722,722,721,745,741,741,742,745,721,743,743,745,742,744,741,743,743,741,743,745,722,722,743,743,721,741,721,744,744,743,721,745,745,741,742,722,722,742,741,745,721,745,721,741,721,721,742,653,720,654,655,721,745,743,722,743,721,741,744,743,721,741,742,744,744,742,721,742,742,744,742,742,742,745,745,722,741,722,745,744,744,744,742,745,745,721,744,721,721,721,741,742,741,721,741,743,742,653,720,720,655,722,741,741,722,721,743,744,743,741,742,721,742,721,745,745,742,741,721,742,742,744,722,722,745,743,744,745,722,745,722,745,743,742,745,741,722,742,741,744,743,721,743,742,722,745,745,653,720,720,655,743,722,744,722,744,743,745,741,743,741,743,742,722,745,721,742,745,741,741,721,741,744,721,722,742,743,722,745,722,721,742,745,721,744,741,721,745,742,743,744,631,681,719,654,720,719,720,720,654,719,654,719,654,654,680,633,742,745,745,742,721,722,745,721,744,742,721,743,743,743,745,721,743,743,741,722,745,744,741,745,741,721,745,742,743,721,743,742,741,744,722,741,743,744,741,743,745,741,741,741,721,
741,722,744,742,744,741,742,745,742,744,742,745,721,742,744,743,741,721,741,744,741,722,744,743,745,742,721,744,743,722,745,721,721,744,743,745,743,744,742,744,743,742,741,745,721,744,743,743,742,745,742,653,719,719,655,745,744,742,745,741,721,744,745,744,742,722,741,742,722,722,741,722,722,745,742,722,741,722,742,743,744,722,744,745,744,744,744,743,741,745,742,743,745,721,741,722,721,745,741,744,743,675,659,658,677,743,722,743,744,722,741,721,741,744,744,741,741,744,742,742,744,743,743,741,721,721,742,745,721,741,743,722,722,743,741,742,742,721,741,743,743,721,743,742,721,722,721,742,722,722,722,653,720,720,655,744,722,741,745,742,741,741,742,721,741,744,721,721,743,742,741,722,742,743,745,742,721,743,745,743,721,745,744,744,745,742,744,721,741,744,744,744,742,742,742,675,659,719,720,654,720,719,720,654,720,654,720,654,719,658,677,744,743,745,742,742,741,744,742,743,742,741,744,722,742,744,744,745,721,744,721,744,743,742,743,742,742,743,722,721,741,745,722,743,721,744,742,741,744,741,743,741,745,741,743,721,
744,743,741,745,742,745,744,742,722,745,744,745,741,741,743,745,745,745,742,743,742,741,722,745,744,744,722,721,745,741,722,741,745,742,742,721,741,743,722,722,741,742,743,741,743,742,742,721,745,721,742,653,719,719,655,745,745,722,744,721,745,743,741,744,742,743,722,741,722,744,721,745,721,722,741,721,744,745,742,744,721,743,722,743,741,745,742,741,722,722,745,742,741,745,743,743,722,741,721,743,741,745,675,697,699,744,722,745,722,741,721,721,742,745,741,722,744,721,744,741,721,742,743,741,722,743,741,721,741,744,741,745,742,721,722,742,721,743,745,741,721,745,744,722,742,742,741,741,745,741,743,653,720,654,655,744,722,722,722,741,722,722,745,721,721,721,744,722,742,745,722,722,745,721,743,741,744,743,721,742,741,721,743,743,721,742,744,722,722,722,722,742,741,721,745,721,675,676,676,676,676,659,720,654,658,676,676,676,676,677,721,743,743,721,742,722,741,721,743,741,743,741,722,721,742,743,741,743,741,722,722,722,744,742,741,742,741,742,745,745,721,743,745,743,743,744,745,741,743,741,743,742,744,743,743,722,
721,722,744,745,745,744,722,743,722,745,721,745,722,722,721,721,744,744,745,745,722,745,722,743,744,741,722,745,721,741,743,744,743,742,745,721,722,741,743,741,742,741,742,721,743,721,742,744,743,721,722,653,719,719,655,744,742,744,721,745,721,745,745,721,721,741,721,742,722,744,743,745,743,744,743,743,744,722,721,745,721,745,721,721,722,745,741,722,745,741,741,743,722,745,745,722,743,745,743,722,722,745,744,744,678,638,745,742,722,741,721,742,743,721,741,744,744,743,743,721,743,721,721,742,722,721,745,742,722,721,742,744,743,745,743,721,745,742,721,722,722,745,743,742,722,721,745,743,743,744,721,675,659,658,677,743,744,743,745,742,743,744,744,721,742,722,741,743,745,742,743,743,742,745,743,745,743,745,742,742,745,721,721,722,741,741,741,722,742,743,742,741,722,743,721,743,743,744,741,721,722,653,654,719,655,742,721,744,721,722,721,742,745,742,745,741,742,741,742,744,743,744,743,741,721,743,742,744,722,721,722,745,743,743,742,743,721,742,744,721,722,721,744,744,743,745,722,745,741,744,745,741,743,742,743,721,
743,744,741,741,742,722,742,742,745,745,744,743,742,743,745,741,722,741,741,743,742,743,741,745,745,745,745,721,741,721,742,744,742,744,722,745,745,743,722,722,741,741,744,721,722,721,745,745,721,743,744,653,720,654,655,744,742,722,741,741,741,721,744,742,743,744,745,742,745,741,722,744,745,742,741,743,743,744,722,745,721,744,722,745,745,721,743,722,742,744,721,721,743,721,741,741,742,741,744,741,741,743,743,745,744,678,699,699,699,741,743,744,743,741,742,744,745,741,742,744,745,741,742,742,745,742,722,742,745,721,745,743,742,741,745,741,743,744,742,721,721,744,741,745,722,741,721,743,743,742,744,745,675,697,638,722,722,741,721,742,745,741,721,745,745,722,745,744,741,745,742,745,743,721,744,741,721,722,745,741,742,742,743,743,721,744,741,743,721,722,745,744,742,742,743,743,743,744,745,745,742,653,719,719,655,722,744,741,721,743,743,741,721,742,722,745,722,743,742,722,721,744,742,722,745,741,721,742,745,745,745,745,741,745,745,743,722,741,721,745,722,722,721,741,721,744,744,722,722,741,722,742,741,741,741,722,
741,722,744,741,722,741,741,741,745,741,745,743,744,741,742,721,722,743,745,744,745,721,722,721,742,745,742,721,745,741,742,743,744,742,741,741,741,722,745,741,745,745,745,741,742,722,744,744,742,743,745,675,659,658,677,741,742,741,721,721,721,744,744,721,745,721,744,745,741,722,744,741,722,743,742,721,745,741,721,742,721,742,743,741,744,743,722,742,743,721,742,745,743,721,722,742,743,744,721,745,742,741,722,743,743,722,741,721,634,745,721,745,742,741,722,722,742,744,743,744,744,741,721,745,721,721,741,745,722,721,741,743,745,744,742,743,721,743,744,721,742,745,743,722,721,722,742,721,721,743,742,745,745,721,634,722,722,745,744,745,722,742,721,742,745,742,745,721,721,742,743,721,742,745,741,722,745,742,744,742,722,744,741,722,744,722,745,741,721,722,741,744,745,742,745,745,721,745,743,741,745,653,654,719,655,744,721,745,722,744,744,722,742,722,744,741,742,722,741,741,744,743,742,741,742,743,721,722,743,742,742,743,745,744,722,741,722,745,745,743,741,744,721,742,742,722,742,744,721,722,742,742,721,722,722,745,
742,744,742,721,742,722,722,743,741,745,721,744,741,743,722,722,744,722,745,744,741,743,745,721,741,744,721,722,722,742,742,745,722,744,744,722,742,744,722,721,743,742,744,741,741,741,722,741,744,743,743,745,675,634,744,742,741,722,741,741,721,744,722,743,741,744,745,742,722,741,742,722,722,742,744,745,745,745,743,721,722,742,745,722,721,745,741,741,742,743,745,721,745,741,741,742,744,743,744,743,722,743,743,742,745,721,745,741,634,741,741,744,742,743,722,722,744,741,744,741,741,742,721,721,722,744,744,745,743,743,743,744,742,741,745,721,744,721,721,741,721,721,721,743,745,742,745,744,745,743,742,722,743,743,634,722,742,741,741,722,743,722,743,721,741,742,721,745,741,742,743,743,744,742,721,743,745,743,741,745,742,743,745,741,722,745,721,721,742,745,744,744,743,722,744,745,721,743,744,745,741,653,719,720,655,742,721,722,741,722,741,742,743,744,721,745,741,722,721,744,745,742,721,741,745,742,722,721,741,745,741,722,721,744,744,744,744,722,742,743,721,722,721,722,743,722,742,742,741,721,721,722,745,745,722,742,
743,742,742,741,742,745,721,744,742,744,744,741,741,721,722,721,744,743,744,742,742,744,744,743,744,722,741,741,745,721,744,745,741,745,743,721,741,742,722,741,742,721,741,742,722,744,742,745,744,741,745,721,741,634,743,741,743,744,744,741,745,721,744,741,745,744,743,741,742,743,741,721,744,743,744,743,741,743,743,722,741,721,745,742,722,743,741,744,744,745,722,743,741,722,745,745,744,741,742,722,743,744,741,722,742,742,744,745,678,699,743,743,742,745,743,742,743,721,745,742,742,745,743,721,744,742,741,742,743,745,741,743,743,721,745,741,743,744,745,745,745,741,742,745,743,722,744,744,741,743,742,741,722,741,634,744,721,745,741,741,741,742,722,721,722,742,743,722,722,743,744,741,744,743,741,721,745,721,742,742,721,742,741,744,741,744,741,743,741,721,743,743,722,741,743,721,741,741,745,741,743,653,720,720,655,745,743,744,744,744,722,744,741,743,741,722,744,721,742,722,721,741,745,742,721,742,721,722,745,742,741,743,745,722,743,744,742,742,741,745,741,742,742,721,745,722,744,744,743,741,741,721,722,721,722,743,
745,744,721,722,722,741,721,745,742,745,744,722,745,722,744,741,721,722,743,722,722,743,744,721,743,741,722,744,742,742,721,722,742,745,721,743,722,744,722,742,744,721,721,745,744,722,741,745,744,745,722,741,741,634,744,743,742,745,722,741,744,741,743,745,742,743,745,742,745,721,742,722,745,722,745,742,743,742,741,742,743,722,744,742,721,745,742,743,722,744,742,741,742,722,722,742,721,743,743,742,741,743,742,742,743,741,745,743,742,634,721,722,741,722,722,721,741,745,741,744,721,743,721,722,743,722,743,743,744,743,742,722,741,722,721,743,744,745,745,745,744,722,745,741,742,722,741,745,745,744,722,722,743,742,634,742,721,742,741,722,744,745,742,721,721,741,722,744,741,744,743,743,743,741,743,744,742,741,743,744,741,742,721,721,742,721,721,741,743,742,743,742,721,745,744,721,744,742,743,743,721,653,654,719,655,744,721,721,742,744,741,722,742,745,741,741,742,741,722,743,745,721,743,742,743,743,722,721,744,741,722,741,742,744,742,745,745,721,722,744,742,741,721,745,745,722,743,745,722,744,745,722,745,722,722,744,
721,744,742,745,721,721,743,743,745,722,743,743,722,741,745,742,722,745,741,722,741,721,741,741,745,744,743,742,744,743,722,722,742,741,744,744,745,742,745,721,745,744,743,741,744,741,722,741,722,742,742,741,742,634,743,744,741,741,722,721,744,741,744,722,742,721,721,745,721,743,742,741,743,742,745,741,742,722,721,743,742,741,745,721,722,741,742,743,742,745,742,744,744,744,742,743,744,722,741,744,722,722,743,745,722,741,745,741,722,634,742,721,744,722,742,722,722,745,722,722,721,721,722,742,744,742,743,721,741,744,742,745,721,743,742,741,743,745,745,745,722,742,722,745,741,722,743,722,722,742,722,721,741,744,723,699,721,741,744,744,742,741,745,722,745,743,721,722,743,743,722,743,742,744,743,722,741,742,745,741,742,744,744,745,742,745,722,745,741,721,722,743,745,742,744,722,741,743,742,744,741,675,659,658,677,722,722,742,744,722,742,742,745,742,742,744,743,741,744,741,742,745,742,742,745,744,721,742,742,742,744,744,745,741,722,742,745,743,721,743,741,721,721,742,743,745,744,745,745,744,745,721,745,722,721,741,
745,744,745,744,744,744,722,721,744,741,721,741,721,742,741,741,742,721,745,741,744,741,722,745,722,741,741,721,744,743,743,722,743,743,745,745,744,744,744,741,742,745,745,743,743,744,743,745,745,742,721,741,744,634,741,744,721,745,745,743,744,721,742,743,722,722,741,742,743,745,722,745,742,743,721,721,744,745,742,743,722,722,721,744,745,722,743,722,744,742,743,722,744,741,744,742,741,741,744,743,741,743,741,722,744,744,745,745,745,634,742,741,722,743,741,721,743,743,722,721,742,722,741,722,745,745,744,721,741,742,741,721,744,721,742,745,743,744,721,742,745,721,742,745,745,745,744,741,744,721,741,744,743,722,742,634,741,743,745,742,744,722,721,743,743,722,722,722,743,743,745,742,742,745,741,745,722,721,721,741,744,721,742,743,721,742,721,741,722,722,742,742,744,744,743,744,721,744,722,721,741,742,697,634,741,742,721,721,721,721,722,743,744,743,741,744,721,745,741,721,741,744,722,745,743,743,743,743,745,722,744,721,742,722,741,721,722,742,742,743,743,745,743,743,744,744,745,721,742,743,743,743,741,722,745,741,
743,745,744,743,741,721,721,722,722,743,721,743,742,743,722,741,741,722,742,744,741,743,743,721,741,742,741,742,742,745,744,721,742,742,721,743,744,721,741,721,744,741,721,744,744,722,742,745,743,744,721,741,722,634,743,722,745,722,743,722,744,721,742,721,745,745,743,741,742,742,744,721,743,721,722,743,745,744,745,745,744,741,721,741,741,722,742,721,743,743,743,722,721,745,721,721,721,745,744,744,744,741,745,743,744,745,743,744,744,634,722,745,745,745,742,744,743,722,745,722,721,721,743,722,743,745,722,741,743,722,742,743,744,743,745,742,722,721,745,743,722,744,741,741,722,742,742,742,722,744,721,745,742,744,722,634,721,742,745,743,721,745,722,721,742,745,743,743,741,721,722,721,744,742,743,722,744,721,741,722,721,721,722,722,744,743,744,743,741,742,742,744,744,745,743,744,741,743,721,743,722,742,634,745,743,745,742,744,741,745,741,722,743,745,721,745,741,744,745,742,721,742,743,744,745,745,743,744,744,742,743,741,721,742,721,721,742,745,742,745,742,742,743,745,743,741,741,744,743,722,745,743,745,743,742,744,
742,722,745,742,745,742,743,744,741,745,721,745,742,745,745,742,743,745,722,745,722,745,743,745,744,744,745,742,743,744,745,721,745,743,721,721,722,722,742,741,743,743,742,743,741,744,722,742,745,743,721,743,634,699,744,742,741,745,744,744,745,741,745,743,742,722,741,742,743,744,721,745,721,745,744,745,742,721,742,741,745,742,722,722,742,722,744,721,722,742,741,741,722,743,722,721,721,744,722,721,721,745,745,722,741,721,744,742,745,678,699,699,721,722,743,742,745,743,745,721,745,745,721,722,745,722,744,742,745,721,744,742,743,741,743,741,722,721,745,722,742,741,741,742,722,721,742,741,742,744,743,743,741,745,742,634,741,721,742,744,741,721,742,743,721,741,744,744,722,743,722,742,745,742,744,741,741,722,741,741,722,744,722,742,745,744,744,742,722,721,742,742,722,741,745,721,743,741,741,741,745,721,634,744,722,744,741,722,721,744,722,744,744,721,744,721,742,722,722,745,744,722,742,745,744,743,745,744,743,721,721,744,742,744,721,745,743,743,743,742,742,721,745,722,721,721,744,743,744,745,743,744,745,722,744,722,
742,741,743,742,744,741,741,743,743,721,743,722,744,744,722,745,722,744,742,745,722,722,741,743,744,741,743,722,722,741,721,744,721,722,741,743,721,722,743,721,745,742,745,745,722,721,745,741,742,722,722,744,634,741,744,741,741,742,742,743,722,743,742,742,742,743,722,721,742,743,744,742,741,721,742,742,722,721,743,744,743,743,721,745,744,741,741,741,744,745,721,745,741,722,722,742,741,741,742,745,743,741,742,741,721,743,743,742,743,743,745,634,742,721,722,721,722,744,742,722,721,741,722,745,742,722,742,742,744,741,744,745,722,741,745,721,743,744,743,744,744,745,745,721,741,745,722,741,721,721,744,744,741,745,744,634,721,743,745,744,722,743,741,722,741,721,722,722,721,722,745,745,742,744,741,741,745,722,745,744,722,722,722,744,721,742,721,744,743,742,745,742,742,744,745,743,742,721,743,743,745,745,634,741,743,743,744,721,743,722,745,742,745,745,721,745,745,741,721,721,721,743,743,742,722,745,743,745,743,745,743,743,722,742,721,722,742,743,721,742,741,721,722,721,742,745,743,741,745,741,741,744,742,741,745,742,
722,743,722,745,745,742,742,743,745,745,721,743,741,742,741,721,721,721,745,721,742,722,744,741,745,741,742,743,743,744,744,745,741,722,745,722,744,741,722,742,742,743,744,743,741,721,742,743,721,722,745,745,634,744,745,742,745,744,741,741,741,744,742,741,744,744,721,741,741,742,744,742,742,743,742,744,744,743,721,744,742,743,742,722,721,744,742,742,721,743,741,745,743,743,744,744,742,742,741,722,743,745,742,744,741,741,722,721,742,742,745,678,638,745,743,741,741,721,721,744,745,721,722,721,743,745,743,744,742,743,745,744,722,742,744,744,722,722,721,745,745,721,721,744,722,742,741,741,744,742,743,744,742,742,722,634,721,744,722,741,722,744,722,742,742,722,743,744,743,745,741,741,744,743,741,745,743,744,742,722,745,721,742,741,744,744,745,744,742,742,721,745,741,744,741,741,741,722,745,741,722,634,699,743,745,742,743,745,744,745,744,744,722,744,741,741,722,744,722,743,741,722,744,745,742,741,721,741,744,741,741,741,721,722,743,744,745,721,743,721,721,722,722,722,722,742,743,743,741,741,722,745,722,743,741,742,
721,721,721,722,744,721,741,722,722,743,742,745,722,741,743,722,741,741,744,745,743,741,744,744,722,721,722,721,743,721,722,722,741,721,744,744,742,745,722,722,721,721,741,743,745,743,743,741,741,742,741,742,634,743,743,745,722,742,743,745,745,722,742,721,744,722,721,744,745,743,743,741,721,742,721,722,742,722,745,743,743,741,721,721,722,741,742,742,743,742,742,722,744,743,744,742,722,743,744,722,741,742,743,745,743,742,743,722,741,741,741,721,634,744,722,721,742,744,745,721,745,745,745,741,744,741,745,721,722,743,721,722,721,744,743,745,721,745,722,722,721,743,721,742,744,722,742,745,742,742,721,741,744,741,743,634,741,744,722,721,741,745,743,744,744,721,742,722,741,722,744,741,742,745,743,721,722,722,741,742,722,744,722,744,744,721,743,722,722,745,722,744,745,744,745,721,744,722,722,742,722,634,722,745,745,745,721,745,741,741,742,722,721,744,743,721,741,721,722,744,721,721,745,742,744,744,744,741,741,741,743,741,721,741,744,741,721,745,743,721,721,742,741,744,742,741,741,722,741,742,742,743,741,741,741,743,
745,743,744,721,721,722,722,741,743,722,722,721,745,722,745,742,743,721,743,744,722,745,722,743,742,721,742,722,741,741,722,743,722,745,721,742,721,722,744,745,722,721,742,722,743,722,742,722,721,741,745,722,634,743,741,742,744,744,721,721,741,741,744,722,721,743,721,744,744,741,745,741,744,745,745,721,722,742,744,741,741,721,722,722,721,742,743,744,744,744,743,741,741,722,741,743,721,741,744,745,721,721,721,742,743,744,742,745,722,742,745,722,634,743,744,743,744,743,721,744,744,721,742,745,722,742,721,741,634,721,745,744,745,745,743,721,741,743,744,745,744,721,742,721,742,744,721,742,721,744,742,722,745,743,744,634,721,741,743,742,742,741,721,721,743,744,741,744,722,745,722,722,721,745,741,722,741,722,742,741,745,745,741,721,745,721,741,744,722,722,741,741,721,745,743,745,742,742,744,742,742,634,744,722,744,743,744,741,721,744,744,721,742,742,744,742,744,742,743,742,744,741,743,742,741,722,743,741,722,743,741,721,744,741,722,743,721,744,741,745,743,741,745,741,743,745,741,722,744,741,744,743,742,742,741,744,
744,741,745,741,742,742,743,722,742,743,744,741,745,722,722,743,722,722,742,744,722,721,745,742,722,745,744,743,745,744,743,741,741,742,743,741,721,744,741,745,722,744,721,741,744,745,742,742,744,744,721,745,634,721,742,745,741,741,743,743,743,743,742,722,722,745,743,721,745,743,745,745,745,721,742,741,743,722,745,722,744,744,722,743,742,743,741,742,744,745,743,743,743,745,742,722,743,722,743,741,745,744,743,721,742,744,722,742,742,742,722,722,634,743,743,745,741,744,745,744,745,743,744,741,721,741,741,742,634,721,722,721,741,721,722,741,744,741,742,742,742,745,722,722,722,721,743,744,741,744,741,722,742,745,741,634,741,722,744,741,721,742,745,741,741,741,722,722,742,722,741,743,742,721,745,721,721,743,741,722,742,741,741,744,721,722,744,745,745,745,722,745,721,744,742,742,722,743,745,742,741,634,745,721,744,743,721,745,744,741,742,744,722,745,722,741,745,743,743,744,743,741,721,741,721,741,743,742,743,745,721,721,745,741,721,722,744,745,742,744,722,741,721,722,742,741,745,743,722,742,721,742,742,722,721,743,
744,722,744,743,745,741,742,722,744,744,741,743,741,745,741,745,742,744,741,744,741,741,744,743,743,743,742,721,741,744,722,722,721,745,741,742,743,744,741,743,741,743,743,742,742,744,743,721,721,745,745,722,634,743,743,721,742,743,744,742,721,722,744,743,744,721,722,721,741,743,721,744,741,743,722,745,742,722,745,742,721,742,744,742,721,743,722,742,722,743,722,721,744,741,742,745,721,744,722,741,742,742,743,722,745,745,742,744,742,742,721,721,634,742,721,722,745,741,741,743,722,722,741,744,742,742,741,722,634,745,741,743,745,744,745,745,743,741,744,743,721,722,742,741,722,721,741,721,745,745,745,742,722,745,745,634,722,744,745,743,741,744,743,721,742,742,721,744,745,721,743,744,722,745,744,742,744,721,745,741,741,742,743,722,742,742,722,722,745,744,745,721,741,744,744,743,743,741,722,722,744,634,741,722,743,744,744,741,744,745,744,743,742,722,745,722,744,744,744,745,741,745,721,745,741,742,743,722,722,744,744,722,722,744,743,743,741,722,722,722,722,745,742,745,745,721,722,741,743,741,745,743,744,721,744,744,
722,721,722,743,741,742,744,744,745,721,742,721,744,745,721,721,722,722,742,741,742,745,744,743,743,745,742,744,745,722,741,742,742,721,743,744,722,721,742,721,722,744,744,742,744,741,744,743,744,742,744,744,634,745,745,745,743,741,741,745,722,742,742,745,745,743,745,721,744,741,744,743,741,743,741,742,745,744,741,721,742,741,743,741,721,741,742,744,721,742,742,743,745,722,722,745,741,744,722,744,741,721,745,742,745,722,722,741,741,744,741,745,634,721,742,722,744,744,722,744,744,743,741,743,744,741,741,743,634,742,722,744,742,721,742,741,743,742,744,744,741,745,722,743,745,722,743,743,722,745,742,745,742,744,741,634,745,722,742,721,745,744,722,745,745,742,742,745,742,743,743,721,745,722,745,742,742,742,741,721,744,745,745,722,743,722,741,722,721,722,744,721,745,741,744,721,742,743,741,741,744,634,744,741,744,743,745,745,743,745,741,742,744,721,721,742,745,743,742,745,742,741,744,742,744,722,742,744,743,745,722,722,743,721,721,743,721,741,745,722,742,743,722,741,744,721,745,741,743,722,741,745,745,745,721,721,
721,743,722,745,742,722,743,741,744,721,742,744,743,744,741,744,721,745,742,743,742,743,745,743,722,743,721,745,721,721,745,741,741,743,744,744,743,721,721,741,745,742,741,721,741,741,721,721,741,722,744,742,634,741,721,722,743,744,744,722,741,745,744,721,744,742,742,743,745,721,741,741,721,744,742,743,743,721,741,721,722,721,745,741,722,745,744,745,743,744,722,742,741,745,721,721,745,722,744,722,741,721,744,721,741,743,745,745,742,742,721,744,634,742,745,743,741,722,741,745,742,741,722,741,744,721,741,743,634,722,743,722,721,741,745,742,721,741,745,744,743,744,745,742,742,745,741,744,742,743,721,721,743,745,744,634,722,744,721,744,722,743,721,745,742,722,741,722,721,743,741,744,744,743,741,745,743,744,741,742,722,745,722,741,722,742,745,741,743,722,742,721,745,721,722,742,742,745,741,742,721,634,743,741,741,741,721,722,744,721,721,742,721,741,721,721,721,722,722,741,721,743,741,741,743,722,743,745,721,721,745,722,741,722,744,745,721,722,722,743,721,722,741,743,745,744,741,744,745,744,744,743,743,745,745,744,
721,721,741,722,722,722,744,721,741,742,742,745,744,743,743,745,741,722,742,722,744,745,742,745,721,742,741,721,744,744,744,745,744,741,741,741,722,722,744,741,721,745,743,722,743,743,722,741,745,741,721,741,634,722,721,741,745,743,743,721,741,745,741,744,744,743,744,743,745,721,744,744,745,745,742,742,722,722,743,722,742,745,744,742,743,722,741,744,745,741,722,741,721,745,743,744,743,744,744,743,742,745,742,741,743,742,745,745,743,743,745,742,634,742,743,722,721,743,721,745,742,722,741,742,745,722,744,744,634,721,742,722,742,745,742,741,742,743,745,722,742,722,741,741,722,742,742,721,743,722,721,741,742,745,742,634,741,745,742,743,722,721,741,721,721,721,742,721,745,743,745,722,743,721,721,722,743,721,742,722,743,721,745,742,722,744,743,743,745,721,743,722,741,743,722,745,743,722,721,741,742,634,721,741,741,745,722,744,742,743,744,721,745,742,721,742,745,741,722,742,743,721,721,744,742,721,741,743,743,722,722,721,741,741,742,721,745,745,743,722,742,741,742,721,721,721,742,744,721,743,721,742,745,721,745,742,
744,743,745,741,743,742,721,741,743,741,745,742,741,722,742,721,743,721,722,744,722,743,745,722,741,722,742,722,744,743,722,721,721,743,743,741,743,721,741,722,744,745,722,722,722,745,741,743,744,745,743,744,634,745,721,742,744,722,743,741,722,744,743,722,742,741,742,744,745,743,741,745,744,744,721,745,743,745,744,721,721,742,741,741,721,745,741,744,722,722,722,743,745,743,741,742,741,744,743,742,745,721,744,741,745,742,741,742,743,744,745,744,634,741,743,722,742,741,722,745,742,742,743,742,742,741,743,745,634,743,722,722,744,742,743,722,744,744,721,743,722,721,742,741,745,721,741,743,741,721,722,744,721,741,721,634,743,744,745,742,742,743,743,742,745,745,742,722,721,742,742,741,721,722,742,745,744,744,744,744,742,742,745,744,745,721,722,745,744,742,743,745,721,744,743,742,745,742,721,743,744,634,741,722,721,744,741,743,721,744,742,744,722,743,742,741,743,745,745,743,721,722,722,741,744,743,741,743,743,721,743,722,721,742,744,744,742,722,741,721,721,721,742,743,745,745,721,743,743,722,743,744,721,745,721,745,
745,744,743,742,741,742,742,721,745,742,744,721,722,721,722,745,744,745,744,721,742,721,743,722,741,744,743,742,722,745,743,721,743,742,743,745,745,745,742,741,721,741,741,741,721,722,745,744,743,722,741,722,634,742,721,743,722,722,744,744,742,743,745,741,745,721,742,721,744,744,721,744,722,743,744,741,744,742,722,745,722,742,741,722,721,741,721,743,721,722,744,745,745,721,721,741,721,741,743,742,744,722,742,745,744,721,741,745,743,742,743,742,634,721,742,721,722,742,722,744,721,745,721,721,741,721,721,722,634,722,741,745,722,743,745,743,722,741,721,741,721,722,741,722,721,721,742,721,721,745,745,722,721,634,699,699,722,744,741,741,745,745,745,721,743,744,742,743,742,745,744,721,722,744,743,742,721,743,742,745,721,745,742,743,722,741,744,745,741,721,745,741,742,742,721,744,745,721,743,744,745,634,745,722,745,742,741,743,745,745,743,721,741,744,741,722,741,721,741,745,745,721,742,744,744,744,741,721,744,742,741,742,722,745,741,721,742,744,741,745,742,742,722,721,743,742,744,744,721,741,721,741,722,722,745,745,
745,743,744,741,742,722,742,744,744,745,745,744,743,741,742,744,743,742,721,722,721,744,634,741,745,742,744,721,744,722,631,632,632,632,632,633,743,745,721,742,745,634,634,743,743,742,742,741,741,722,742,743,634,741,744,745,743,745,741,721,722,741,722,742,722,744,743,744,721,721,744,742,721,741,722,744,743,744,741,744,745,722,744,722,721,742,742,743,745,744,722,743,721,741,722,742,743,742,721,722,722,742,722,722,722,744,722,745,745,744,722,742,634,741,745,722,721,744,742,744,742,722,721,741,741,744,743,741,634,722,742,741,742,721,741,722,722,744,742,744,722,744,745,722,722,745,742,745,745,741,743,744,743,634,744,742,741,721,721,722,745,742,745,742,722,743,721,743,742,744,745,745,744,721,722,741,744,744,744,741,744,745,742,722,744,744,744,722,745,744,722,743,721,722,743,742,721,744,722,745,745,634,745,722,722,741,721,741,742,745,721,745,722,744,722,721,741,743,744,742,741,742,745,743,743,741,741,744,745,722,742,721,742,742,741,743,745,721,745,743,743,745,741,721,744,721,722,722,741,743,742,744,743,722,743,742,
741,722,743,744,743,722,722,721,743,721,741,721,721,742,741,722,743,743,742,742,741,745,634,745,631,632,632,633,721,631,681,719,719,720,654,680,632,632,632,632,632,634,741,742,743,722,744,742,744,742,744,745,634,745,741,745,722,742,722,744,743,743,721,745,722,744,743,741,742,742,721,743,721,741,742,744,743,745,721,745,744,743,722,743,742,721,741,742,721,743,722,741,745,722,745,745,742,743,743,742,743,742,744,745,722,744,721,741,742,721,745,744,723,699,697,699,721,745,741,722,741,744,742,741,722,742,721,743,634,744,741,744,745,722,741,721,721,721,744,742,721,742,741,741,722,743,745,742,743,743,741,742,721,634,743,743,743,741,745,722,744,744,741,743,743,744,745,743,743,744,742,722,745,742,722,722,744,745,741,722,745,745,741,745,741,743,744,745,743,744,741,741,743,744,741,745,745,741,742,721,697,656,742,745,743,744,722,722,745,745,741,721,743,744,741,745,742,741,745,742,722,722,745,744,742,722,722,744,742,741,745,721,744,743,743,721,721,743,742,741,722,742,742,742,745,741,742,744,722,741,722,742,745,721,722,745,
742,745,745,745,745,741,722,743,721,745,721,744,742,722,721,744,741,722,741,743,722,631,634,632,681,720,654,680,632,681,654,720,720,654,719,719,654,719,654,720,654,680,632,633,744,721,743,744,741,722,741,745,634,742,721,745,744,741,722,741,742,722,721,745,745,745,743,742,721,742,722,743,745,722,744,742,722,741,721,721,722,744,743,722,721,722,722,722,745,742,744,721,721,741,744,741,721,745,741,721,742,744,742,742,744,743,741,745,741,741,742,722,745,741,722,678,699,741,742,745,743,745,721,745,722,743,745,742,634,722,722,742,722,721,742,742,743,745,744,742,722,745,745,741,743,742,722,722,745,743,744,743,721,634,742,743,745,742,741,743,745,741,742,721,721,722,743,743,722,721,744,742,741,744,741,722,745,722,721,741,721,722,745,743,722,743,721,741,721,721,742,742,631,632,633,722,741,745,745,742,741,634,745,745,722,741,742,744,745,721,741,745,721,743,744,721,744,741,722,741,722,744,741,742,743,721,722,745,721,721,744,743,721,743,742,721,745,743,745,742,742,743,743,744,743,743,742,745,741,722,743,744,742,741,741,743,
742,722,721,744,745,741,741,741,743,722,721,745,742,721,744,744,741,744,744,745,631,681,719,654,654,654,719,720,719,720,654,720,654,720,654,720,654,720,654,719,654,654,720,680,632,633,722,742,743,742,744,743,745,744,742,742,722,744,744,744,742,743,743,742,743,743,722,742,744,741,743,741,742,745,742,745,722,634,741,745,741,742,721,743,743,721,745,741,744,741,742,745,743,721,721,744,722,741,743,721,743,721,722,741,743,742,721,745,742,721,745,741,743,745,741,742,634,721,741,722,721,741,743,742,744,722,722,742,634,744,745,722,721,721,722,743,741,721,742,722,745,741,744,722,745,744,741,722,722,741,741,742,745,634,744,743,744,742,744,745,721,722,742,745,745,741,742,741,743,721,741,741,744,722,741,743,742,745,721,722,744,722,721,742,722,744,742,631,632,632,632,632,681,719,680,632,632,632,632,633,722,634,721,744,741,745,742,634,722,742,721,721,745,741,741,742,743,741,745,743,722,741,721,744,741,744,721,743,744,742,743,742,745,742,742,745,721,721,745,745,721,722,721,722,721,721,721,745,742,721,721,744,743,743,745,745,
721,722,741,743,721,742,741,743,722,744,722,743,745,744,745,744,741,743,631,632,681,654,720,654,654,654,719,719,719,719,654,720,654,719,719,719,720,654,720,720,654,719,719,720,720,680,633,743,721,743,741,742,741,744,745,722,743,741,745,742,742,743,722,722,744,721,741,721,741,745,721,744,744,744,722,743,722,634,743,741,742,745,721,741,743,743,742,742,722,721,722,721,722,741,742,721,745,742,721,741,741,743,634,745,743,741,722,742,722,743,743,742,722,722,743,744,634,722,745,742,744,744,721,721,744,742,744,697,656,741,741,743,741,745,744,745,744,741,745,742,741,745,741,722,743,745,745,722,741,742,741,744,741,723,634,744,743,743,741,741,721,721,741,741,722,743,721,742,741,743,721,721,742,741,742,744,722,721,721,721,721,722,745,742,742,741,631,681,720,720,654,654,720,719,719,719,719,719,720,680,632,634,721,722,722,721,722,634,744,722,721,743,741,742,721,634,697,634,722,744,744,745,745,742,743,722,745,742,722,743,721,745,721,721,721,721,741,741,721,745,742,741,745,741,744,721,742,741,722,741,744,741,722,741,743,745,
744,743,743,741,745,744,742,745,722,742,743,742,631,632,632,632,632,632,681,654,720,719,719,654,654,720,720,720,719,719,720,719,654,719,719,654,654,654,654,654,654,654,654,654,654,719,680,632,633,743,721,722,742,745,743,722,741,743,742,721,721,741,741,722,722,722,744,745,741,744,744,741,743,745,741,744,721,634,744,745,742,742,744,744,721,742,744,721,745,743,744,745,745,741,721,741,742,745,741,745,745,742,634,722,742,744,742,742,741,722,742,721,721,745,631,632,633,741,722,743,744,744,743,722,745,743,722,744,634,744,742,721,745,722,744,742,721,742,741,742,721,742,742,721,742,744,742,741,722,742,741,743,745,741,721,743,745,744,722,721,745,745,742,744,742,721,744,745,743,722,745,744,744,721,721,745,745,743,721,743,741,744,744,722,741,631,681,719,654,654,719,720,719,654,654,719,654,719,720,719,654,680,632,632,633,745,722,634,722,745,743,722,742,745,741,634,722,745,745,741,722,741,745,741,722,742,743,722,721,722,745,722,743,745,721,745,721,745,742,721,741,722,722,744,741,722,743,744,744,744,721,742,744,744,744,742,
744,743,741,722,742,745,742,743,745,743,631,632,681,654,719,720,654,720,654,654,654,719,719,720,720,654,654,658,676,676,676,676,676,676,634,676,676,659,719,654,719,654,654,719,654,719,720,719,680,632,633,722,742,722,745,745,743,743,745,721,722,741,742,743,745,743,722,745,743,744,743,742,745,722,721,741,742,634,744,744,722,721,743,744,741,745,742,745,742,722,722,744,743,743,741,741,743,742,743,742,722,742,678,699,699,744,631,632,632,632,632,632,632,632,681,719,680,632,632,632,632,633,722,722,743,741,744,721,634,743,741,741,745,722,744,741,744,744,721,741,745,743,722,741,722,742,722,744,721,741,745,742,741,745,721,745,742,741,743,741,744,745,742,742,721,722,744,722,743,742,745,743,721,722,742,742,745,634,742,741,742,741,631,632,632,681,720,720,720,720,720,654,720,654,654,720,654,720,720,719,719,654,720,654,680,632,632,634,741,742,742,743,721,743,721,634,741,721,744,742,721,742,741,742,743,741,742,722,742,721,742,722,741,722,721,741,743,744,744,742,722,745,745,743,745,721,743,721,743,745,721,722,722,722,721,743,
744,741,743,741,743,741,722,744,742,631,681,654,654,720,654,720,654,720,719,720,720,720,720,720,658,676,676,677,745,742,722,742,721,634,704,743,722,675,676,676,634,659,719,719,720,654,719,720,654,719,680,633,722,744,722,721,721,743,722,745,744,742,743,722,744,721,741,742,741,742,722,742,742,745,743,744,745,634,745,742,745,743,741,744,742,722,742,743,722,741,744,742,743,743,741,742,743,721,721,742,745,721,745,743,634,632,681,654,719,720,719,719,719,720,654,719,719,719,720,654,720,680,633,744,745,745,741,742,634,722,741,722,744,634,741,742,741,744,744,743,744,741,742,721,743,743,721,745,741,744,721,744,744,742,741,722,742,745,722,742,722,721,742,741,741,744,741,722,722,745,744,721,743,741,745,742,722,634,744,745,722,631,681,719,719,654,720,720,720,654,719,720,654,719,654,719,654,720,654,654,720,720,654,720,654,654,719,680,632,633,741,743,745,745,744,634,721,745,741,721,721,721,743,721,743,741,722,744,744,721,741,722,721,722,745,721,741,742,722,744,744,742,743,721,741,721,721,741,743,743,741,721,721,745,743,745,
721,721,744,743,742,631,632,632,632,681,654,720,719,719,720,720,720,720,719,719,658,676,676,676,677,741,721,722,743,742,744,742,721,634,742,722,741,742,741,745,634,675,676,659,720,720,719,654,719,720,719,680,633,722,741,742,722,744,721,744,744,741,745,745,743,744,721,745,741,742,742,741,743,744,741,745,741,634,721,744,741,721,743,741,743,722,742,743,741,722,722,722,743,742,741,743,721,745,721,722,722,631,632,632,681,654,719,719,720,719,654,719,654,654,719,654,720,720,720,654,654,719,680,633,722,741,745,741,634,743,742,743,743,634,744,721,742,721,743,745,721,741,743,741,743,745,741,742,745,743,722,721,744,741,745,744,742,743,743,744,743,741,745,722,743,722,745,722,741,744,741,744,741,722,722,741,743,678,699,699,631,681,720,719,654,720,719,654,720,720,658,676,676,676,676,676,676,659,720,654,654,654,719,720,720,719,719,654,719,680,633,721,745,722,721,634,721,743,745,743,741,745,744,721,744,722,722,742,721,741,742,722,743,744,722,744,742,722,744,745,743,743,721,742,741,744,722,745,744,744,744,721,742,743,721,745,
742,742,743,631,632,681,719,654,720,654,720,719,720,654,719,654,658,676,676,676,677,744,722,744,722,722,741,722,743,742,721,745,721,634,722,743,743,743,742,744,634,742,744,675,676,659,719,720,720,719,654,654,680,633,743,743,742,742,721,742,722,743,741,745,741,742,741,741,721,744,743,722,742,722,743,743,744,634,744,741,745,722,721,722,743,742,741,742,721,742,743,743,745,743,742,744,742,741,722,743,631,681,720,719,720,720,719,719,654,719,654,654,719,719,654,719,719,654,719,654,654,720,719,680,633,744,743,742,634,742,721,742,721,634,722,721,722,741,743,742,745,741,741,722,721,741,721,722,743,742,722,743,741,745,744,743,741,722,741,722,743,721,741,722,742,722,741,722,742,722,721,722,742,743,744,745,722,722,741,634,681,654,720,720,654,719,658,676,676,676,677,744,721,743,741,721,744,675,676,676,676,659,654,719,654,654,720,719,654,720,680,633,721,722,745,634,721,741,744,745,744,745,745,744,743,721,742,745,741,722,742,722,721,743,741,721,744,743,745,722,742,745,742,722,741,745,741,743,744,743,741,742,631,632,632,633,
743,631,632,681,654,719,719,720,720,654,719,719,654,719,658,676,697,638,722,744,742,745,741,744,745,744,721,745,741,744,721,721,721,634,722,745,743,744,722,744,634,741,744,721,744,675,659,654,720,719,719,719,720,680,633,745,744,744,745,634,741,745,743,741,741,722,744,721,721,742,721,721,742,721,722,744,742,634,743,744,742,741,743,744,743,745,745,722,743,743,743,742,745,744,721,721,741,742,744,631,681,720,719,654,719,654,720,654,720,720,658,676,676,676,659,719,658,676,659,719,720,720,654,719,680,632,632,632,634,632,632,632,632,634,633,741,743,722,743,742,745,741,742,721,721,722,721,745,722,744,721,634,741,722,741,741,741,722,745,742,743,741,743,721,721,721,744,745,744,745,744,741,741,743,721,744,742,631,632,681,719,719,720,658,676,676,634,742,741,744,743,743,722,742,745,743,721,743,743,743,745,675,659,720,654,654,719,719,720,719,654,680,633,745,744,634,741,722,741,722,742,744,743,741,721,743,741,743,744,721,742,742,722,721,742,745,721,745,744,741,721,744,742,742,745,721,744,743,722,631,632,632,681,719,720,680,
631,681,719,720,719,654,720,720,720,654,654,719,658,676,677,741,743,634,742,745,745,745,721,743,745,744,745,744,745,741,745,743,745,634,742,745,722,722,722,743,634,721,722,742,743,745,675,676,659,719,654,719,654,720,680,633,743,743,742,634,743,745,742,744,722,743,741,722,742,742,721,722,745,744,744,741,744,634,743,741,741,745,741,741,721,741,741,721,722,722,743,742,743,742,745,741,742,722,631,681,654,720,654,719,720,720,654,654,658,676,677,745,742,743,675,676,677,745,675,659,654,719,719,720,719,720,720,654,719,719,654,654,720,654,680,632,633,721,744,741,722,721,742,745,744,721,742,742,722,742,742,634,742,744,722,743,741,743,741,745,745,745,745,721,721,743,744,743,745,743,745,743,741,743,722,743,631,681,720,654,654,719,658,677,742,744,634,741,722,743,721,742,721,741,721,721,742,741,745,741,741,722,634,676,676,659,720,654,720,654,720,720,680,632,632,634,633,745,743,721,743,721,722,722,741,742,744,742,742,743,722,741,744,742,743,721,742,744,741,743,745,741,722,742,721,745,741,743,631,681,654,720,719,719,719,719,
681,719,654,719,654,719,719,720,658,676,676,676,677,744,743,744,722,678,699,697,699,743,744,721,744,744,722,721,743,743,741,744,741,723,697,634,743,745,745,743,634,741,741,722,722,722,721,744,675,676,676,659,720,720,719,680,633,742,745,634,745,741,745,745,742,742,722,745,744,742,742,741,721,744,743,741,742,634,742,722,744,721,745,744,721,634,742,722,741,722,722,722,741,721,742,745,631,632,681,719,719,719,654,654,658,676,676,676,677,721,742,721,722,745,744,722,743,743,722,675,659,719,654,720,654,719,654,719,720,720,719,654,719,654,719,719,680,633,741,744,744,744,741,744,745,743,741,721,721,745,722,634,721,744,721,745,741,743,744,741,743,721,745,743,745,744,743,741,742,722,741,742,722,745,631,632,681,719,654,719,719,658,677,722,743,741,634,741,721,745,742,742,741,742,721,742,744,722,742,722,742,745,634,741,722,675,676,659,654,720,720,720,654,720,654,720,680,632,632,633,721,745,744,721,721,742,741,745,743,721,721,742,744,742,742,722,722,744,743,741,743,743,745,741,722,741,721,631,681,720,719,654,719,719,719,720,
719,720,719,654,654,720,654,658,677,721,743,741,742,744,722,744,721,744,742,742,634,743,744,743,741,743,742,742,744,742,741,743,742,745,722,721,741,745,721,741,634,721,742,743,722,722,721,743,721,744,744,675,659,654,654,654,680,632,632,634,745,722,721,745,741,743,721,722,745,745,743,721,722,744,722,742,745,634,745,721,744,741,741,745,742,634,722,722,743,744,745,722,744,721,742,631,681,720,654,720,654,719,719,658,677,742,721,741,743,741,721,722,721,722,743,741,721,722,722,631,681,654,719,719,719,719,654,654,654,654,719,719,720,719,720,719,654,655,745,743,742,721,742,744,742,744,745,743,741,741,721,634,744,742,722,743,741,744,742,722,742,743,745,742,744,743,721,721,744,744,742,722,744,631,681,654,720,720,654,658,676,677,741,743,722,722,634,743,741,742,721,744,745,744,741,745,721,741,744,741,743,741,634,742,722,745,742,675,676,676,659,720,720,720,720,719,720,654,720,680,633,742,742,741,722,745,741,742,742,741,721,743,741,721,744,741,741,721,744,744,722,743,744,631,632,632,632,681,654,720,654,654,720,719,654,720,
719,719,719,654,720,658,676,677,741,743,722,722,742,722,745,721,741,722,743,721,634,742,743,741,742,741,745,722,744,743,722,741,742,722,721,721,745,743,744,745,634,743,721,741,741,743,744,722,741,742,745,722,675,659,719,654,719,720,654,680,633,742,721,744,745,721,742,722,744,744,722,745,721,744,744,721,741,634,741,722,744,742,741,744,744,634,721,722,742,741,745,744,697,699,634,681,654,720,720,720,658,676,676,677,744,742,741,744,745,745,742,722,742,743,743,741,741,742,631,681,719,720,654,654,720,654,654,720,720,720,719,720,654,719,719,719,720,655,741,744,721,722,741,741,743,743,722,745,741,742,743,634,722,742,745,745,744,745,742,741,634,744,744,722,742,744,721,741,742,744,741,743,631,681,654,720,719,654,658,677,744,741,743,743,744,745,634,743,743,744,744,741,745,742,745,721,742,721,742,745,741,721,634,722,721,743,743,722,745,741,675,676,659,720,654,720,719,719,654,720,680,633,744,743,745,745,721,742,745,743,743,634,742,744,744,741,745,743,741,743,741,631,632,681,720,654,719,720,654,719,719,719,720,719,719,658,
659,654,719,658,676,677,744,742,741,741,743,722,742,741,741,722,722,743,722,742,634,745,743,743,745,745,742,741,743,744,745,744,741,721,722,722,745,743,721,742,634,722,722,742,721,745,721,744,741,721,741,744,721,675,659,719,720,720,654,720,680,633,721,744,722,743,741,741,742,721,722,744,741,741,741,742,741,634,741,721,745,721,722,743,744,634,743,745,744,741,721,742,745,631,681,654,719,654,719,658,697,699,697,699,699,699,699,699,697,634,744,741,722,745,742,743,744,722,653,720,720,654,719,719,719,654,719,719,719,719,654,720,720,720,719,654,654,697,697,697,635,698,635,699,699,634,741,745,745,742,743,634,745,721,745,721,741,744,721,742,634,741,721,721,744,742,742,744,741,745,722,631,681,720,719,720,658,676,677,745,743,743,742,743,722,721,723,697,697,634,744,741,722,741,741,721,744,721,742,745,745,741,634,745,721,745,743,742,721,743,742,744,675,676,676,659,719,654,719,654,719,680,632,633,722,721,741,721,722,742,742,634,741,741,722,744,744,744,741,631,632,681,654,654,719,654,719,654,720,720,720,719,658,676,676,677,
675,676,676,677,721,741,745,741,745,744,722,745,745,743,743,743,741,744,741,722,678,697,634,744,722,721,722,741,722,721,745,722,742,721,722,744,742,722,741,742,634,743,741,721,743,741,742,721,745,722,745,722,721,722,675,659,654,720,720,720,720,655,744,745,745,745,744,743,741,742,744,742,722,741,745,721,742,634,745,722,745,745,721,742,741,634,745,721,741,721,721,743,631,681,720,720,719,719,658,677,721,745,722,722,721,743,745,744,722,721,634,698,635,699,697,697,699,697,638,659,654,720,719,720,720,719,654,719,720,720,719,720,719,719,719,720,658,677,742,744,678,639,704,722,745,722,697,699,697,699,697,697,699,699,697,634,745,722,743,722,634,741,741,741,741,743,721,721,741,631,632,681,719,720,654,658,677,721,742,742,743,743,745,722,743,744,742,743,745,744,721,741,745,722,722,741,743,745,743,742,722,722,634,744,744,743,721,743,741,722,721,745,721,741,741,634,659,719,720,720,654,720,654,680,632,633,743,745,721,745,741,678,699,721,744,743,631,632,632,681,719,720,719,654,720,720,719,720,719,654,658,676,677,722,743,743,
722,722,722,722,722,741,745,743,742,742,745,743,745,741,722,722,743,743,722,744,743,721,745,721,742,722,741,721,721,741,744,743,742,722,741,741,744,722,745,721,634,741,721,742,742,741,742,744,744,745,741,741,743,741,743,675,659,654,654,654,654,680,632,633,721,721,741,744,744,741,745,743,742,721,745,743,722,634,744,744,745,743,741,721,744,634,722,744,742,722,631,632,681,654,719,720,654,720,655,722,745,722,721,722,744,721,745,744,742,742,678,701,704,722,721,743,741,744,634,675,659,720,654,720,720,720,720,719,654,654,654,720,720,720,720,719,655,744,743,742,743,741,721,721,722,743,721,721,721,742,745,722,721,721,741,721,697,699,699,699,727,699,697,634,744,741,745,631,632,681,719,720,720,719,658,677,743,721,744,745,722,743,742,722,744,744,743,722,721,742,744,743,721,743,745,721,745,743,744,697,699,699,704,741,722,741,722,721,742,745,742,721,721,742,722,634,675,659,654,719,719,720,719,720,719,680,632,632,632,632,632,632,634,632,632,632,681,654,720,654,719,720,720,720,654,720,654,654,720,658,677,722,741,721,741,745,
744,745,745,741,721,722,722,722,745,742,741,743,721,722,743,744,721,743,742,745,721,722,741,742,742,745,745,742,721,741,745,742,722,743,722,744,741,721,743,722,634,697,634,722,745,745,743,721,745,745,744,721,743,743,745,744,675,659,720,654,720,719,720,680,633,745,721,721,721,744,744,743,722,722,743,741,741,634,745,743,745,743,741,745,741,634,742,631,632,632,681,720,720,720,719,719,654,658,677,722,741,722,741,743,722,743,742,745,742,721,743,745,741,745,722,741,722,743,634,721,675,659,654,720,654,719,654,720,654,720,719,654,654,720,719,720,680,633,743,722,741,741,741,742,742,743,745,744,722,743,721,743,745,742,743,721,722,721,744,744,721,742,743,742,634,744,631,681,719,720,720,654,719,658,677,741,742,742,743,741,742,745,744,741,744,744,721,744,745,743,744,744,742,741,722,722,743,721,743,741,744,722,745,741,743,745,742,744,743,722,742,745,722,722,634,699,722,675,676,676,659,720,719,654,720,719,720,720,654,719,719,719,654,719,654,719,719,719,654,654,654,719,720,720,720,658,676,676,676,677,743,742,745,721,722,741,
743,722,741,741,722,745,745,744,743,722,742,744,722,743,743,721,721,743,721,743,744,741,744,721,745,744,722,745,744,745,743,743,745,722,721,721,722,722,742,742,634,742,741,721,744,745,743,721,722,721,741,745,744,722,745,744,742,675,676,659,654,720,720,719,680,633,745,722,742,741,742,741,744,743,745,741,742,634,744,745,741,745,722,722,743,634,631,681,720,719,720,719,654,719,719,719,658,634,742,742,741,743,722,744,741,721,745,722,743,722,745,742,743,745,742,742,745,741,634,744,721,675,659,720,720,720,654,719,719,720,654,654,720,720,654,654,720,680,633,741,722,721,742,741,721,742,744,742,743,741,744,742,722,741,742,721,741,744,744,721,721,742,741,745,743,631,681,719,720,654,720,658,676,677,744,741,742,721,721,741,745,742,722,742,741,741,722,743,721,743,722,722,742,742,741,721,742,743,721,741,722,742,745,742,742,743,722,721,742,742,743,722,745,743,634,742,742,722,745,721,675,676,676,659,719,720,720,654,719,719,654,720,654,720,654,720,719,719,719,720,654,654,720,658,676,677,741,744,744,743,721,742,743,721,721,721,
745,745,744,721,742,745,721,742,744,745,742,745,744,741,745,745,743,741,743,742,721,744,721,743,742,722,742,722,745,744,742,742,744,722,743,744,721,745,745,722,634,742,722,745,745,721,722,741,722,743,742,722,744,744,744,744,741,721,722,675,659,719,654,720,720,680,632,632,632,633,722,741,742,744,721,742,744,634,722,722,742,744,722,721,742,634,681,720,719,719,719,654,658,676,676,676,677,634,744,741,721,722,744,741,742,742,742,721,721,744,743,745,722,745,741,743,697,697,704,721,741,745,675,659,720,720,654,720,719,719,720,719,720,720,719,654,719,719,680,632,633,741,741,722,742,721,721,742,743,741,634,699,634,743,742,741,743,722,743,741,742,721,742,744,631,681,654,720,654,658,676,634,744,741,722,743,744,743,743,744,743,743,744,722,721,721,721,722,745,743,722,722,722,722,721,722,741,742,744,745,742,721,744,742,721,744,742,744,722,743,745,722,742,743,634,744,744,745,743,742,745,722,741,675,659,654,720,654,720,719,719,720,654,654,720,719,654,654,719,654,720,654,658,677,744,743,743,743,722,721,744,743,722,745,743,743,
742,744,742,742,742,744,743,745,722,722,742,742,741,745,743,744,744,721,742,722,744,745,745,745,722,743,745,722,721,745,722,722,721,745,721,741,742,743,744,744,634,743,742,745,744,721,742,722,743,722,744,745,743,722,742,722,742,721,722,742,634,676,659,654,720,719,720,654,719,680,633,745,741,745,745,743,743,634,721,744,744,722,631,632,632,681,654,720,654,719,654,658,677,742,722,744,744,634,722,742,742,742,743,722,745,722,722,742,744,722,744,745,722,742,722,743,721,721,741,742,745,721,741,675,659,719,719,654,719,654,654,654,720,658,676,659,654,719,719,654,680,633,741,742,742,722,721,745,742,742,634,744,744,722,743,745,745,721,722,742,631,632,632,632,681,654,720,720,658,677,722,634,741,721,742,744,745,741,721,745,744,742,741,722,742,742,741,743,745,721,742,742,743,741,741,721,741,744,741,721,742,722,745,742,742,743,741,745,743,745,722,744,745,745,634,742,743,744,745,741,745,721,722,744,675,676,676,676,659,719,654,719,654,658,676,676,659,719,658,676,676,676,677,722,743,721,743,743,744,743,743,741,721,744,742,743,
741,722,745,745,722,722,721,742,745,743,745,722,741,742,745,742,744,745,721,743,741,722,722,741,745,743,722,721,742,741,743,744,742,744,722,721,742,742,744,722,634,741,721,721,742,745,722,721,745,745,721,722,721,742,722,744,741,722,722,721,634,721,675,659,719,720,720,719,654,654,680,632,632,632,632,633,745,634,745,631,632,632,681,720,654,719,654,719,654,654,658,677,722,742,742,745,745,634,741,744,741,743,741,745,722,745,743,741,743,741,722,744,743,722,745,745,744,721,721,741,744,722,741,742,675,676,659,719,719,654,719,658,676,677,743,675,659,654,720,654,654,680,632,632,633,745,721,743,722,745,634,744,744,745,722,744,743,744,722,631,681,654,720,654,654,654,720,658,677,742,745,634,697,699,697,699,699,697,697,697,634,721,741,743,721,741,745,721,743,743,742,743,745,741,741,741,743,742,743,743,722,741,744,742,741,722,722,743,721,721,743,742,721,744,634,722,741,742,744,722,744,743,743,721,721,741,744,745,675,659,720,658,676,634,741,743,675,676,677,743,742,722,721,722,743,742,741,745,721,742,742,745,722,721,721,745,
745,745,742,722,741,744,745,743,722,744,722,742,742,722,744,721,742,745,743,742,745,741,721,722,744,743,722,722,742,745,745,741,741,745,742,722,742,721,744,721,634,722,721,743,721,745,743,744,744,721,721,721,745,722,722,745,743,745,742,744,634,745,742,675,676,659,654,719,654,719,720,719,719,654,654,680,632,632,632,681,654,720,720,654,720,654,654,654,720,658,677,745,722,741,741,741,722,723,699,634,742,742,721,721,742,742,722,721,741,744,743,741,722,745,743,743,722,743,741,722,745,741,741,743,741,721,675,676,634,676,676,677,722,743,745,744,653,654,654,654,720,654,720,719,680,632,633,722,742,722,634,722,744,721,741,742,743,631,632,681,719,654,720,720,720,719,658,677,741,742,721,634,722,721,743,722,722,721,721,741,741,722,743,721,742,744,722,742,742,742,722,741,741,721,742,743,742,722,745,722,722,741,721,721,742,745,722,744,742,742,721,741,721,721,634,721,742,743,721,722,722,745,722,722,744,742,721,721,743,675,676,677,742,634,721,744,722,721,745,722,722,741,744,741,722,721,745,741,721,722,741,722,742,743,743,722,
721,743,741,744,745,741,745,722,741,743,744,743,721,721,742,742,745,744,722,742,744,745,741,745,722,721,745,722,741,721,741,722,743,745,742,745,742,742,744,722,634,743,741,745,745,744,743,722,745,745,722,722,721,741,742,743,745,722,744,745,634,721,721,743,744,675,659,720,654,719,654,719,654,719,719,720,654,720,719,720,720,720,720,719,720,654,654,720,658,677,743,722,744,722,743,742,744,745,743,742,721,722,722,744,721,721,743,744,741,743,744,741,744,722,722,744,721,741,742,721,721,721,722,721,722,745,744,744,634,745,721,741,722,745,744,743,675,659,719,654,720,720,720,720,654,720,680,632,632,632,634,721,722,743,744,721,631,681,720,719,719,720,654,720,658,676,677,722,742,742,722,634,721,741,743,742,741,745,744,744,744,742,722,744,741,722,745,742,741,722,741,741,722,742,742,742,743,744,743,745,743,741,745,722,722,743,744,745,721,741,743,697,697,697,704,745,721,722,743,744,741,741,721,745,744,741,742,721,742,745,745,722,721,634,722,744,742,742,741,743,745,742,721,745,722,742,741,745,721,743,721,744,745,745,742,744,
745,722,721,722,743,741,744,721,742,741,721,745,745,742,721,745,745,722,742,743,743,721,721,743,741,721,744,721,741,721,743,742,744,742,742,743,741,722,742,721,634,722,745,741,741,742,743,745,741,721,742,741,722,742,741,742,721,722,744,722,634,745,744,722,721,722,675,659,720,720,719,720,719,720,719,654,719,654,719,719,720,720,719,654,720,658,676,676,634,741,744,741,742,741,744,722,745,743,744,721,722,741,722,744,745,722,722,721,722,722,745,722,743,743,722,743,742,722,742,741,743,741,742,743,742,743,721,742,634,742,743,721,722,721,743,744,741,675,659,719,654,719,654,719,720,720,720,719,720,719,680,632,632,632,632,632,681,654,720,719,719,719,720,658,677,721,744,741,741,744,742,634,743,721,722,721,741,741,744,745,742,744,742,742,721,745,741,744,743,744,741,722,742,742,721,721,721,745,742,745,743,745,722,721,722,722,722,722,721,742,722,744,744,741,745,744,743,743,745,745,744,721,741,741,722,721,721,741,745,743,745,744,741,634,745,744,741,745,721,744,744,742,744,744,741,742,722,745,744,741,742,721,744,743,741,721,
744,741,745,742,743,722,742,742,722,743,743,744,744,722,745,721,721,743,722,743,743,744,741,741,744,741,742,741,742,745,743,742,721,741,721,721,742,743,721,741,634,741,721,744,745,721,742,744,745,744,743,743,742,745,741,722,722,722,743,722,634,721,744,721,744,743,742,675,659,720,654,720,719,720,720,720,719,654,720,720,720,719,654,720,658,677,742,721,634,721,744,722,722,741,744,741,741,744,722,743,743,745,744,744,745,721,742,745,744,742,743,722,745,743,742,742,743,722,721,744,721,744,743,743,722,745,744,721,634,744,743,721,745,742,744,742,741,721,675,676,659,720,654,719,654,720,719,719,719,720,720,654,654,654,720,720,720,719,654,654,719,719,658,677,741,745,744,742,722,743,743,634,741,745,744,745,741,721,745,742,741,745,745,745,742,745,741,743,744,743,722,744,741,744,722,741,742,743,721,743,742,744,745,745,722,743,745,745,741,744,742,742,722,745,744,721,745,743,741,721,742,742,744,742,722,744,722,745,743,743,744,741,721,634,741,721,742,721,743,741,722,745,722,743,741,743,742,745,745,742,745,744,743,722,721,721,
744,744,742,744,742,742,745,741,722,744,741,741,721,722,745,742,741,743,741,721,741,744,744,744,745,721,745,722,745,743,722,721,745,744,721,744,743,741,721,722,634,743,741,741,741,722,722,722,722,722,742,744,744,722,743,744,742,722,697,697,704,722,741,721,741,744,744,741,675,676,676,676,659,720,654,720,719,654,720,719,719,658,676,676,677,721,742,722,634,742,721,743,742,722,745,744,741,721,742,742,743,742,742,741,745,744,744,741,743,742,743,721,721,745,743,745,745,742,744,721,745,743,745,721,744,741,743,741,634,721,745,722,743,721,742,721,742,745,745,742,675,676,659,720,720,654,719,720,720,720,720,719,654,654,720,719,719,719,654,719,658,676,634,744,745,745,741,744,721,722,745,634,741,742,742,744,743,745,744,742,721,722,743,745,743,722,721,743,722,721,743,745,722,745,742,741,741,721,744,721,743,743,745,721,744,722,745,743,745,745,744,744,721,743,741,741,744,721,745,745,722,741,721,742,744,744,722,744,745,722,744,745,721,678,699,743,721,722,745,742,743,722,742,722,744,741,743,722,741,741,742,741,743,745,721,721,
742,742,721,721,745,743,744,722,742,744,743,745,743,745,741,741,744,743,744,722,743,721,745,744,741,744,742,721,745,743,742,722,721,742,744,742,742,745,722,721,634,742,743,721,722,721,741,744,745,742,742,722,744,745,721,742,722,745,741,722,721,744,745,722,744,744,743,721,742,742,745,743,675,676,676,659,654,658,676,676,634,677,721,741,741,721,721,722,634,742,743,741,721,744,741,741,744,721,742,722,722,741,741,745,742,743,721,743,745,722,744,745,722,744,722,722,745,743,743,722,721,745,721,745,743,745,721,722,634,722,722,743,744,742,743,743,743,744,721,745,743,741,675,676,659,654,654,720,719,654,654,720,720,719,719,654,720,654,720,658,677,745,634,741,743,742,721,722,743,744,721,634,744,743,744,742,722,742,744,742,721,741,741,744,745,741,722,741,744,742,722,741,745,741,721,744,722,743,743,743,745,741,721,745,744,745,745,743,721,741,722,741,722,721,722,722,741,722,741,721,743,721,741,721,745,744,721,743,744,721,742,722,745,743,634,742,721,743,744,743,743,722,745,743,741,744,744,745,721,722,744,742,741,721,743,721,
744,745,722,722,741,743,744,745,742,744,743,745,721,742,744,744,721,742,743,744,744,741,741,744,722,745,743,745,744,741,745,744,741,744,742,634,745,745,744,745,634,744,741,743,722,742,744,743,743,744,745,721,721,745,743,743,745,742,741,721,722,741,743,722,745,743,721,743,722,741,743,722,721,742,744,675,676,677,721,741,634,743,742,722,742,743,721,721,634,744,722,741,721,721,721,744,742,721,743,744,721,744,742,744,744,744,742,743,742,745,742,744,721,741,721,743,721,722,721,741,745,745,743,742,742,721,743,742,634,744,745,744,741,741,744,722,722,743,722,721,722,742,741,721,675,676,676,659,720,719,654,654,719,658,676,676,676,676,676,677,722,742,634,744,745,744,745,742,744,743,745,634,722,745,722,722,742,634,742,721,741,722,721,745,721,745,741,743,742,744,743,743,744,742,741,742,741,745,742,741,745,742,741,745,745,741,744,722,742,721,744,721,741,742,721,744,743,721,743,741,744,744,722,742,745,742,742,745,722,741,741,742,744,743,634,742,721,744,722,745,744,741,743,722,721,741,742,721,741,743,743,744,721,722,745,722,
743,745,742,721,744,745,722,744,744,743,722,721,721,745,743,743,743,742,721,744,721,741,722,743,722,742,743,721,742,744,722,741,742,722,744,634,722,742,745,744,634,744,741,744,745,721,744,721,744,743,722,744,721,741,743,721,745,745,744,743,742,721,742,743,742,745,722,721,743,742,741,741,744,743,741,743,742,742,721,722,634,743,722,744,721,721,744,721,634,741,722,744,721,722,741,745,721,721,744,722,741,722,721,744,722,721,745,721,743,745,741,722,745,742,744,745,745,742,742,744,743,743,743,743,741,743,742,722,634,743,743,721,721,721,721,745,745,721,744,741,742,744,722,745,741,745,741,675,676,676,634,676,676,677,744,741,743,744,721,721,742,742,634,745,722,721,744,745,743,721,745,634,722,742,741,722,744,634,741,742,745,743,743,722,743,743,743,721,745,721,744,744,722,745,721,743,745,722,721,722,745,742,745,742,742,744,741,721,722,722,721,721,745,722,722,743,744,741,741,742,743,722,745,721,745,745,744,745,745,744,741,722,697,697,699,744,722,745,742,742,741,722,721,741,743,745,721,742,744,721,741,744,722,721,743,744,
722,722,722,742,745,743,743,743,722,744,742,745,741,745,744,743,742,745,741,722,741,721,743,741,743,721,722,745,722,742,741,744,741,744,745,634,722,745,741,743,634,722,741,743,743,745,743,743,722,721,743,742,742,742,743,745,743,721,744,721,722,745,745,744,721,742,741,721,745,721,742,743,741,722,745,745,722,721,721,722,634,742,721,745,744,741,742,742,634,743,741,722,744,741,745,722,722,745,722,721,722,743,743,743,721,744,743,741,741,744,744,722,722,744,721,722,722,741,744,745,721,743,743,741,744,721,742,722,634,697,697,634,743,743,721,744,721,721,743,744,721,742,742,742,721,743,742,721,742,743,634,742,744,745,721,742,721,741,744,722,744,742,634,744,741,721,742,722,721,744,745,634,744,741,744,743,745,634,742,741,722,742,722,722,722,741,722,741,721,744,722,722,743,722,742,743,741,722,744,721,742,744,745,743,722,721,721,744,742,745,745,745,743,745,745,721,744,743,742,745,722,745,722,722,721,721,742,743,722,741,742,722,741,743,743,742,745,741,721,742,743,741,741,743,744,742,745,721,741,741,741,745,722,722,744,722,
744,744,741,744,745,742,721,743,744,722,721,742,745,742,743,744,722,742,722,721,744,745,745,745,721,721,722,741,744,741,722,741,741,744,742,634,741,745,741,744,634,741,745,741,743,741,742,745,722,721,721,745,742,721,743,741,742,743,721,721,745,722,721,743,744,743,745,743,721,742,722,743,743,745,743,721,742,743,722,745,634,743,743,741,744,741,742,745,634,721,744,721,722,743,744,721,743,743,722,745,741,722,722,742,744,722,744,722,721,722,741,741,745,744,722,742,742,721,742,743,743,745,741,741,743,742,744,721,634,721,745,742,744,722,721,744,742,721,741,745,722,742,745,741,722,744,745,721,721,741,634,721,744,722,721,744,745,742,744,744,744,743,634,745,743,742,743,741,743,744,722,634,744,743,743,721,743,634,743,744,741,742,721,742,742,743,741,721,743,742,721,722,742,722,722,721,721,743,743,745,743,722,742,745,721,745,743,745,722,721,743,721,742,745,722,721,722,743,722,745,744,743,721,722,722,721,722,742,722,741,721,744,744,741,744,745,745,744,742,745,722,742,722,743,743,744,744,744,745,744,743,721,741,722,721,741,
743,721,721,742,721,745,742,722,742,722,742,743,721,743,721,744,743,742,722,742,744,745,744,722,744,745,742,741,722,721,741,741,744,743,721,723,699,697,697,697,699,742,721,741,742,745,722,722,745,721,744,743,741,743,745,741,745,742,721,745,722,743,741,744,741,743,745,744,722,744,741,745,743,745,741,722,743,721,741,745,634,741,745,743,741,722,721,744,634,741,721,743,741,722,744,721,721,634,745,741,742,743,721,742,741,742,722,741,721,745,741,721,743,743,722,721,741,741,721,744,741,741,744,722,744,721,745,745,634,745,722,744,721,741,741,744,743,742,742,721,743,742,745,744,744,722,742,741,742,743,723,697,638,742,722,743,722,742,741,742,721,745,678,699,634,721,722,722,743,745,721,678,697,699,699,697,697,699,742,744,744,745,745,721,721,744,722,742,741,745,721,721,742,741,741,722,721,722,744,722,745,745,721,743,721,722,721,721,745,721,741,722,721,743,744,744,745,744,745,742,742,743,742,742,742,743,744,742,744,742,741,743,742,742,721,722,721,743,743,722,722,722,743,745,742,743,742,741,743,744,744,745,722,722,722,722,
744,742,744,741,744,745,743,721,745,742,743,721,741,745,745,741,722,721,721,741,743,741,743,722,722,721,742,744,741,744,743,722,741,741,745,743,721,744,744,743,742,744,745,743,722,722,721,741,744,742,744,745,745,745,744,721,744,743,741,745,722,743,721,741,721,745,721,743,745,744,742,745,741,743,721,744,745,745,743,745,723,638,745,742,744,722,745,742,634,721,722,721,744,744,744,744,741,634,742,745,741,744,742,721,721,742,741,743,741,721,743,721,742,745,742,722,743,745,745,721,742,745,743,721,743,741,743,721,634,722,741,742,741,745,744,741,744,722,722,744,744,743,741,721,744,743,742,741,742,741,743,721,634,721,744,722,721,745,742,743,722,743,742,745,742,721,745,745,743,744,745,722,743,722,745,745,743,722,744,741,741,741,742,744,721,744,722,722,722,741,721,744,722,745,741,742,742,722,742,741,742,721,741,743,742,721,741,744,742,744,744,741,742,741,722,743,744,745,745,744,745,741,742,744,741,744,741,741,745,743,743,742,721,743,744,745,722,741,721,741,742,744,743,745,741,745,721,741,742,742,741,742,743,741,744,721,
721,745,743,721,741,722,722,742,741,744,721,741,744,742,744,721,743,742,721,741,743,743,741,742,744,722,743,721,741,742,721,721,744,742,741,722,742,743,744,721,741,745,741,722,743,743,741,743,722,742,743,744,741,721,742,744,744,742,741,743,721,743,745,721,745,743,742,742,722,744,742,722,721,744,721,742,721,744,742,745,741,634,741,741,722,721,742,741,634,721,744,742,744,721,742,742,721,723,638,742,721,741,743,722,722,743,744,722,741,743,721,721,722,743,745,722,722,745,744,744,722,721,744,722,722,721,745,744,634,743,744,745,745,721,743,722,745,745,742,743,722,721,744,745,745,721,744,721,742,744,721,744,634,744,742,722,722,745,722,722,722,741,742,744,722,744,743,722,722,741,741,742,745,741,745,742,741,741,744,722,744,741,744,721,722,744,743,745,721,742,744,741,744,722,721,721,745,722,745,722,743,721,722,721,722,721,741,744,743,744,722,742,742,744,722,721,744,743,721,743,744,742,722,745,721,741,741,743,722,745,741,742,744,745,722,744,745,741,745,741,742,744,745,741,742,744,745,742,744,721,743,742,721,741,745,721,
741,742,721,743,744,742,742,742,721,722,745,745,743,721,744,743,742,722,741,741,745,743,745,722,722,744,721,741,742,742,742,741,742,741,742,743,744,743,721,721,721,744,745,744,743,744,745,741,744,744,721,722,741,744,722,744,743,745,745,743,744,741,743,742,743,742,741,722,742,721,743,741,745,742,722,744,744,721,722,722,745,634,742,742,721,745,743,744,634,745,742,741,722,722,745,744,741,741,634,744,722,744,744,741,721,741,722,743,745,742,743,743,745,744,741,741,744,721,743,745,741,742,742,741,744,745,743,722,634,741,743,744,743,722,745,744,742,743,743,742,744,722,744,743,744,745,745,741,741,721,741,741,634,745,745,745,722,743,745,722,744,744,742,743,741,741,742,721,721,722,721,743,742,743,722,741,721,722,742,742,743,742,721,742,742,741,743,741,721,721,744,743,721,742,743,742,742,722,744,722,743,744,742,745,721,721,722,722,744,742,741,722,745,742,743,741,744,744,722,741,742,721,741,741,742,742,721,742,743,745,721,742,745,722,721,743,742,721,722,722,744,742,744,721,745,743,741,742,721,722,743,745,743,745,744,742,
742,744,722,745,721,744,745,745,722,742,744,741,742,744,741,744,744,742,745,741,721,744,721,742,742,741,742,744,741,721,745,745,741,744,722,744,721,743,745,744,722,722,744,722,741,741,741,741,743,722,743,745,743,742,721,744,722,743,744,741,744,742,745,742,743,741,744,743,742,743,742,744,743,721,721,743,742,742,743,697,699,704,744,722,741,722,745,743,723,699,697,699,697,697,697,699,699,697,699,742,741,744,741,721,744,741,721,742,722,744,743,744,743,743,742,743,721,741,744,743,742,721,744,741,722,741,744,741,634,722,745,742,744,745,743,721,745,745,745,721,721,744,741,743,745,742,742,722,744,743,743,744,678,699,697,634,721,742,741,743,722,745,744,742,742,722,743,744,744,741,744,722,721,745,721,741,742,741,744,722,743,745,744,745,744,745,741,742,742,742,742,745,741,741,745,744,741,721,743,745,741,722,743,743,741,745,722,722,721,745,741,743,744,742,743,742,741,745,744,745,722,741,721,722,744,722,744,721,742,741,721,742,743,721,744,741,721,721,721,721,744,744,741,745,743,745,743,745,741,742,742,743,741,742,745,745,
745,742,743,745,741,745,742,721,721,742,722,745,743,741,745,741,722,721,744,722,743,745,742,742,721,742,745,721,742,743,743,745,721,741,741,722,741,744,743,744,721,743,745,722,743,745,721,721,742,721,721,741,744,745,741,741,743,722,744,742,742,745,744,722,722,743,744,721,743,744,745,742,742,743,742,743,743,721,742,742,745,744,741,721,745,744,742,741,745,741,721,721,743,743,722,722,745,741,743,745,744,742,741,744,741,722,745,722,722,741,745,721,722,745,745,743,741,722,745,741,741,722,721,743,745,722,743,721,634,721,743,722,722,721,745,722,743,744,745,722,721,741,744,741,744,744,741,742,722,741,744,741,722,745,721,744,741,742,722,745,721,743,743,741,722,741,741,742,745,745,742,743,744,745,742,721,721,742,744,743,744,722,741,744,722,743,744,742,745,744,722,745,743,743,744,744,743,745,722,722,721,742,722,721,741,743,743,722,722,743,741,722,741,741,742,744,744,741,721,722,744,744,742,743,721,722,743,742,745,745,744,721,722,742,745,741,721,743,721,722,743,744,744,721,721,742,742,745,721,742,744,745,742,742,741,745,
721,741,722,742,741,721,745,742,722,722,722,745,721,721,744,741,744,743,743,721,721,742,743,742,742,721,743,743,745,741,745,742,741,743,742,722,721,744,721,722,743,721,722,744,721,742,745,722,722,743,744,722,743,741,745,722,722,743,744,742,743,721,741,722,721,743,741,722,722,721,743,745,722,744,745,741,745,744,721,742,722,743,741,744,744,742,742,741,744,743,744,744,721,722,743,743,742,721,721,744,741,745,745,721,742,743,722,744,742,744,742,745,743,722,745,742,721,741,741,741,745,722,722,741,743,744,741,741,634,722,744,744,742,742,744,742,745,722,745,721,721,722,741,741,741,742,745,743,745,744,721,722,743,745,743,742,741,742,742,743,744,744,742,745,722,722,742,743,742,722,745,741,722,741,743,721,743,741,741,745,741,721,722,745,744,741,722,722,721,721,745,722,742,722,722,721,744,745,743,722,722,743,741,722,741,721,741,743,721,742,721,741,721,744,743,721,721,743,721,743,743,742,742,722,741,745,744,741,721,743,744,743,722,742,744,722,744,744,745,744,722,721,722,742,721,722,744,741,742,722,745,741,745,722,742,742,
744,742,742,721,743,721,744,743,742,745,743,721,742,741,722,744,741,742,743,743,721,742,744,742,742,743,741,744,743,744,742,721,721,745,744,722,721,742,744,722,744,741,721,743,742,741,721,721,743,722,743,722,743,743,721,742,744,743,742,744,722,745,744,742,721,742,744,745,743,741,741,722,742,745,742,744,744,743,742,722,742,741,745,721,744,743,722,741,745,741,745,741,743,741,741,744,745,722,741,721,722,721,743,722,742,721,721,741,742,745,743,743,721,743,744,745,722,741,722,722,745,722,741,721,721,745,721,741,634,745,722,721,722,721,722,744,722,721,744,744,744,745,722,744,722,741,741,743,742,742,744,721,742,722,742,721,745,745,741,721,722,741,741,743,744,721,741,742,743,743,745,742,742,745,741,745,744,721,743,721,741,743,722,745,741,721,742,741,741,722,741,742,741,741,743,743,742,742,745,745,743,722,744,741,722,742,744,722,745,742,744,741,741,743,744,742,722,742,745,721,743,743,741,742,744,721,742,741,743,745,742,743,721,741,743,721,744,744,744,721,743,744,741,745,742,721,745,742,742,742,744,742,741,742,742,722,
721,744,745,745,741,742,743,743,743,721,722,743,721,721,745,721,741,744,742,742,745,743,741,721,743,721,741,741,744,744,745,721,741,743,745,744,721,722,721,745,743,744,741,741,745,743,745,722,742,721,722,742,721,722,721,743,743,744,744,745,721,743,742,745,743,743,742,721,742,721,722,721,744,743,745,744,741,722,744,742,744,744,744,743,744,744,742,742,741,722,721,722,745,722,745,742,745,722,744,744,745,744,743,743,745,742,722,722,743,743,742,742,722,722,741,742,743,722,744,742,721,744,741,743,741,745,745,741,634,721,743,722,721,722,742,722,743,744,743,743,745,721,745,745,744,741,721,741,741,721,745,742,742,745,722,743,743,745,721,742,742,744,722,743,741,722,721,741,742,744,722,745,742,744,742,741,721,742,721,742,745,721,722,721,743,741,722,722,741,745,721,745,743,742,721,721,722,744,741,741,744,745,721,745,741,744,722,744,741,744,741,721,745,743,742,722,722,742,745,741,722,744,721,741,721,743,744,742,742,745,741,744,745,743,742,722,742,741,721,744,741,743,745,744,721,742,741,742,741,744,745,741,742,744,743,745,
743,745,722,721,743,743,744,722,743,721,742,742,721,745,721,741,743,742,743,745,721,722,745,721,742,722,721,743,722,745,721,722,744,744,743,741,743,741,742,741,722,745,721,722,741,743,722,741,745,743,744,743,721,742,744,741,743,743,744,741,741,743,743,744,743,721,741,745,742,721,742,722,742,745,741,721,742,744,722,743,722,721,742,744,722,744,745,722,744,722,744,744,721,722,722,743,721,722,741,741,742,745,743,741,741,722,722,742,741,744,743,742,742,745,722,741,721,741,722,721,745,741,742,722,741,743,721,742,634,741,744,721,742,721,741,743,721,742,742,743,741,743,742,721,722,745,742,743,743,741,741,745,741,721,741,742,742,745,743,743,744,743,721,741,744,744,741,745,742,742,741,743,742,743,742,722,743,742,745,741,743,742,743,721,721,744,722,742,721,741,742,743,744,722,722,721,721,744,743,741,745,721,722,742,741,721,743,741,721,744,741,744,745,742,722,745,745,744,721,743,721,745,722,745,741,745,742,743,745,744,741,743,742,721,742,743,743,742,722,722,742,742,722,743,741,721,742,741,745,744,742,745,721,721,742,722,
744,741,744,744,743,721,744,742,722,742,745,743,745,722,722,722,745,743,744,721,744,722,743,744,721,741,741,742,742,741,741,742,721,742,722,744,743,745,722,721,742,721,741,722,743,745,721,742,721,743,722,741,722,743,745,745,741,742,742,744,743,722,742,744,721,741,722,743,742,741,745,722,741,743,745,721,744,744,742,741,744,743,741,741,743,745,741,744,741,721,721,743,741,722,744,741,745,744,743,742,722,721,721,745,742,744,722,742,742,745,743,745,722,722,741,742,744,742,741,721,745,745,742,743,745,741,722,742,721,745,742,745,745,745,744,745,743,745,743,742,722,745,741,742,722,721,743,745,743,744,745,742,721,741,721,745,745,745,742,742,722,743,743,721,742,745,744,744,742,742,722,721,741,742,722,744,744,743,721,722,722,743,722,721,741,722,744,741,741,743,743,741,743,721,742,743,743,744,722,743,744,741,721,745,722,722,744,743,742,743,741,722,745,743,721,744,743,722,722,745,743,721,742,745,743,721,744,722,722,741,744,741,743,741,721,744,722,741,744,722,742,742,722,745,743,743,741,745,742,742,721,741,744,722,745,722,
721,745,745,722,722,744,743,721,742,744,721,742,722,742,721,743,742,741,722,741,742,742,745,721,742,744,721,744,744,722,744,745,745,742,722,721,744,741,743,741,722,742,745,745,744,742,741,743,721,722,721,741,745,721,743,721,743,744,743,744,722,742,745,744,745,722,742,742,743,745,741,741,721,721,721,722,744,744,722,745,741,744,743,745,741,721,741,741,742,721,744,742,742,722,721,741,721,742,722,745,742,744,742,742,721,742,744,743,744,741,721,743,742,741,744,721,742,722,742,745,745,721,721,744,741,721,744,743,721,744,745,742,743,744,742,721,745,742,742,742,742,722,745,721,742,741,721,742,722,744,721,722,745,744,743,745,722,722,744,721,745,722,743,743,745,741,721,744,745,741,743,743,743,743,743,742,721,742,721,741,721,722,742,722,741,722,722,743,742,745,744,742,742,722,721,745,743,741,721,743,744,722,744,741,721,742,745,741,745,741,745,741,741,722,742,742,745,743,745,742,721,745,722,743,741,741,742,745,743,742,743,721,745,745,722,721,722,721,743,743,741,743,744,722,741,741,742,745,742,741,721,741,744,741,745,745,
722,744,722,741,745,741,743,743,721,741,742,741,744,742,743,744,745,722,743,722,722,742,722,722,722,742,742,745,743,744,743,741,745,721,741,745,742,741,743,743,721,741,721,744,744,722,721,743,743,744,745,744,741,745,743,743,744,722,744,743,721,744,745,741,722,743,742,742,742,722,741,741,744,743,744,741,721,743,741,721,745,745,743,744,742,745,743,742,742,742,743,745,741,721,743,742,741,722,743,721,722,722,721,741,743,745,741,722,741,742,745,722,743,744,722,742,722,742,742,743,745,743,742,741,744,721,745,721,745,743,741,741,742,743,722,744,722,741,745,721,721,743,722,721,742,745,745,722,721,722,742,721,744,744,721,744,742,745,743,742,722,742,741,721,744,743,742,722,741,721,743,722,721,721,741,745,743,742,721,721,722,745,742,743,722,744,741,721,721,741,744,722,744,741,745,722,721,744,721,744,745,721,743,745,742,744,741,743,745,743,742,743,742,745,721,743,742,744,722,741,722,742,722,722,743,741,745,743,745,741,745,743,745,741,744,721,742,744,741,743,722,743,741,743,745,721,741,745,741,741,721,743,744,745,745,741,
742,721,722,745,742,745,745,742,744,721,743,741,745,721,742,722,744,745,744,721,722,741,722,743,743,741,744,721,745,743,744,745,722,721,721,741,741,745,745,744,745,721,743,742,743,745,743,741,722,722,721,743,722,742,721,744,742,741,744,742,742,721,744,741,743,742,742,743,722,743,721,722,742,741,745,722,743,742,721,741,722,743,744,744,743,742,745,745,721,744,743,722,722,721,722,745,721,722,744,741,722,741,742,745,722,742,744,742,722,722,721,745,721,721,741,741,741,744,721,742,741,743,743,742,742,722,721,741,722,743,722,743,743,721,721,744,722,745,721,722,745,722,744,742,744,722,721,745,741,745,722,744,721,741,743,721,745,744,743,721,744,741,721,721,722,742,744,742,741,744,722,722,721,722,744,745,742,741,721,741,722,721,742,743,721,721,743,745,722,745,745,744,741,744,743,743,721,722,745,743,721,722,721,745,741,742,745,721,722,743,743,742,741,742,721,721,742,742,721,744,722,742,743,744,742,744,722,742,722,741,721,722,721,744,743,745,722,745,744,722,744,721,722,745,744,722,742,721,742,743,742,743,722,744,745,741,
742,741,744,722,744,744,721,743,721,742,721,744,744,745,744,745,741,745,744,722,742,743,743,741,742,742,742,744,721,742,721,722,742,742,742,741,744,741,744,741,722,742,745,745,743,721,743,745,741,743,742,742,742,743,744,743,741,741,742,742,722,744,742,742,743,721,721,744,745,721,722,743,721,721,743,743,721,741,743,745,742,745,743,743,721,721,744,722,721,742,743,745,743,744,743,744,742,741,721,743,742,741,742,743,742,743,722,722,744,745,744,744,742,743,741,744,742,744,722,743,722,744,743,742,742,742,742,744,721,722,744,741,741,744,721,745,742,745,742,744,744,741,742,743,745,744,743,744,743,745,721,744,744,744,745,743,745,721,742,741,744,743,721,742,721,742,722,721,721,741,721,741,721,744,745,745,722,722,745,742,744,744,741,743,745,742,722,743,744,743,741,741,744,722,744,721,722,745,721,742,741,742,741,721,743,742,741,743,745,742,742,744,743,744,721,743,721,721,742,744,743,722,742,741,741,741,743,744,722,741,745,722,745,745,743,722,744,745,743,743,722,743,722,741,721,741,745,745,744,721,721,745,743,744,744,742,
744,741,722,745,744,742,721,744,721,741,722,742,742,745,721,742,722,742,722,743,743,722,741,722,721,742,745,744,743,743,742,744,722,722,743,744,742,745,742,721,722,745,721,741,745,743,722,744,742,744,745,743,745,741,742,741,743,741,745,742,722,744,741,745,744,722,722,745,743,745,742,745,741,722,744,722,743,743,744,745,744,744,721,742,744,741,743,744,722,743,744,743,743,741,721,744,745,721,743,743,722,721,742,744,741,745,741,743,722,722,721,722,721,745,721,743,744,722,741,745,741,744,743,741,745,721,743,722,741,743,722,722,745,741,721,745,743,722,721,742,744,743,721,742,722,721,742,744,745,745,742,741,721,741,742,721,742,744,745,745,721,744,744,721,744,743,744,741,742,721,742,721,721,722,744,744,721,722,743,722,744,722,743,743,743,741,722,744,743,722,721,744,721,744,743,744,743,744,722,721,721,722,722,743,741,743,741,742,745,745,744,745,743,741,744,743,744,743,722,743,741,744,743,745,742,721,743,742,743,741,743,743,743,741,722,721,743,741,744,745,722,741,744,742,721,744,745,722,742,721,721,744,722,741,742,722,
741,743,722,742,722,743,741,741,742,722,741,745,743,741,741,722,722,741,721,722,745,745,741,721,744,722,722,742,743,744,741,745,743,741,743,745,743,742,742,721,745,721,721,743,745,742,722,741,721,721,722,744,721,743,745,744,721,741,741,721,722,742,743,743,721,745,741,744,744,743,722,745,744,742,722,742,722,742,742,745,742,744,745,742,722,745,741,744,743,744,744,742,741,721,745,742,743,742,742,742,744,743,744,722,721,741,721,721,741,741,722,742,742,721,722,745,744,745,741,741,742,743,744,741,745,744,745,745,744,745,742,745,742,743,722,742,722,745,745,745,741,743,745,743,742,744,741,721,741,744,744,743,742,742,742,722,741,742,744,742,722,744,741,741,742,744,745,744,744,742,741,722,743,722,741,722,743,745,743,744,745,722,722,722,722,744,745,744,721,745,742,742,743,722,742,741,744,744,743,742,722,741,742,742,742,722,721,742,722,743,743,743,722,745,722,744,742,721,744,745,744,741,741,744,722,742,742,743,744,721,741,722,745,744,721,721,744,741,721,744,722,743,741,743,743,722,742,742,741,744,722,741,741,743,743,721,
742,745,744,722,744,721,744,721,744,721,745,745,742,744,745,743,741,744,741,742,742,722,744,745,743,742,741,721,743,744,743,741,742,721,722,744,742,742,721,744,722,744,742,744,743,743,742,743,744,743,722,743,721,743,745,742,745,745,743,741,741,743,742,722,722,741,745,741,745,721,745,742,745,721,745,741,743,745,721,741,741,742,721,722,742,741,743,743,742,745,741,745,742,722,743,741,743,745,743,745,742,743,743,722,722,743,744,741,721,741,745,742,722,721,741,744,742,722,741,743,744,745,745,742,745,721,741,743,745,722,743,745,744,745,745,741,744,744,722,721,745,744,745,743,744,721,742,742,741,722,722,742,743,742,741,722,741,741,744,743,721,722,741,722,722,741,744,722,741,743,742,745,741,744,744,722,721,745,721,745,743,745,743,742,742,722,741,743,744,721,742,744,745,743,745,743,742,721,722,742,741,722,743,745,744,745,744,721,745,744,744,743,744,745,742,741,721,722,742,744,741,744,745,741,722,722,722,722,744,722,721,722,745,721,745,721,721,721,745,722,743,743,742,741,722,745,743,742,744,741,721,741,741,745,744,721,
745,743,722,721,745,745,745,743,741,721,744,741,742,744,722,743,742,744,742,743,744,742,744,722,722,722,741,722,742,744,722,741,742,744,721,722,743,745,744,745,745,743,743,741,745,743,744,721,742,744,722,742,742,722,743,744,722,745,743,721,741,722,721,745,745,743,722,721,745,745,745,722,721,744,745,721,743,722,745,721,721,745,745,721,743,742,741,722,722,744,721,742,721,722,743,745,721,741,722,722,742,742,722,745,743,745,721,745,742,721,745,744,744,741,742,742,745,742,744,744,721,744,741,742,721,743,742,742,721,721,743,721,742,722,722,743,722,722,745,744,742,721,721,722,741,721,745,741,744,745,722,741,721,745,722,722,745,722,744,742,722,745,721,743,722,743,741,722,743,741,744,721,742,743,722,742,743,722,722,721,743,721,721,741,721,741,745,745,743,741,721,745,742,744,745,745,721,744,745,743,741,741,743,742,741,745,721,742,745,741,741,742,721,742,741,722,741,741,745,742,742,744,742,744,742,745,745,721,745,744,742,721,722,721,743,744,742,742,741,721,745,742,742,741,721,743,742,745,722,722,742,744,722,721,745,745,
745,741,743,742,741,745,745,722,744,742,721,722,744,722,741,743,744,722,743,721,743,721,722,743,741,745,742,744,745,744,721,745,742,742,744,741,745,721,745,743,743,721,741,721,742,745,742,745,744,741,742,743,721,741,741,742,742,743,721,741,721,741,721,722,745,721,745,722,722,721,741,743,743,744,743,742,742,741,743,741,741,744,722,745,722,742,743,722,741,722,745,722,744,745,722,721,742,745,721,744,744,741,745,744,721,741,744,744,744,741,722,741,745,742,744,741,743,742,743,722,741,742,741,743,741,721,745,741,741,745,742,744,721,741,743,721,722,722,721,722,722,721,722,745,742,742,742,744,721,744,744,745,722,741,721,745,743,721,721,722,745,742,722,745,743,741,743,721,741,741,742,722,722,741,741,744,742,743,744,745,722,742,741,743,741,721,721,741,722,721,741,744,722,743,744,744,745,741,743,722,721,743,742,722,722,744,745,741,722,742,722,745,744,741,744,721,742,721,741,743,745,741,744,721,745,741,744,745,741,722,741,741,741,721,745,722,742,743,722,722,744,744,741,745,745,744,742,722,744,745,721,722,721,721,744,744,
741,741,745,721,722,743,745,745,745,722,742,744,721,721,745,742,742,722,722,745,722,742,745,745,742,741,741,722,743,722,743,742,742,744,741,722,744,721,745,743,742,745,744,742,741,743,722,722,743,721,722,744,742,743,745,742,745,741,741,744,721,743,741,722,742,741,721,745,742,743,744,721,742,745,744,745,721,742,744,742,741,722,722,741,742,722,721,721,743,721,741,745,741,741,744,745,721,742,744,743,721,742,743,721,741,743,722,743,721,721,744,744,741,722,721,743,722,721,742,745,741,741,721,745,721,742,721,744,745,741,745,722,741,741,742,721,743,741,742,722,722,722,722,744,742,721,722,742,742,743,741,722,743,744,742,745,741,721,745,742,744,744,741,721,743,742,744,744,722,722,744,721,742,743,743,742,741,745,744,744,742,742,743,743,745,722,745,745,745,741,744,744,743,722,743,744,741,721,721,743,744,745,744,721,721,745,743,743,721,742,742,745,744,741,721,721,743,742,745,741,741,744,744,742,743,742,722,743,745,743,742,742,741,744,722,722,743,744,742,743,721,722,744,722,722,742,741,721,744,743,744,743,741,745,745,744,
744,744,742,745,744,721,744,744,743,741,745,722,743,721,722,745,743,722,744,744,745,743,743,744,744,721,722,721,722,744,743,744,744,741,745,742,722,741,741,741,721,743,721,721,721,742,743,744,742,744,741,745,742,741,741,745,742,741,745,741,741,742,722,743,743,722,742,744,722,743,744,721,741,745,743,721,744,744,745,741,721,743,742,745,722,741,744,722,744,721,722,742,744,743,741,745,745,745,722,745,744,721,744,722,744,742,744,743,721,722,744,745,743,744,743,721,742,721,745,744,745,721,745,721,742,741,745,745,745,741,743,721,745,743,741,722,741,744,742,741,744,744,743,721,743,743,745,743,743,721,744,742,721,721,744,743,742,742,721,743,741,743,743,721,745,722,722,745,745,741,743,745,722,722,745,722,743,742,745,721,742,745,743,743,722,722,742,743,745,722,742,721,742,743,744,722,742,722,745,744,721,741,743,742,745,741,741,745,742,744,745,744,743,745,722,742,744,744,744,741,744,722,722,741,745,721,722,742,742,742,744,742,742,741,741,721,721,744,741,745,745,744,743,722,744,722,745,745,743,742,742,745,745,742,743,743,
741,744,743,743,743,743,742,744,741,745,745,745,743,745,743,745,745,741,745,745,744,741,721,741,743,741,745,722,741,744,722,743,743,722,745,742,745,743,744,721,745,741,743,741,742,722,744,743,741,722,742,742,743,744,745,744,722,721,742,742,745,742,744,722,721,745,721,742,743,721,743,745,743,741,745,741,744,722,743,743,745,742,745,744,721,721,742,744,742,741,742,743,722,742,741,743,743,721,742,743,743,744,741,741,721,744,721,722,742,745,744,744,722,741,742,741,741,743,745,745,722,745,721,743,722,744,743,744,742,745,745,742,743,743,744,744,742,743,744,745,722,741,743,722,743,741,742,743,742,721,742,722,744,721,743,744,721,741,745,721,721,722,721,722,745,745,722,745,743,743,745,745,744,722,745,743,722,745,722,745,722,743,721,745,741,722,744,743,744,743,742,745,745,744,741,721,744,742,743,722,722,745,722,745,744,741,721,744,741,743,742,721,744,743,722,721,721,745,742,722,744,743,721,741,741,742,745,743,742,742,743,721,741,741,722,745,741,743,721,745,721,722,742,743,743,721,742,745,741,745,744,742,742,721,741,744,
722,742,745,743,744,745,743,722,721,721,721,744,743,741,741,743,741,745,744,744,741,741,743,743,743,745,744,722,741,741,741,743,743,744,722,741,744,741,722,741,743,745,743,742,742,721,742,744,721,722,742,744,741,745,721,742,745,741,743,722,745,743,742,745,741,721,743,743,743,741,722,744,745,743,745,745,741,743,721,744,742,745,742,742,722,744,722,743,745,721,741,722,741,744,743,741,744,741,721,744,741,743,743,743,744,741,744,722,721,742,743,722,742,742,722,744,744,721,742,722,722,742,745,722,722,721,741,721,741,721,743,741,741,745,741,741,721,741,722,722,721,741,741,745,745,743,721,744,743,721,722,721,743,743,744,721,742,743,744,744,742,745,721,721,722,722,743,743,722,741,745,722,741,743,745,744,721,741,745,745,743,722,744,722,721,741,742,741,743,722,721,722,744,721,721,745,743,741,741,743,741,742,722,745,722,743,744,742,743,745,722,743,745,743,721,742,721,722,741,744,743,722,741,745,743,741,721,742,741,743,743,745,741,745,745,742,743,742,742,743,743,742,741,741,721,722,743,722,722,744,744,722,741,742,743,743,
721,744,745,741,742,744,742,722,742,741,743,742,743,722,722,721,741,745,722,722,722,744,741,722,743,722,744,721,722,722,743,743,744,744,743,722,721,742,741,742,722,722,721,721,741,722,745,741,722,722,741,721,721,742,743,745,743,741,742,743,741,742,745,743,741,743,722,741,742,742,743,742,743,741,742,721,745,742,744,722,722,745,744,722,745,721,722,721,721,721,722,741,722,742,742,743,742,721,722,745,745,743,721,742,743,745,722,743,745,741,744,721,743,721,743,721,722,741,745,745,745,722,722,722,745,745,722,743,742,741,722,742,744,743,743,745,742,721,743,743,721,741,741,743,745,722,743,745,721,721,744,745,745,743,743,741,745,743,745,743,741,721,721,743,722,743,745,722,741,742,742,721,722,721,741,721,742,744,744,741,744,743,745,721,745,743,741,741,745,741,743,744,721,742,721,743,745,721,742,743,743,722,744,722,745,744,741,745,741,722,745,721,722,742,741,741,742,742,744,743,742,741,743,745,722,744,742,721,743,744,721,741,744,744,745,741,722,745,722,743,742,722,741,721,722,745,745,722,741,743,722,743,742,722,741,721
</data>
 </layer>
 <layer id="2" name="foliage" width="256" height="128">
  <data encoding="csv">
0,0,0,0,0,0,0,0,0,0,0,0,0,0,0,0,0,0,0,0,0,0,0,0,0,0,0,0,0,0,0,0,0,0,0,0,0,0,0,0,0,0,0,0,0,0,0,0,0,0,0,0,0,0,0,0,0,0,0,0,0,0,0,0,0,0,0,0,0,0,0,0,0,0,0,0,0,0,0,0,0,0,0,0,0,0,0,0,0,0,0,0,0,0,0,0,0,0,0,0,0,0,0,0,0,0,0,0,0,0,0,0,0,0,0,0,0,0,0,0,0,0,0,0,0,0,0,0,0,0,0,0,0,0,0,0,0,0,0,0,0,0,0,0,0,0,0,0,0,0,0,0,0,0,0,0,0,0,0,0,0,0,0,0,0,0,0,0,0,0,0,0,0,0,0,0,0,0,0,0,0,0,0,0,0,0,0,0,0,0,0,0,0,0,0,0,0,0,0,0,0,0,0,0,0,0,0,0,0,0,0,0,0,0,0,0,0,0,0,0,0,0,0,0,0,0,0,0,0,0,0,0,0,0,0,0,0,0,0,0,0,0,0,0,0,0,0,0,0,0,0,0,0,0,0,0,
0,0,0,0,0,0,0,0,0,0,0,0,0,0,0,0,0,0,0,0,0,0,0,0,0,0,0,0,0,0,0,0,0,0,0,0,0,0,0,0,0,0,0,0,0,0,0,0,0,0,0,0,0,0,0,0,0,0,0,0,0,0,0,0,0,0,0,0,0,0,0,0,0,0,0,0,0,0,0,0,0,0,0,0,0,0,0,0,0,0,0,0,0,0,0,0,0,0,0,0,0,0,0,0,0,0,0,0,0,0,0,0,0,0,0,0,0,0,0,0,0,0,0,0,0,0,0,0,0,0,0,0,0,0,0,0,0,0,0,0,0,0,0,0,0,0,0,0,0,0,0,0,0,0,0,0,0,0,0,0,0,0,0,0,0,0,0,0,0,0,0,0,0,0,0,0,0,0,0,0,0,0,0,0,0,0,0,0,0,0,0,0,0,0,0,0,0,0,0,0,0,0,0,0,0,0,0,0,0,0,0,0,0,0,0,0,0,0,0,0,0,0,0,0,0,0,0,0,0,0,0,0,0,0,0,0,0,0,0,0,0,0,0,0,0,0,0,0,0,0,0,0,0,0,0,0,
0,0,0,0,0,0,0,0,0,0,0,0,0,0,0,0,0,0,0,0,0,0,0,0,0,0,0,0,0,0,0,0,0,0,0,0,0,0,0,0,0,0,0,0,0,0,0,0,0,0,0,0,0,0,0,0,0,0,0,0,0,0,0,0,0,0,0,0,0,0,0,0,0,0,0,0,0,0,0,0,0,0,0,0,0,0,0,0,0,0,0,0,0,0,0,0,0,0,0,0,0,0,0,0,0,0,0,0,0,0,0,0,0,0,0,0,0,0,0,0,0,0,0,0,0,0,0,0,0,0,0,0,0,0,0,0,0,0,0,0,0,0,0,0,0,0,0,0,0,0,0,0,0,0,0,0,0,0,0,0,0,0,0,0,0,0,0,0,0,0,0,0,0,0,0,0,0,0,0,0,0,0,0,0,0,0,0,0,0,0,0,0,0,0,0,0,0,0,0,0,0,0,0,0,0,0,0,0,0,0,0,0,0,0,0,0,0,0,0,0,0,0,0,0,0,0,0,0,0,0,0,0,0,0,0,0,0,0,0,0,0,0,0,0,0,0,0,0,0,0,0,0,0,0,0,0,
0,0,0,0,0,0,0,0,0,0,0,0,0,0,0,0,0,0,0,0,0,0,0,0,0,0,0,0,0,0,0,0,0,0,0,0,0,0,0,0,0,0,0,0,0,0,0,0,0,0,0,0,0,0,0,0,0,0,0,0,0,0,0,0,0,0,0,0,0,0,0,0,0,0,0,0,0,0,0,0,0,0,0,0,0,0,0,0,0,0,0,0,0,0,0,0,0,0,0,0,0,0,0,0,0,0,0,0,0,0,0,0,0,0,0,0,0,0,0,0,0,0,0,0,0,0,0,0,0,0,0,0,0,0,0,0,0,0,0,0,0,0,0,0,0,0,0,0,0,0,0,0,0,0,0,0,0,0,0,0,0,0,0,0,0,0,0,0,0,0,0,0,0,0,0,0,0,0,0,0,0,0,0,0,0,0,0,0,0,0,0,0,0,0,0,0,0,0,0,0,0,0,0,0,0,0,0,0,0,0,0,0,0,0,0,0,0,0,0,0,0,0,0,0,0,0,0,0,0,0,0,0,0,0,0,0,0,0,0,0,0,0,0,0,0,0,0,0,0,0,0,0,0,0,0,0,
0,0,0,0,0,0,0,0,0,0,0,0,0,0,0,0,0,0,0,0,0,0,0,0,0,0,0,0,0,0,0,0,0,0,0,0,0,0,0,0,0,0,0,0,0,0,0,0,0,0,0,0,0,0,0,0,0,0,0,0,0,0,0,0,0,0,0,0,0,0,0,0,0,0,0,0,0,0,0,0,0,0,0,0,0,0,0,0,0,0,0,0,0,0,0,0,0,0,0,0,0,0,0,0,0,0,0,0,0,0,0,0,0,0,0,0,0,0,0,0,0,0,0,0,0,0,0,0,0,0,0,0,0,0,0,0,0,0,0,0,0,0,0,0,0,0,0,0,0,0,0,0,0,0,0,0,0,0,0,0,0,0,0,0,0,0,0,0,0,0,0,0,0,0,0,0,0,0,0,0,0,0,0,0,0,0,0,0,0,0,0,0,0,0,0,0,0,0,0,0,0,0,0,0,0,0,0,0,0,0,0,0,0,0,0,0,0,0,0,0,0,0,0,0,0,0,0,0,0,0,0,0,0,0,0,0,0,0,0,0,0,0,0,0,0,0,0,0,0,0,0,0,0,0,0,0,
0,0,0,0,0,0,0,0,0,0,0,0,0,0,0,0,0,0,0,0,0,0,0,0,0,0,0,0,0,0,0,0,0,0,0,0,0,0,0,0,0,0,0,0,0,0,0,0,0,0,0,0,0,0,0,0,0,0,0,0,0,0,0,0,0,0,0,0,0,0,0,0,0,0,0,0,0,0,0,0,0,0,0,0,0,0,0,0,0,0,0,0,0,0,0,0,0,0,0,0,0,0,0,0,0,0,0,0,0,0,0,0,0,0,0,0,0,0,0,0,0,0,0,0,0,0,0,0,0,0,0,0,0,0,0,0,0,0,0,0,0,0,0,0,0,0,0,0,0,0,0,0,0,0,0,0,0,0,0,0,0,0,0,0,0,0,0,0,0,0,0,0,0,0,0,0,0,0,0,0,0,0,0,0,0,0,0,0,0,0,0,0,0,0,0,0,0,0,0,0,0,0,0,0,0,0,0,0,0,0,0,0,0,0,0,0,0,0,0,0,0,0,0,0,0,0,0,0,0,0,0,0,0,0,0,0,0,0,0,0,0,0,0,0,0,0,0,0,0,0,0,0,0,0,0,0,
0,0,0,0,0,0,0,0,0,0,0,0,0,0,0,0,0,0,0,0,0,0,0,0,0,0,0,0,0,0,0,0,0,0,0,0,0,0,0,0,0,0,0,0,0,0,0,0,0,0,0,0,0,0,0,0,0,0,0,0,0,0,0,0,0,0,0,0,0,0,0,0,0,0,0,0,0,0,0,0,0,0,0,0,0,0,0,0,0,0,0,0,0,0,0,0,0,0,0,0,0,0,0,0,0,0,0,0,0,0,0,0,0,0,0,0,0,0,0,0,0,0,0,0,0,0,0,0,0,0,0,0,0,0,0,0,0,0,0,0,0,0,0,0,0,0,0,0,0,0,0,0,0,0,0,0,0,0,0,0,0,0,0,0,0,0,0,0,0,0,0,0,0,0,0,0,0,0,0,0,0,0,0,0,0,0,0,0,0,0,0,0,0,0,0,0,0,0,0,0,0,0,0,0,0,0,0,0,0,0,0,0,0,0,0,0,0,0,0,0,0,0,0,0,0,0,0,0,0,0,0,0,0,0,0,0,0,0,0,0,0,0,0,0,0,0,0,0,0,0,0,0,0,0,0,0,
0,0,0,0,0,0,0,0,0,0,0,0,0,0,0,0,0,0,0,0,0,0,0,0,0,0,0,0,0,0,0,0,0,0,0,0,0,0,0,0,0,0,0,0,0,0,0,0,0,0,0,0,0,0,0,0,0,0,0,0,0,0,0,0,0,0,0,0,0,0,0,0,0,0,0,0,0,0,0,0,0,0,0,0,0,0,0,0,0,0,0,0,0,0,0,0,0,0,0,0,0,0,0,0,0,0,0,0,0,0,0,0,0,0,0,0,0,0,0,0,0,0,0,0,0,0,0,0,0,0,0,0,0,0,0,0,0,0,0,0,0,0,0,0,0,0,0,0,0,0,0,0,0,0,0,0,0,0,0,0,0,0,0,0,0,0,0,0,0,0,0,0,0,0,0,0,0,0,0,0,0,0,0,0,0,0,0,0,0,0,0,0,0,0,0,0,0,0,0,0,0,0,0,0,0,0,0,0,0,0,0,0,0,0,0,0,0,0,0,0,0,0,0,0,0,0,0,0,0,0,0,0,0,0,0,0,0,0,0,0,0,0,0,0,0,0,0,0,0,0,0,0,0,0,0,0,
0,0,0,0,0,0,0,0,0,0,0,0,0,0,0,0,0,0,0,0,0,0,0,0,0,0,0,0,0,0,0,0,0,0,0,0,0,0,0,0,0,0,0,0,0,0,0,0,0,0,0,0,0,0,0,0,0,0,0,0,0,0,0,0,0,0,0,0,0,0,0,0,0,0,0,0,0,0,0,0,0,0,0,0,0,0,0,0,0,0,0,0,0,0,0,0,0,0,0,0,0,0,0,0,0,0,0,0,0,0,0,0,0,0,0,0,0,0,0,0,0,0,0,0,0,0,0,0,0,0,0,0,0,0,0,0,0,0,0,0,0,0,0,0,0,0,0,0,0,0,0,0,0,0,0,0,0,0,0,0,0,0,0,0,0,0,0,0,0,0,0,0,0,0,0,0,0,0,0,0,0,0,0,0,0,0,0,0,0,0,0,0,0,0,0,0,0,0,0,0,0,0,0,0,0,0,0,0,0,0,0,0,0,0,0,0,0,0,0,0,0,0,0,0,0,0,0,0,0,0,0,0,0,0,0,0,0,0,0,0,0,0,0,0,0,0,0,0,0,0,0,0,0,0,0,0,
0,0,0,0,0,0,0,0,0,0,0,0,0,0,0,0,0,0,0,0,0,0,0,0,0,0,0,0,0,0,0,0,0,0,0,0,0,0,0,0,0,0,0,0,0,0,0,0,0,0,0,0,0,0,0,0,0,0,0,0,0,0,0,0,0,0,0,0,0,0,0,0,0,0,0,0,0,0,0,0,0,0,0,0,0,0,0,0,0,0,0,0,0,0,0,0,0,0,0,0,0,0,0,0,0,0,0,0,0,0,0,0,0,0,0,0,0,0,0,0,0,0,0,0,0,0,0,0,0,0,0,0,0,0,0,0,0,0,0,0,0,0,0,0,0,0,0,0,0,0,0,0,0,0,0,0,0,0,0,0,0,0,0,0,0,0,0,0,0,0,0,0,0,0,0,0,0,0,0,0,0,0,0,0,0,0,0,0,0,0,0,0,0,0,0,0,0,0,0,0,0,0,0,0,0,0,0,0,0,0,0,0,0,0,0,0,0,0,0,0,0,0,0,0,0,0,0,0,0,0,0,0,0,0,0,0,0,0,0,0,0,0,0,0,0,0,0,0,0,0,0,0,0,0,0,0,
0,0,0,0,0,0,0,0,0,0,0,0,0,0,0,0,0,0,0,0,0,0,0,0,0,0,0,0,0,0,0,0,0,0,0,0,0,0,0,0,0,0,0,0,0,0,0,0,0,0,0,0,0,0,0,0,0,0,0,0,0,0,0,0,0,0,0,0,0,0,0,0,0,0,0,0,0,0,0,0,0,0,0,0,0,0,0,0,0,0,0,0,0,0,0,0,0,0,0,0,0,0,0,0,0,0,0,0,0,0,0,0,0,0,0,0,0,0,0,0,0,0,0,0,0,0,0,0,0,0,0,0,0,0,0,0,0,0,0,0,0,0,0,0,0,0,0,0,0,0,0,0,0,0,0,0,0,0,0,0,0,0,0,0,0,0,0,0,0,0,0,0,0,0,0,0,0,0,0,0,0,0,0,0,0,0,0,0,0,0,0,0,0,0,0,0,0,0,0,0,0,0,0,0,0,0,0,0,0,0,0,0,0,0,0,0,0,0,0,0,0,0,0,0,0,0,0,0,0,0,0,0,0,0,0,0,0,0,0,0,0,0,0,0,0,0,0,0,0,0,0,0,0,0,0,0,
0,0,0,0,0,0,0,0,0,0,0,0,0,0,0,0,0,0,0,0,0,0,0,0,0,0,0,0,0,0,0,0,0,0,0,0,0,0,0,0,0,0,0,0,0,0,0,0,0,0,0,0,0,0,0,0,0,0,0,0,0,0,0,0,0,0,0,0,0,0,0,0,0,0,0,0,0,0,0,0,0,0,0,0,0,0,0,0,0,0,0,0,0,0,0,0,0,0,0,0,0,0,0,0,0,0,0,0,0,0,0,0,0,0,0,0,0,0,0,0,0,0,0,0,0,0,0,0,0,0,0,0,0,0,0,0,0,0,0,0,0,0,0,0,0,0,0,0,0,0,0,0,0,0,0,0,0,0,0,0,0,0,0,0,0,0,0,0,0,0,0,0,0,0,0,0,0,0,0,0,0,0,0,0,0,0,0,0,0,0,0,0,0,0,0,0,0,0,0,0,0,0,0,0,0,0,0,0,0,0,0,0,0,0,0,0,0,0,0,0,0,0,0,0,0,0,0,0,0,0,0,0,0,0,0,0,0,0,0,0,0,0,0,0,0,0,0,0,0,0,0,0,0,0,0,0,
0,0,0,0,0,0,0,0,0,0,0,0,0,0,0,0,0,0,0,0,0,0,0,0,0,0,0,0,0,0,0,0,0,0,0,0,0,0,0,0,0,0,0,0,0,0,0,0,0,0,0,0,0,0,0,0,0,0,0,0,0,0,0,0,0,0,0,0,0,0,0,0,0,0,0,0,0,0,0,0,0,0,0,0,0,0,0,0,0,0,0,0,0,0,0,0,0,0,0,0,0,0,0,0,0,0,0,0,0,0,0,0,0,0,0,0,0,0,0,0,0,0,0,0,0,0,0,0,0,0,0,0,0,0,0,0,0,0,0,0,0,0,0,0,0,0,0,0,0,0,0,0,0,0,0,0,0,0,0,0,0,0,0,0,0,0,0,0,0,0,0,0,0,0,0,0,0,0,0,0,0,0,0,0,0,0,0,0,0,0,0,0,0,0,0,0,0,0,0,0,0,0,0,0,0,0,0,0,0,0,0,0,0,0,0,0,0,0,0,0,0,0,0,0,0,0,0,0,0,0,0,0,0,0,0,0,0,0,0,0,0,0,0,0,0,0,0,0,0,0,0,0,0,0,0,0,
0,0,0,0,0,0,0,0,0,0,0,0,0,0,0,0,0,0,0,0,0,0,0,0,0,0,0,0,0,0,0,0,0,0,0,0,0,0,0,0,0,0,0,0,0,0,0,0,0,0,0,0,0,0,0,0,0,0,0,0,0,0,0,0,0,0,0,0,0,0,0,0,0,0,0,0,0,0,0,0,0,0,0,0,0,0,0,0,0,0,0,0,0,0,0,0,0,0,0,0,0,0,0,0,0,0,0,0,0,0,0,0,0,0,0,0,0,0,0,0,0,0,0,0,0,0,0,0,0,0,0,0,0,0,0,0,0,0,0,0,0,0,0,0,0,0,0,0,0,0,0,0,0,0,0,0,0,0,0,0,0,0,0,0,0,0,0,0,0,0,0,0,0,0,0,0,0,0,0,0,0,0,0,0,0,0,0,0,0,0,0,0,0,0,0,0,0,0,0,0,0,0,0,0,0,0,0,0,0,0,0,0,0,0,0,0,0,0,0,0,0,0,0,0,0,0,0,0,0,0,0,0,0,0,0,0,0,0,0,0,0,0,0,0,0,0,0,0,0,0,0,0,0,0,0,0,
0,0,0,0,0,0,0,0,0,0,0,0,0,0,0,0,0,0,0,0,0,0,0,0,0,0,0,0,0,0,0,0,0,0,0,0,0,0,0,0,0,0,0,0,0,0,0,0,0,0,0,0,0,0,0,0,0,0,0,0,0,0,0,0,0,0,0,0,0,0,0,0,0,0,0,0,0,0,0,0,0,0,0,0,0,0,0,0,0,0,0,0,0,0,0,0,0,0,0,0,0,0,0,0,0,0,0,0,0,0,0,0,0,0,0,0,0,0,0,0,0,0,0,0,0,0,0,0,0,0,0,0,0,0,0,0,0,0,0,0,0,0,0,0,0,0,0,0,0,0,0,0,0,0,0,0,0,0,0,0,0,0,0,0,0,0,0,0,0,0,0,0,0,0,0,0,0,0,0,0,0,0,0,0,0,0,0,0,0,0,0,0,0,0,0,0,0,0,0,0,0,0,0,0,0,0,0,0,0,0,0,0,0,0,0,0,0,0,0,0,0,0,0,0,0,0,0,0,0,0,0,0,0,0,0,0,0,0,0,0,0,0,0,0,0,0,0,0,0,0,0,0,0,0,0,0,
0,0,0,0,0,0,0,0,0,0,0,0,0,0,0,0,0,0,0,0,0,0,0,0,0,0,0,0,0,0,0,0,0,0,0,0,0,0,0,0,0,0,0,0,0,0,0,0,0,0,0,0,0,0,0,0,0,0,0,0,0,0,0,0,0,0,0,0,0,0,0,0,0,0,0,0,0,0,0,0,0,0,0,0,0,0,0,0,0,0,0,0,0,0,0,0,0,0,0,0,0,0,0,0,0,0,0,0,0,0,0,0,0,0,0,0,0,0,0,0,0,0,0,0,0,0,0,0,0,0,0,0,0,0,0,0,0,0,0,0,0,0,0,0,0,0,0,0,0,0,0,0,0,0,0,0,0,0,0,0,0,0,0,0,0,0,0,0,0,0,0,0,0,0,0,0,0,0,0,0,0,0,0,0,0,0,0,0,0,0,0,0,0,0,0,0,0,0,0,0,0,0,0,0,0,0,0,0,0,0,0,0,0,0,0,0,0,0,0,0,0,0,0,0,0,0,0,0,0,0,0,0,0,0,0,0,0,0,0,0,0,0,0,0,0,0,0,0,0,0,0,0,0,0,0,0,
0,0,0,0,0,0,0,0,0,0,0,0,0,0,0,0,0,0,0,0,0,0,0,0,0,0,0,0,0,0,0,0,0,0,0,0,0,0,0,0,0,0,0,0,0,0,0,0,0,0,0,0,0,0,0,0,0,0,0,0,0,0,0,0,0,0,0,0,0,0,0,0,0,0,0,0,0,0,0,0,0,0,0,0,0,0,0,0,0,0,0,0,0,0,0,0,0,0,0,0,0,0,0,0,0,0,0,0,0,0,0,0,0,0,0,0,0,0,0,0,0,0,0,0,0,0,0,0,0,0,0,0,0,0,0,0,0,0,0,0,0,0,0,0,0,0,0,0,0,0,0,0,0,0,0,0,0,0,0,0,0,0,0,0,0,0,0,0,0,0,0,0,0,0,0,0,0,0,0,0,0,0,0,0,0,0,0,0,0,0,0,0,0,0,0,0,0,0,0,0,0,0,0,0,0,0,0,0,0,0,0,0,0,0,0,0,0,0,0,0,0,0,0,0,0,0,0,0,0,0,0,0,0,0,0,0,0,0,0,0,0,0,0,0,0,0,0,0,0,0,0,0,0,0,0,0,
0,0,0,0,0,0,0,0,0,0,0,0,0,0,0,0,0,0,0,0,0,0,0,0,0,0,0,0,0,0,0,0,0,0,0,0,0,0,0,0,0,0,0,0,0,0,0,0,0,0,0,0,0,0,0,0,0,0,0,0,0,0,0,0,0,0,0,0,0,0,0,0,0,0,0,0,0,0,0,0,0,0,0,0,0,0,0,0,0,0,0,0,0,0,0,0,0,0,0,0,0,0,0,0,0,0,0,0,0,0,0,0,0,0,0,0,0,0,0,0,0,0,0,0,0,0,0,0,0,0,0,0,0,0,0,0,0,0,0,0,0,0,0,0,0,0,0,0,0,0,0,0,0,0,0,0,0,0,0,0,0,0,0,0,0,0,0,0,0,0,0,0,0,0,0,0,0,0,0,0,0,0,0,0,0,0,0,0,0,0,0,0,0,0,0,0,0,0,0,0,0,0,0,0,0,0,0,0,0,0,0,0,0,0,0,0,0,0,0,0,0,0,0,0,0,0,0,0,0,0,0,0,0,0,0,0,0,0,0,0,0,0,0,0,0,0,0,0,0,0,0,0,0,0,0,0,
0,0,0,0,0,0,0,0,0,0,0,0,0,0,0,0,0,0,0,0,0,0,0,0,0,0,0,0,0,0,0,0,0,0,0,0,0,0,0,0,0,0,0,0,0,0,0,0,0,0,0,0,0,0,0,0,0,0,0,0,0,0,0,0,0,0,0,0,0,0,0,0,0,0,0,0,0,0,0,0,0,0,0,0,0,0,0,0,0,0,0,0,0,0,0,0,0,0,0,0,0,0,0,0,0,0,0,0,0,0,0,0,0,0,0,0,0,0,0,0,0,0,0,0,0,0,0,0,0,0,0,0,0,0,0,0,0,0,0,0,0,0,0,0,0,0,0,0,0,0,0,0,0,0,0,0,0,0,0,0,0,0,0,0,0,0,0,0,0,0,0,0,0,0,0,0,0,0,0,0,0,0,0,0,0,0,0,0,0,0,0,0,0,0,0,0,0,0,0,0,0,0,0,0,0,0,0,0,0,0,0,0,0,0,0,0,0,0,0,0,0,0,0,0,0,0,0,0,0,0,0,0,0,0,0,0,0,0,0,0,0,0,0,0,0,0,0,0,0,0,0,0,0,0,0,0,
0,0,0,0,0,0,0,0,0,0,0,0,0,0,0,0,0,0,0,0,0,0,0,0,0,0,0,0,0,0,0,0,0,0,0,0,0,0,0,0,0,0,0,0,0,0,0,0,0,0,0,0,0,0,0,0,0,0,0,0,0,0,0,0,0,0,0,0,0,0,0,0,0,0,0,0,0,0,0,0,0,0,0,0,0,0,0,0,0,0,0,0,0,0,0,0,0,0,0,0,0,0,0,0,0,0,0,0,0,0,0,0,0,0,0,0,0,0,0,0,0,0,0,0,0,0,0,0,0,0,0,0,0,0,0,0,0,0,0,0,0,0,0,0,0,0,0,0,0,0,0,0,0,0,0,0,0,0,0,0,0,0,0,0,0,0,0,0,0,0,0,0,0,0,0,0,0,0,0,0,0,0,0,0,0,0,0,0,0,0,0,0,0,0,0,0,0,0,0,0,0,0,0,0,0,0,0,0,0,0,0,0,0,0,0,0,0,0,0,0,0,0,0,0,0,0,0,0,0,0,0,0,0,0,0,0,0,0,0,0,0,0,0,0,0,0,0,0,0,0,0,0,0,0,0,0,
0,0,0,0,0,0,0,0,0,0,0,0,0,0,0,0,0,0,0,0,0,0,0,0,0,0,0,0,0,0,0,0,0,0,0,0,0,0,0,0,0,0,0,0,0,0,0,0,0,0,0,0,0,0,0,0,0,0,0,0,0,0,0,0,0,0,0,0,0,0,0,0,0,0,0,0,0,0,0,0,0,0,0,0,0,0,0,0,0,0,0,0,0,0,0,0,0,0,0,0,0,0,0,0,0,0,0,0,0,0,0,0,0,0,0,0,0,0,0,0,0,0,0,0,0,0,0,0,0,0,0,0,0,0,0,0,0,0,0,0,0,0,0,0,0,0,0,0,0,0,0,0,0,0,0,0,0,0,0,0,0,0,0,0,0,0,0,0,0,0,0,0,0,0,0,0,0,0,0,0,0,0,0,0,0,0,0,0,0,0,0,0,0,0,0,0,0,0,0,0,0,0,0,0,0,0,0,0,0,0,0,0,0,0,0,0,0,0,0,0,0,0,0,0,0,0,0,0,0,0,0,0,0,0,0,0,0,0,0,0,0,0,0,0,0,0,0,0,0,0,0,0,0,0,0,0,
0,0,0,0,0,0,0,0,0,0,0,0,0,0,0,0,0,0,0,0,0,0,0,0,0,0,0,0,0,0,0,0,0,0,0,0,0,0,0,0,0,0,0,0,0,0,0,0,0,0,0,0,0,0,0,0,0,0,0,0,0,0,0,0,0,0,0,0,0,0,0,0,0,0,0,0,0,0,0,0,0,0,0,0,0,0,0,0,0,0,0,0,0,0,0,0,0,0,0,0,0,0,0,0,0,0,0,0,0,0,0,0,0,0,0,0,0,0,0,0,0,0,0,0,0,0,0,0,0,0,0,0,0,0,0,0,0,0,0,0,0,0,0,0,0,0,0,0,0,0,0,0,0,0,0,0,0,0,0,0,0,0,0,0,0,0,0,0,0,0,0,0,0,0,0,0,0,0,0,0,0,0,0,0,0,0,0,0,0,0,0,0,0,0,0,0,0,0,0,0,0,0,0,0,0,0,0,0,0,0,0,0,0,0,0,0,0,0,0,0,0,0,0,0,0,0,0,0,0,0,0,0,0,0,0,0,0,0,0,0,0,0,0,0,0,0,0,0,0,0,0,0,0,0,0,0,
0,0,0,0,0,0,0,0,0,0,0,0,0,0,0,0,0,0,0,0,0,0,0,0,0,0,0,0,0,0,0,0,0,0,0,0,0,0,0,0,0,0,0,0,0,0,0,0,0,0,0,0,0,0,0,0,0,0,0,0,0,0,0,0,0,0,0,0,0,0,0,0,0,0,0,0,0,0,0,0,0,0,0,0,0,0,0,0,0,0,0,0,0,0,0,0,0,0,0,0,0,0,0,0,0,0,0,0,0,0,0,0,0,0,0,0,0,0,0,0,0,0,0,0,0,0,0,0,0,0,0,0,0,0,0,0,0,0,0,0,0,0,0,0,0,0,0,0,0,0,0,0,0,0,0,0,0,0,0,0,0,0,0,0,0,0,0,0,0,0,0,0,0,0,0,0,0,0,0,0,0,0,0,0,0,0,0,0,0,0,0,0,0,0,0,0,0,0,0,0,0,0,0,0,0,0,0,0,0,0,0,0,0,0,0,0,0,0,0,0,0,0,0,0,0,0,0,0,0,0,0,0,0,0,0,0,0,0,0,0,0,0,0,0,0,0,0,0,0,0,0,0,0,0,0,0,
0,0,0,0,0,0,0,0,0,0,0,0,0,0,0,0,0,0,0,0,0,0,0,0,0,0,0,0,0,0,0,0,0,0,0,0,0,0,0,0,0,0,0,0,0,0,0,0,0,0,0,0,0,0,0,0,0,0,0,0,0,0,0,0,0,0,0,0,0,0,0,0,0,0,0,0,0,0,0,0,0,0,0,0,0,0,0,0,0,0,0,0,0,0,0,0,0,0,0,0,0,0,0,0,0,0,0,0,0,0,0,0,0,0,0,0,0,0,0,0,0,0,0,0,0,0,0,0,0,0,0,0,0,0,0,0,0,0,0,0,0,0,0,0,0,0,0,0,0,0,0,0,0,0,0,0,0,0,0,0,0,0,0,0,0,0,0,0,0,0,0,0,0,0,0,0,0,0,0,0,0,0,0,0,0,0,0,0,0,0,0,0,0,0,0,0,0,0,0,0,0,0,0,0,0,0,0,0,0,0,0,0,0,0,0,0,0,0,0,0,0,0,0,0,0,0,0,0,0,0,0,0,0,0,0,0,0,0,0,0,0,0,0,0,0,0,0,0,0,0,0,0,0,0,0,0,
0,0,0,0,0,0,0,0,0,0,0,0,0,0,0,0,0,0,0,0,0,0,0,0,0,0,0,0,0,0,0,0,0,0,0,0,0,0,0,0,0,0,0,0,0,0,0,0,0,0,0,0,0,0,0,0,0,0,0,0,0,0,0,0,0,0,0,0,0,0,0,0,0,0,0,0,0,0,0,0,0,0,0,0,0,0,0,0,0,0,0,0,0,0,0,0,0,0,0,0,0,0,0,0,0,0,0,0,0,0,0,0,0,0,0,0,0,0,0,0,0,0,0,0,0,0,0,0,0,0,0,0,0,0,0,0,0,0,0,0,0,0,0,0,0,0,0,0,0,0,0,0,0,0,0,0,0,0,0,0,0,0,0,0,0,0,0,0,0,0,0,0,0,0,0,0,0,0,0,0,0,0,0,0,0,0,0,0,0,0,0,0,0,0,0,0,0,0,0,0,0,0,0,0,0,0,0,0,0,0,0,0,0,0,0,0,0,0,0,0,0,0,0,0,0,0,0,0,0,0,0,0,0,0,0,0,0,0,0,0,0,0,0,0,0,0,0,0,0,0,0,0,0,0,0,0,
0,0,0,0,0,0,0,0,0,0,0,0,0,0,0,0,0,0,0,0,0,0,0,0,0,0,0,0,0,0,0,0,0,0,0,0,0,0,0,0,0,0,0,0,0,0,0,0,0,0,0,0,0,0,0,0,0,0,0,0,0,0,0,0,0,0,0,0,0,0,0,0,0,0,0,0,0,0,0,0,0,0,0,0,0,0,0,0,0,0,0,0,0,0,0,0,0,0,0,0,0,0,0,0,0,0,0,0,0,0,0,0,0,0,0,0,0,0,0,0,0,0,0,0,0,0,0,0,0,0,0,0,0,0,0,0,0,0,0,0,0,0,0,0,0,0,0,0,0,0,0,0,0,0,0,0,0,0,0,0,0,0,0,0,0,0,0,0,0,0,0,0,0,0,0,0,0,0,0,0,0,0,0,0,0,0,0,0,0,0,0,0,0,0,0,0,0,0,0,0,0,0,0,0,0,0,0,0,0,0,0,0,0,0,0,0,0,0,0,0,0,0,0,0,0,0,0,0,0,0,0,0,0,0,0,0,0,0,0,0,0,0,0,0,0,0,0,0,0,0,0,0,0,0,0,0,
0,0,0,0,0,0,0,0,0,0,0,0,0,0,0,0,0,0,0,0,0,0,0,0,0,0,0,0,0,0,0,0,0,0,0,0,0,0,0,0,0,0,0,0,0,0,0,0,0,0,0,0,0,0,0,0,0,0,0,0,0,0,0,0,0,0,0,0,0,0,0,0,0,0,0,0,0,0,0,0,0,0,0,0,0,0,0,0,0,0,0,0,0,0,0,0,0,0,0,0,0,0,0,0,0,0,0,0,0,0,0,0,0,0,0,0,0,0,0,0,0,0,0,0,0,0,0,0,0,0,0,0,0,0,0,0,0,0,0,0,0,0,0,0,0,0,0,0,0,0,0,0,0,0,0,0,0,0,0,0,0,0,0,0,0,0,0,0,0,0,0,0,0,0,0,0,0,0,0,0,0,0,0,0,0,0,0,0,0,0,0,0,0,0,0,0,0,0,0,0,0,0,0,0,0,0,0,0,0,0,0,0,0,0,0,0,0,0,0,0,0,0,0,0,0,0,0,0,0,0,0,0,0,0,0,0,0,0,0,0,0,0,0,0,0,0,0,0,0,0,0,0,0,0,0,0,
0,0,0,0,0,0,0,0,0,0,0,0,0,0,0,0,0,0,0,0,0,0,0,0,0,0,0,0,0,0,0,0,0,0,0,0,0,0,0,0,0,0,0,0,0,0,0,0,0,0,0,0,0,0,0,0,0,0,0,0,0,0,0,0,0,0,0,0,0,0,0,0,0,0,0,0,0,0,0,0,0,0,0,0,0,0,0,0,0,0,0,0,0,0,0,0,0,0,0,0,0,0,0,0,0,0,0,0,0,0,0,0,0,0,0,0,0,0,0,0,0,0,0,0,0,0,0,0,0,0,0,0,0,0,0,0,0,0,0,0,0,0,0,0,0,0,0,0,0,0,0,0,0,0,0,0,0,0,0,0,0,0,0,0,0,0,0,0,0,0,0,0,0,0,0,0,0,0,0,0,0,0,0,0,0,0,0,0,0,0,0,0,0,0,0,0,0,0,0,0,0,0,0,0,0,0,0,0,0,0,0,0,0,0,0,0,0,0,0,0,0,0,0,0,0,0,0,0,0,0,0,0,0,0,0,0,0,0,0,0,0,0,0,0,0,0,0,0,0,0,0,0,0,0,0,0,
0,0,0,0,0,0,0,0,0,0,0,0,0,0,0,0,0,0,0,0,0,0,0,0,0,0,0,0,0,0,0,0,0,0,0,0,0,0,0,0,0,0,0,0,0,0,0,0,0,0,0,0,0,0,0,0,0,0,0,0,0,0,0,0,0,0,0,0,0,0,0,0,0,0,0,0,0,0,0,0,0,0,0,0,0,0,0,0,0,0,0,0,0,0,0,0,0,0,0,0,0,0,0,0,0,0,0,0,0,0,0,0,0,0,0,0,0,0,0,0,0,0,0,0,0,0,0,0,0,0,0,0,0,0,0,0,0,0,0,0,0,0,0,0,0,0,0,0,0,0,0,0,0,0,0,0,0,0,0,0,0,0,0,0,0,0,0,0,0,0,0,0,0,0,0,0,0,0,0,0,0,0,0,0,0,0,0,0,0,0,0,0,0,0,0,0,0,0,0,0,0,0,0,0,0,0,0,0,0,0,0,0,0,0,0,0,0,0,0,0,0,0,0,0,0,0,0,0,0,0,0,0,0,0,0,0,0,0,0,0,0,0,0,0,0,0,0,0,0,0,0,0,0,0,0,0,
0,0,0,0,0,0,0,0,0,0,0,0,0,0,0,0,0,0,0,0,0,0,0,0,0,0,0,0,0,0,0,0,0,0,0,0,0,0,0,0,0,0,0,0,0,0,0,0,0,0,0,0,0,0,0,0,0,0,0,0,0,0,0,0,0,0,0,0,0,0,0,0,0,0,0,0,0,0,0,0,0,0,0,0,0,0,0,0,0,0,0,0,0,0,0,0,0,0,0,0,0,0,0,0,0,0,0,0,0,0,0,0,0,0,0,0,0,0,0,0,0,0,0,0,0,0,0,0,0,0,0,0,0,0,0,0,0,0,0,0,0,0,0,0,0,0,0,0,0,0,0,0,0,0,0,0,0,0,0,0,0,0,0,0,0,0,0,0,0,0,0,0,0,0,0,0,0,0,0,0,0,0,0,0,0,0,0,0,0,0,0,0,0,0,0,0,0,0,0,0,0,0,0,0,0,0,0,0,0,0,0,0,0,0,0,0,0,0,0,0,0,0,0,0,0,0,0,0,0,0,0,0,0,0,0,0,0,0,0,0,0,0,0,0,0,0,0,0,0,0,0,0,0,0,0,0,
0,0,0,0,0,0,0,0,0,0,0,0,0,0,0,0,0,0,0,0,0,0,0,0,0,0,0,0,0,0,0,0,0,0,0,0,0,0,0,0,0,0,0,0,0,0,0,0,0,0,0,0,0,0,0,0,0,0,0,0,0,0,0,0,0,0,0,0,0,0,0,0,0,0,0,0,0,0,0,0,0,0,0,0,0,0,0,0,0,0,0,0,0,0,0,0,1079,1080,1080,1080,1080,1081,0,0,1079,1080,1080,1080,1080,1081,0,0,0,0,0,0,0,0,0,0,0,0,0,0,0,0,0,0,0,0,0,0,0,0,0,0,0,0,0,0,0,0,0,0,0,0,0,0,0,0,0,0,0,0,0,0,0,0,0,0,0,0,0,0,0,0,0,0,0,0,0,0,0,0,0,0,0,0,0,0,0,0,0,0,0,0,0,0,0,0,0,0,0,0,0,0,0,0,0,0,0,0,0,0,0,0,0,0,0,0,0,0,0,0,0,0,0,0,0,0,0,0,0,0,0,0,0,0,0,0,0,0,0,0,0,0,0,0,0,0,0,0,0,0,0,0,0,0,0,0,0,0,0,0,0,0,
0,0,0,0,0,0,0,0,0,0,0,0,0,0,0,0,0,0,0,0,0,0,0,0,0,0,0,0,0,0,0,0,0,0,0,0,0,0,0,0,0,0,0,0,0,0,0,0,0,0,0,0,0,0,0,0,0,0,0,0,0,0,0,0,0,0,0,0,0,0,0,0,0,0,0,0,0,0,0,0,0,0,0,0,0,0,0,0,0,0,0,0,0,0,0,0,1084,1085,1085,1085,1085,1086,0,0,1084,1085,1085,1085,1085,1086,0,0,0,0,0,0,0,0,0,0,0,0,0,0,0,0,0,0,0,0,0,0,0,0,0,0,0,0,0,0,0,0,0,0,0,0,0,0,0,0,0,0,0,0,0,0,0,0,0,0,0,0,0,0,0,0,0,0,0,0,0,0,0,0,0,0,0,0,0,0,0,0,0,0,0,0,0,0,0,0,0,0,0,0,0,0,0,0,0,0,0,0,0,0,0,0,0,0,0,0,0,0,0,0,0,0,0,0,0,0,0,0,0,0,0,0,0,0,0,0,0,0,0,0,0,0,0,0,0,0,0,0,0,0,0,0,0,0,0,0,0,0,0,0,0,0,
0,0,0,0,0,0,0,0,0,0,0,0,0,0,0,0,0,0,0,0,0,0,0,0,0,0,0,0,0,0,0,0,0,0,0,0,0,0,0,0,0,0,0,0,0,0,0,0,0,0,0,0,0,0,0,0,0,0,0,0,0,0,0,0,0,0,0,0,0,0,0,0,0,0,0,0,0,0,0,0,0,0,0,0,0,0,0,0,0,0,0,0,0,0,0,0,1084,1085,1085,1085,1085,1086,0,0,1084,1085,1085,1085,1085,1086,0,0,0,0,0,0,0,0,0,0,0,0,0,0,0,0,0,0,0,0,0,0,0,0,0,0,0,0,0,0,0,0,0,0,0,0,1079,1080,1080,1080,1080,1081,0,0,1079,1080,1080,1080,1080,1081,0,0,0,0,0,0,0,0,0,0,0,0,0,0,0,0,0,0,0,0,0,0,0,0,0,0,0,0,0,0,0,0,0,0,0,0,0,0,0,0,0,0,0,0,0,0,0,0,0,0,0,0,0,0,0,0,0,0,0,0,0,0,0,0,0,0,0,0,0,0,0,0,0,0,0,0,0,0,0,0,0,0,0,0,0,0,0,0,0,0,0,0,0,0,0,0,
0,0,0,0,0,0,0,0,0,0,0,0,0,0,0,0,0,0,0,0,0,0,0,0,0,0,0,0,0,0,0,0,0,0,0,0,0,0,0,0,0,0,0,0,0,0,0,0,0,0,0,0,0,0,0,0,0,0,0,0,0,0,0,0,0,0,0,0,0,0,0,0,0,0,0,0,0,0,0,0,0,0,0,0,0,0,0,0,0,0,0,0,0,0,0,0,1084,1085,1085,1085,1085,1086,0,0,1084,1085,1085,1085,1085,1086,0,0,0,0,0,0,0,0,0,0,0,0,0,0,0,0,0,0,0,0,0,0,0,0,0,0,0,0,0,0,0,0,0,0,0,0,1084,1085,1085,1085,1085,1086,0,0,1084,1085,1085,1085,1085,1086,0,0,0,0,0,0,0,0,0,0,0,0,0,0,0,0,0,0,0,0,0,0,0,0,0,0,0,0,0,0,0,0,0,0,0,0,0,0,0,0,0,0,0,0,0,0,0,0,0,0,0,0,0,0,0,0,0,0,0,0,0,0,0,0,0,0,0,0,0,0,0,0,0,0,0,0,0,0,0,0,0,0,0,0,0,0,0,0,0,0,0,0,0,0,0,0,
0,0,0,0,0,0,0,0,0,0,0,0,0,0,0,0,0,0,0,0,0,0,0,0,0,0,0,0,0,0,0,0,0,0,0,0,0,0,0,0,0,0,0,0,0,0,1079,1080,1080,1080,1080,1081,0,0,1079,1080,1080,1080,1080,1081,0,0,0,0,0,0,0,0,0,0,0,0,0,0,0,0,0,0,0,0,0,0,0,0,0,0,0,0,0,0,0,0,0,0,0,0,1084,1085,1085,1085,1085,1086,0,0,1084,1085,1085,1085,1085,1086,0,0,0,0,0,0,0,0,0,0,0,0,0,0,0,0,0,0,0,0,0,0,0,0,0,0,0,0,0,0,0,0,0,0,0,0,1084,1085,1085,1085,1085,1086,0,0,1084,1085,1085,1085,1085,1086,0,0,0,0,0,0,0,0,0,0,0,0,0,0,0,0,0,0,0,0,0,0,0,0,0,0,0,0,0,0,0,0,0,0,0,0,0,0,0,0,0,0,0,0,0,0,0,0,0,0,0,0,0,0,0,0,0,0,0,0,0,0,0,0,0,0,0,0,0,0,0,0,0,0,0,0,0,0,0,0,0,0,0,0,0,0,0,0,0,0,0,0,0,0,0,0,
0,0,0,0,0,0,0,0,0,0,0,0,0,0,0,0,0,0,0,0,0,0,0,0,0,0,0,0,0,0,0,0,0,0,0,0,0,0,0,0,0,0,0,0,0,0,1084,1085,1085,1085,1085,1086,0,0,1084,1085,1085,1085,1085,1086,0,0,0,0,0,0,0,0,0,0,0,0,0,0,0,0,0,0,0,0,0,0,0,0,0,0,0,0,0,0,0,0,0,0,0,0,1084,1085,1085,1085,1085,1086,0,0,1084,1085,1085,1085,1085,1086,0,0,0,0,0,0,0,0,0,0,0,0,0,0,0,0,0,0,0,0,0,0,0,0,0,0,0,0,0,0,0,0,0,0,0,0,1084,1085,1085,1085,1085,1086,0,0,1084,1085,1085,1085,1085,1086,0,0,0,0,0,0,0,0,0,0,0,0,0,0,0,0,0,0,0,0,0,0,0,0,0,0,0,0,0,0,0,0,0,0,0,0,0,0,0,0,0,0,0,0,0,0,0,0,0,0,0,0,0,0,0,0,0,0,0,0,0,0,0,0,0,0,0,0,0,0,0,0,0,0,0,0,0,0,0,0,0,0,0,0,0,0,0,0,0,0,0,0,0,0,0,0,
0,0,0,0,0,0,0,0,0,0,0,0,0,0,0,0,0,0,0,0,0,0,0,0,0,0,0,0,0,0,0,0,0,0,0,0,0,0,0,0,0,0,0,0,0,0,1084,1085,1085,1085,1085,1086,0,0,1084,1085,1085,1085,1085,1086,0,0,0,0,0,0,0,0,0,0,0,0,0,0,0,0,0,0,0,0,0,0,0,0,0,0,0,0,0,0,0,0,0,0,0,0,1084,1085,1085,1085,1085,1086,0,0,1084,1085,1085,1085,1085,1086,0,0,0,0,0,0,0,0,0,0,0,0,0,0,0,0,0,0,0,0,0,0,0,0,0,0,0,0,0,0,0,0,0,0,0,0,1084,1085,1085,1085,1085,1086,0,0,1084,1085,1085,1085,1085,1086,0,0,0,0,0,0,0,0,0,0,0,0,0,0,0,0,0,0,0,0,0,0,0,0,0,0,0,0,0,0,0,0,0,0,0,0,0,0,0,0,0,0,0,0,0,0,0,0,0,0,0,0,0,0,0,0,0,0,0,0,0,0,0,0,0,0,0,0,0,0,0,0,0,0,0,0,0,0,0,0,0,0,0,0,0,0,0,0,0,0,0,0,0,0,0,0,
0,0,0,0,0,0,0,0,0,0,0,0,0,0,0,0,0,0,0,0,0,0,0,0,0,0,0,0,0,0,0,0,0,0,0,0,0,0,0,0,0,0,0,0,0,0,1084,1085,1085,1085,1085,1086,0,0,1084,1085,1085,1085,1085,1086,0,0,0,0,0,0,0,0,0,0,0,0,0,0,0,0,0,0,0,0,0,0,0,0,0,0,0,0,0,0,0,0,0,0,0,0,1089,1090,1090,1090,1090,1091,0,0,1089,1090,1090,1090,1090,1091,0,0,0,0,0,0,0,0,0,0,0,0,0,0,0,0,0,0,0,0,0,0,0,0,0,0,0,0,0,0,0,0,0,0,0,0,1084,1085,1085,1085,1085,1086,0,0,1084,1085,1085,1085,1085,1086,0,0,0,0,0,0,0,0,0,0,0,0,0,0,0,0,0,0,0,0,0,0,0,0,0,0,0,0,0,0,0,0,0,0,0,0,0,0,0,0,0,0,0,0,0,0,0,0,0,0,0,0,0,0,0,0,0,0,0,0,0,0,0,0,0,0,0,0,0,0,0,0,0,0,0,0,0,0,0,0,0,0,0,0,0,0,0,0,0,0,0,0,0,0,0,0,
0,0,0,0,0,0,0,0,0,0,0,0,0,0,0,0,0,0,0,0,0,0,0,0,0,0,0,0,0,0,0,0,0,0,0,0,0,0,0,0,0,0,0,0,0,0,1084,1085,1085,1085,1085,1086,0,0,1084,1085,1085,1085,1085,1086,0,0,0,0,0,0,0,0,0,0,0,0,0,0,0,0,0,0,0,0,0,0,0,0,0,0,0,0,0,0,0,0,0,0,0,0,0,0,0,0,0,0,0,0,0,0,0,0,0,0,0,0,0,0,0,0,0,0,0,0,0,0,0,0,0,0,0,0,0,0,0,0,0,0,0,0,0,0,0,0,0,0,0,0,0,0,1084,1085,1085,1085,1085,1086,0,0,1084,1085,1085,1085,1085,1086,0,0,0,0,0,0,0,0,0,0,0,0,0,0,0,0,0,0,0,0,0,0,0,0,0,0,0,0,0,0,0,0,0,0,0,0,1079,1080,1080,1080,1080,1081,0,0,1079,1080,1080,1080,1080,1081,0,0,0,0,0,0,0,0,0,0,0,0,0,0,0,0,0,0,0,0,0,0,0,0,0,0,0,0,0,0,0,0,0,0,0,0,0,0,0,0,0,0,0,0,0,0,
0,0,0,0,0,0,0,0,0,0,0,0,0,0,0,0,0,0,0,0,0,0,0,0,0,0,0,0,0,0,0,0,0,0,0,0,0,0,0,0,0,0,0,0,0,0,1084,1085,1085,1085,1085,1086,0,0,1084,1085,1085,1085,1085,1086,0,0,0,0,0,0,0,0,0,0,0,0,0,0,0,0,0,0,0,0,0,0,0,0,0,0,0,0,0,0,0,0,0,0,0,0,0,0,0,0,0,0,0,0,0,0,0,0,0,0,0,0,0,0,0,0,0,0,0,0,0,0,0,0,0,0,0,0,0,0,0,0,0,0,0,0,0,0,0,0,0,0,0,0,0,0,1089,1090,1090,1090,1090,1091,0,0,1089,1090,1090,1090,1090,1091,0,0,0,0,0,0,0,0,0,0,0,0,0,0,0,0,0,0,0,0,0,0,0,0,0,0,0,0,0,0,0,0,0,0,0,0,1084,1085,1085,1085,1085,1086,0,0,1084,1085,1085,1085,1085,1086,0,0,0,0,0,0,0,0,0,0,0,0,0,0,0,0,0,0,0,0,0,0,0,0,0,0,0,0,0,0,0,0,0,0,0,0,0,0,0,0,0,0,0,0,0,0,
0,0,0,0,0,0,0,0,0,0,0,0,0,0,0,0,0,0,0,0,0,0,0,0,0,0,0,0,0,0,0,0,0,0,0,0,0,0,0,0,0,0,0,0,0,0,1084,1085,1085,1085,1085,1086,0,0,1084,1085,1085,1085,1085,1086,0,0,0,0,0,0,0,0,0,0,0,0,0,0,0,0,0,0,0,0,0,0,0,0,0,0,0,0,0,0,0,0,0,0,0,0,1079,1080,1080,1080,1080,1081,0,0,1079,1080,1080,1080,1080,1081,0,0,0,0,0,0,0,0,0,0,0,0,0,0,0,0,0,0,0,0,0,0,0,0,0,0,0,0,0,0,0,0,0,0,0,0,0,0,0,0,0,0,0,0,0,0,0,0,0,0,0,0,0,0,0,0,0,0,0,0,0,0,0,0,0,0,0,0,0,0,0,0,0,0,0,0,0,0,0,0,0,0,0,0,0,0,1084,1085,1085,1085,1085,1086,0,0,1084,1085,1085,1085,1085,1086,0,0,0,0,0,0,0,0,0,0,0,0,0,0,0,0,0,0,0,0,0,0,0,0,0,0,0,0,0,0,0,0,0,0,0,0,0,0,0,0,0,0,0,0,0,0,
0,0,0,0,0,0,0,0,0,0,0,0,0,0,0,0,0,0,0,0,0,0,0,0,0,0,0,0,0,0,0,0,0,0,0,0,0,0,0,0,0,0,0,0,0,0,1089,1090,1090,1090,1090,1091,0,0,1089,1090,1090,1090,1090,1091,0,0,0,0,0,0,0,0,0,0,0,0,0,0,0,0,0,0,0,0,0,0,0,0,0,0,0,0,0,0,0,0,0,0,0,0,1084,1085,1085,1085,1085,1086,0,0,1084,1085,1085,1085,1085,1086,0,0,0,0,0,0,0,0,0,0,0,0,0,0,0,0,0,0,0,0,0,0,0,0,0,0,0,0,0,0,0,0,0,0,0,0,0,0,0,0,0,0,0,0,0,0,0,0,0,0,0,0,0,0,0,0,0,0,0,0,0,0,0,0,0,0,0,0,0,0,0,0,0,0,0,0,0,0,0,0,0,0,0,0,0,0,1084,1085,1085,1085,1085,1086,0,0,1084,1085,1085,1085,1085,1086,0,0,0,0,0,0,0,0,0,0,0,0,0,0,0,0,0,0,0,0,0,0,0,0,0,0,0,0,0,0,0,0,0,0,0,0,0,0,0,0,0,0,0,0,0,0,
0,0,0,0,0,0,0,0,0,0,0,0,0,0,0,0,0,0,0,0,0,0,0,0,0,0,0,0,0,0,0,0,0,0,0,0,0,0,0,0,0,0,0,0,0,0,0,0,0,0,0,0,0,0,0,0,0,0,0,0,0,0,0,0,0,0,0,0,0,0,0,0,0,0,0,0,0,0,0,0,0,0,0,0,0,0,0,0,0,0,0,0,0,0,0,0,1084,1085,1085,1085,1085,1086,0,0,1084,1085,1085,1085,1085,1086,0,0,0,0,0,0,0,0,0,0,0,0,0,0,0,0,0,0,0,0,0,0,0,0,0,0,0,0,0,0,0,0,0,0,0,0,1079,1080,1080,1080,1080,1081,0,0,1079,1080,1080,1080,1080,1081,0,0,0,0,0,0,0,0,0,0,0,0,0,0,0,0,0,0,0,0,0,0,0,0,0,0,0,0,0,0,0,0,0,0,0,0,1084,1085,1085,1085,1085,1086,0,0,1084,1085,1085,1085,1085,1086,0,0,0,0,0,0,0,0,0,0,0,0,0,0,0,0,0,0,0,0,0,0,0,0,0,0,0,0,0,0,0,0,0,0,0,0,0,0,0,0,0,0,0,0,0,0,
0,0,0,0,0,0,0,0,0,0,0,0,0,0,0,0,0,0,0,0,0,0,0,0,0,0,0,0,0,0,0,0,0,0,0,0,0,0,0,0,0,0,0,0,0,0,0,0,0,0,0,0,0,0,0,0,0,0,0,0,0,0,0,0,0,0,0,0,0,0,0,0,0,0,0,0,0,0,0,0,0,0,0,0,0,0,0,0,0,0,0,0,0,0,0,0,1084,1085,1085,1085,1085,1086,0,0,1084,1085,1085,1085,1085,1086,0,0,0,0,0,0,0,0,0,0,0,0,0,0,0,0,0,0,0,0,0,0,0,0,0,0,0,0,0,0,0,0,0,0,0,0,1084,1085,1085,1085,1085,1086,0,0,1084,1085,1085,1085,1085,1086,0,0,0,0,0,0,0,0,0,0,0,0,0,0,0,0,0,0,0,0,0,0,0,0,0,0,0,0,0,0,0,0,0,0,0,0,1084,1085,1085,1085,1085,1086,0,0,1084,1085,1085,1085,1085,1086,0,0,0,0,0,0,0,0,0,0,0,0,0,0,0,0,0,0,0,0,0,0,0,0,0,0,0,0,0,0,0,0,0,0,0,0,0,0,0,0,0,0,0,0,0,0,
0,0,0,0,0,0,0,0,0,0,0,0,0,0,0,0,0,0,0,0,0,0,0,0,0,0,0,0,0,0,0,0,0,0,0,0,0,0,0,0,0,0,0,0,0,0,1079,1080,1080,1080,1080,1081,0,0,1079,1080,1080,1080,1080,1081,0,0,0,0,0,0,0,0,0,0,0,0,0,0,0,0,0,0,0,0,0,0,0,0,0,0,0,0,0,0,0,0,0,0,0,0,1084,1085,1085,1085,1085,1086,0,0,1084,1085,1085,1085,1085,1086,0,0,0,0,0,0,0,0,0,0,0,0,0,0,0,0,0,0,0,0,0,0,0,0,0,0,0,0,0,0,0,0,0,0,0,0,1084,1085,1085,1085,1085,1086,0,0,1084,1085,1085,1085,1085,1086,0,0,0,0,0,0,0,0,0,0,0,0,0,0,0,0,0,0,0,0,0,0,0,0,0,0,0,0,0,0,0,0,0,0,0,0,1084,1085,1085,1085,1085,1086,0,0,1084,1085,1085,1085,1085,1086,0,0,0,0,0,0,0,0,0,0,0,0,0,0,0,0,0,0,0,0,0,0,0,0,0,0,0,0,0,0,0,0,0,0,0,0,0,0,0,0,0,0,0,0,0,0,
0,0,0,0,0,0,0,0,0,0,0,0,0,0,0,0,0,0,0,0,0,0,0,0,0,0,0,0,0,0,0,0,0,0,0,0,0,0,0,0,0,0,0,0,0,0,1084,1085,1085,1085,1085,1086,0,0,1084,1085,1085,1085,1085,1086,0,0,0,0,0,0,0,0,0,0,0,0,0,0,0,0,0,0,0,0,0,0,0,0,0,0,0,0,0,0,0,0,0,0,0,0,1084,1085,1085,1085,1085,1086,0,0,1084,1085,1085,1085,1085,1086,0,0,0,0,0,0,0,0,0,0,0,0,0,0,0,0,0,0,0,0,0,0,0,0,0,0,0,0,0,0,0,0,0,0,0,0,1084,1085,1085,1085,1085,1086,0,0,1084,1085,1085,1085,1085,1086,0,0,0,0,0,0,0,0,0,0,0,0,0,0,0,0,0,0,0,0,0,0,0,0,0,0,0,0,0,0,0,0,0,0,0,0,1089,1090,1090,1090,1090,1091,0,0,1089,1090,1090,1090,1090,1091,0,0,0,0,0,0,0,0,0,0,0,0,0,0,0,0,0,0,0,0,0,0,0,0,0,0,0,0,0,0,0,0,0,0,0,0,0,0,0,0,0,0,0,0,0,0,
0,0,0,0,0,0,0,0,0,0,0,0,0,0,0,0,0,0,0,0,0,0,0,0,0,0,0,0,0,0,0,0,0,0,0,0,0,0,0,0,0,0,0,0,0,0,1084,1085,1085,1085,1085,1086,0,0,1084,1085,1085,1085,1085,1086,0,0,0,0,0,0,0,0,0,0,0,0,0,0,0,0,0,0,0,0,0,0,0,0,0,0,0,0,0,0,0,0,0,0,0,0,1084,1085,1085,1085,1085,1086,0,0,1084,1085,1085,1085,1085,1086,0,0,0,0,0,0,0,0,0,0,0,0,0,0,0,0,0,0,0,0,0,0,0,0,0,0,0,0,0,0,0,0,0,0,0,0,1084,1085,1085,1085,1085,1086,0,0,1084,1085,1085,1085,1085,1086,0,0,0,0,0,0,0,0,0,0,0,0,0,0,0,0,0,0,0,0,0,0,0,0,0,0,0,0,0,0,0,0,0,0,0,0,0,0,0,0,0,0,0,0,0,0,0,0,0,0,0,0,0,0,0,0,0,0,0,0,0,0,0,0,0,0,0,0,0,0,0,0,0,0,0,0,0,0,0,0,0,0,0,0,0,0,0,0,0,0,0,0,0,0,0,0,
0,0,0,0,0,0,0,0,0,0,0,0,0,0,0,0,0,0,0,0,0,0,0,0,0,0,0,0,0,0,0,0,0,0,0,0,0,0,0,0,0,0,0,0,0,0,1084,1085,1085,1085,1085,1086,0,0,1084,1085,1085,1085,1085,1086,0,0,0,0,0,0,0,0,0,0,0,0,0,0,0,0,0,0,0,0,0,0,0,0,0,0,0,0,0,0,0,0,0,0,0,0,1089,1090,1090,1090,1090,1091,0,0,1089,1090,1090,1090,1090,1091,0,0,0,0,0,0,0,0,0,0,0,0,0,0,0,0,0,0,0,0,0,0,0,0,0,0,0,0,0,0,0,0,0,0,0,0,1084,1085,1085,1085,1085,1086,0,0,1084,1085,1085,1085,1085,1086,0,0,0,0,0,0,0,0,0,0,0,0,0,0,0,0,0,0,0,0,0,0,0,0,0,0,0,0,0,0,0,0,0,0,0,0,0,0,0,0,0,0,0,0,0,0,0,0,0,0,0,0,0,0,0,0,0,0,0,0,0,0,0,0,0,0,0,0,0,0,0,0,0,0,0,0,0,0,0,0,0,0,0,0,0,0,0,0,0,0,0,0,0,0,0,0,
0,0,0,0,0,0,0,0,0,0,0,0,0,0,0,0,0,0,0,0,0,0,0,0,0,0,0,0,0,0,0,0,0,0,0,0,0,0,0,0,0,0,0,0,0,0,1084,1085,1085,1085,1085,1086,0,0,1084,1085,1085,1085,1085,1086,0,0,0,0,0,0,0,0,0,0,0,0,0,0,0,0,0,0,0,0,0,0,0,0,0,0,0,0,0,0,0,0,0,0,0,0,0,0,0,0,0,0,0,0,0,0,0,0,0,0,0,0,0,0,0,0,0,0,0,0,0,0,0,0,0,0,0,0,0,0,0,0,0,0,0,0,0,0,0,0,0,0,0,0,0,0,1084,1085,1085,1085,1085,1086,0,0,1084,1085,1085,1085,1085,1086,0,0,0,0,0,0,0,0,0,0,0,0,0,0,0,0,0,0,0,0,0,0,0,0,0,0,0,0,0,0,0,0,0,0,0,0,1079,1080,1080,1080,1080,1081,0,0,1079,1080,1080,1080,1080,1081,0,0,0,0,0,0,0,0,0,0,0,0,0,0,0,0,0,0,0,0,0,0,0,0,0,0,0,0,0,0,0,0,0,0,0,0,0,0,0,0,0,0,0,0,0,0,
0,0,0,0,0,0,0,0,0,0,0,0,0,0,0,0,0,0,0,0,0,0,0,0,0,0,0,0,0,0,0,0,0,0,0,0,0,0,0,0,0,0,0,0,0,0,1084,1085,1085,1085,1085,1086,0,0,1084,1085,1085,1085,1085,1086,0,0,0,0,0,0,0,0,0,0,0,0,0,0,0,0,0,0,0,0,0,0,0,0,0,0,0,0,0,0,0,0,0,0,0,0,0,0,0,0,0,0,0,0,0,0,0,0,0,0,0,0,0,0,0,0,0,0,0,0,0,0,0,0,0,0,0,0,0,0,0,0,0,0,0,0,0,0,0,0,0,0,0,0,0,0,1089,1090,1090,1090,1090,1091,0,0,1089,1090,1090,1090,1090,1091,0,0,0,0,0,0,0,0,0,0,0,0,0,0,0,0,0,0,0,0,0,0,0,0,0,0,0,0,0,0,0,0,0,0,0,0,1084,1085,1085,1085,1085,1086,0,0,1084,1085,1085,1085,1085,1086,0,0,0,0,0,0,0,0,0,0,0,0,0,0,0,0,0,0,0,0,0,0,0,0,0,0,0,0,0,0,0,0,0,0,0,0,0,0,0,0,0,0,0,0,0,0,
0,0,0,0,0,0,0,0,0,0,0,0,0,0,0,0,0,0,0,0,0,0,0,0,0,0,0,0,0,0,0,0,0,0,0,0,0,0,0,0,0,0,0,0,0,0,1084,1085,1085,1085,1085,1086,0,0,1084,1085,1085,1085,1085,1086,0,0,0,0,0,0,0,0,0,0,0,0,0,0,0,0,0,0,0,0,0,0,0,0,0,0,0,0,0,0,0,0,0,0,0,0,0,0,0,0,0,0,0,0,0,0,0,0,0,0,0,0,0,0,0,0,0,0,0,0,0,0,0,0,0,0,0,0,0,0,0,0,0,0,0,0,0,0,0,0,0,0,0,0,0,0,0,0,0,0,0,0,0,0,0,0,0,0,0,0,0,0,0,0,0,0,0,0,0,0,0,0,0,0,0,0,0,0,0,0,0,0,0,0,0,0,0,0,0,0,0,0,0,0,0,0,1084,1085,1085,1085,1085,1086,0,0,1084,1085,1085,1085,1085,1086,0,0,0,0,0,0,0,0,0,0,0,0,0,0,0,0,0,0,0,0,0,0,0,0,0,0,0,0,0,0,0,0,0,0,0,0,0,0,0,0,0,0,0,0,0,0,
0,0,0,0,0,0,0,0,0,0,0,0,0,0,0,0,0,0,0,0,0,0,0,0,0,0,0,0,0,0,0,0,0,0,0,0,0,0,0,0,0,0,0,0,0,0,1089,1090,1090,1090,1090,1091,0,0,1089,1090,1090,1090,1090,1091,0,0,0,0,0,0,0,0,0,0,0,0,0,0,0,0,0,0,0,0,0,0,0,0,0,0,0,0,0,0,0,0,0,0,0,0,0,0,0,0,0,0,0,0,0,0,0,0,0,0,0,0,0,0,0,0,0,0,0,0,0,0,0,0,0,0,0,0,0,0,0,0,0,0,0,0,0,0,0,0,0,0,0,0,0,0,0,0,0,0,0,0,0,0,0,0,0,0,0,0,0,0,0,0,0,0,0,0,0,0,0,0,0,0,0,0,0,0,0,0,0,0,0,0,0,0,0,0,0,0,0,0,0,0,0,0,1084,1085,1085,1085,1085,1086,0,0,1084,1085,1085,1085,1085,1086,0,0,0,0,0,0,0,0,0,0,0,0,0,0,0,0,0,0,0,0,0,0,0,0,0,0,0,0,0,0,0,0,0,0,0,0,0,0,0,0,0,0,0,0,0,0,
0,0,0,0,0,0,0,0,0,0,0,0,0,0,0,0,0,0,0,0,0,0,0,0,0,0,0,0,0,0,0,0,0,0,0,0,0,0,0,0,0,0,0,0,0,0,0,0,0,0,0,0,0,0,0,0,0,0,0,0,0,0,0,0,0,0,0,0,0,0,0,0,0,0,0,0,0,0,0,0,0,0,0,0,0,0,0,0,0,0,0,0,0,0,0,0,0,0,0,0,0,0,0,0,0,0,0,0,0,0,0,0,0,0,0,0,0,0,0,0,0,0,0,0,0,0,0,0,0,0,0,0,0,0,0,0,0,0,0,0,0,0,0,0,0,0,0,0,0,0,0,0,0,0,0,0,0,0,0,0,0,0,0,0,0,0,0,0,0,0,0,0,0,0,0,0,0,0,0,0,0,0,0,0,0,0,0,0,0,0,0,0,0,0,0,0,1084,1085,1085,1085,1085,1086,0,0,1084,1085,1085,1085,1085,1086,0,0,0,0,0,0,0,0,0,0,0,0,0,0,0,0,0,0,0,0,0,0,0,0,0,0,0,0,0,0,0,0,0,0,0,0,0,0,0,0,0,0,0,0,0,0,
0,0,0,0,0,0,0,0,0,0,0,0,0,0,0,0,0,0,0,0,0,0,0,0,0,0,0,0,0,0,0,0,0,0,0,0,0,0,0,0,0,0,0,0,0,0,0,0,0,0,0,0,0,0,0,0,0,0,0,0,0,0,0,0,0,0,0,0,0,0,0,0,0,0,0,0,0,0,0,0,0,0,0,0,0,0,0,0,0,0,0,0,0,0,0,0,0,0,0,0,0,0,0,0,0,0,0,0,0,0,0,0,0,0,0,0,0,0,0,0,0,0,0,0,0,0,0,0,0,0,0,0,0,0,0,0,0,0,0,0,0,0,0,0,0,0,0,0,0,0,0,0,0,0,0,0,0,0,0,0,0,0,0,0,0,0,0,0,0,0,0,0,0,0,0,0,0,0,0,0,0,0,0,0,0,0,0,0,0,0,0,0,0,0,0,0,1084,1085,1085,1085,1085,1086,0,0,1084,1085,1085,1085,1085,1086,0,0,0,0,0,0,0,0,0,0,0,0,0,0,0,0,0,0,0,0,0,0,0,0,0,0,0,0,0,0,0,0,0,0,0,0,0,0,0,0,0,0,0,0,0,0,
0,0,0,0,0,0,0,0,0,0,0,0,0,0,0,0,0,0,0,0,0,0,0,0,0,0,0,0,0,0,0,0,0,0,0,0,0,0,0,0,0,0,0,0,0,0,0,0,0,0,0,0,0,0,0,0,0,0,0,0,0,0,0,0,0,0,0,0,0,0,0,0,0,0,0,0,0,0,0,0,0,0,0,0,0,0,0,0,0,0,0,0,0,0,0,0,0,0,0,0,0,0,0,0,0,0,0,0,0,0,0,0,0,0,0,0,0,0,0,0,0,0,0,0,0,0,0,0,0,0,0,0,0,0,0,0,0,0,0,0,0,0,0,0,0,0,0,0,0,0,0,0,0,0,0,0,0,0,0,0,0,0,0,0,0,0,0,0,0,0,0,0,0,0,0,0,0,0,0,0,0,0,0,0,0,0,0,0,0,0,0,0,0,0,0,0,1084,1085,1085,1085,1085,1086,0,0,1084,1085,1085,1085,1085,1086,0,0,0,0,0,0,0,0,0,0,0,0,0,0,0,0,0,0,0,0,0,0,0,0,0,0,0,0,0,0,0,0,0,0,0,0,0,0,0,0,0,0,0,0,0,0,
0,0,0,0,0,0,0,0,0,0,0,0,0,0,0,0,0,0,0,0,0,0,0,0,0,0,0,0,0,0,0,0,0,0,0,0,0,0,0,0,0,0,0,0,0,0,0,0,0,0,0,0,0,0,0,0,0,0,0,0,0,0,0,0,0,0,0,0,0,0,0,0,0,0,0,0,0,0,0,0,0,0,0,0,0,0,0,0,0,0,0,0,0,0,0,0,0,0,0,0,0,0,0,0,0,0,0,0,0,0,0,0,0,0,0,0,0,0,0,0,0,0,0,0,0,0,0,0,0,0,0,0,0,0,0,0,0,0,0,0,0,0,0,0,0,0,0,0,0,0,0,0,0,0,0,0,0,0,0,0,0,0,0,0,0,0,0,0,0,0,0,0,0,0,0,0,0,0,0,0,0,0,0,0,0,0,0,0,0,0,0,0,0,0,0,0,1089,1090,1090,1090,1090,1091,0,0,1089,1090,1090,1090,1090,1091,0,0,0,0,0,0,0,0,0,0,0,0,0,0,0,0,0,0,0,0,0,0,0,0,0,0,0,0,0,0,0,0,0,0,0,0,0,0,0,0,0,0,0,0,0,0,
0,0,0,0,0,0,0,0,0,0,0,0,0,0,0,0,0,0,0,0,0,0,0,0,0,0,0,0,0,0,0,0,0,0,0,0,0,0,0,0,0,0,0,0,0,0,0,0,0,0,0,0,0,0,0,0,0,0,0,0,0,0,0,0,0,0,0,0,0,0,0,0,0,0,0,0,0,0,0,0,0,0,0,0,0,0,0,0,0,0,0,0,0,0,0,0,0,0,0,0,0,0,0,0,0,0,0,0,0,0,0,0,0,0,0,0,0,0,0,0,0,0,0,0,0,0,0,0,0,0,0,0,0,0,0,0,0,0,0,0,0,0,0,0,0,0,0,0,0,0,0,0,0,0,0,0,0,0,0,0,0,0,0,0,0,0,0,0,0,0,0,0,0,0,0,0,0,0,0,0,0,0,0,0,0,0,0,0,0,0,0,0,0,0,0,0,0,0,0,0,0,0,0,0,0,0,0,0,0,0,0,0,0,0,0,0,0,0,0,0,0,0,0,0,0,0,0,0,0,0,0,0,0,0,0,0,0,0,0,0,0,0,0,0,0,0,0,0,0,0,0,0,0,0,0,0,
0,0,0,0,0,0,0,0,0,0,0,0,0,0,0,0,0,0,0,0,0,0,0,0,0,0,0,0,0,0,0,0,0,0,0,0,0,0,0,0,0,0,0,0,0,0,0,0,0,0,0,0,0,0,0,0,0,0,0,0,0,0,0,0,0,0,0,0,0,0,0,0,0,0,0,0,0,0,0,0,0,0,0,0,0,0,0,0,0,0,0,0,0,0,0,0,0,0,0,0,0,0,0,0,0,0,0,0,0,0,0,0,0,0,0,0,0,0,0,0,0,0,0,0,0,0,0,0,0,0,0,0,0,0,0,0,0,0,0,0,0,0,0,0,0,0,0,0,0,0,0,0,0,0,0,0,0,0,0,0,0,0,0,0,0,0,0,0,0,0,0,0,0,0,0,0,0,0,0,0,0,0,0,0,0,0,0,0,0,0,0,0,0,0,0,0,0,0,0,0,0,0,0,0,0,0,0,0,0,0,0,0,0,0,0,0,0,0,0,0,0,0,0,0,0,0,0,0,0,0,0,0,0,0,0,0,0,0,0,0,0,0,0,0,0,0,0,0,0,0,0,0,0,0,0,0,
0,0,0,0,0,0,0,0,0,0,0,0,0,0,0,0,0,0,0,0,0,0,0,0,0,0,0,0,0,0,0,0,0,0,0,0,0,0,0,0,0,0,0,0,0,0,0,0,0,0,0,0,0,0,0,0,0,0,0,0,0,0,0,0,0,0,0,0,0,0,0,0,0,0,0,0,0,0,0,0,0,0,0,0,0,0,0,0,0,0,0,0,0,0,0,0,0,0,0,0,0,0,0,0,0,0,0,0,0,0,0,0,0,0,0,0,0,0,0,0,0,0,0,0,0,0,0,0,0,0,0,0,0,0,0,0,0,0,0,0,0,0,0,0,0,0,0,0,0,0,0,0,0,0,0,0,0,0,0,0,0,0,0,0,0,0,0,0,0,0,0,0,0,0,0,0,0,0,0,0,0,0,0,0,0,0,0,0,0,0,0,0,0,0,0,0,0,0,0,0,0,0,0,0,0,0,0,0,0,0,0,0,0,0,0,0,0,0,0,0,0,0,0,0,0,0,0,0,0,0,0,0,0,0,0,0,0,0,0,0,0,0,0,0,0,0,0,0,0,0,0,0,0,0,0,0,
0,0,0,0,0,0,0,0,0,0,0,0,0,0,0,0,0,0,0,0,0,0,0,0,0,0,0,0,0,0,0,0,0,0,0,0,0,0,0,0,0,0,0,0,0,0,0,0,0,0,0,0,0,0,0,0,0,0,0,0,0,0,0,0,0,0,0,0,0,0,0,0,0,0,0,0,0,0,0,0,0,0,0,0,0,0,0,0,0,0,0,0,0,0,0,0,0,0,0,0,0,0,0,0,0,0,0,0,0,0,0,0,0,0,0,0,0,0,0,0,0,0,0,0,0,0,0,0,0,0,0,0,0,0,0,0,0,0,0,0,0,0,0,0,0,0,0,0,0,0,0,0,0,0,0,0,0,0,0,0,0,0,0,0,0,0,0,0,0,0,0,0,0,0,0,0,0,0,0,0,0,0,0,0,0,0,0,0,0,0,0,0,0,0,0,0,0,0,0,0,0,0,0,0,0,0,0,0,0,0,0,0,0,0,0,0,0,0,0,0,0,0,0,0,0,0,0,0,0,0,0,0,0,0,0,0,0,0,0,0,0,0,0,0,0,0,0,0,0,0,0,0,0,0,0,0,
0,0,0,0,0,0,0,0,0,0,0,0,0,0,0,0,0,0,0,0,0,0,0,0,0,0,0,0,0,0,0,0,0,0,0,0,0,0,0,0,0,0,0,0,0,0,0,0,0,0,0,0,0,0,0,0,0,0,0,0,0,0,0,0,0,0,0,0,0,0,0,0,0,0,0,0,0,0,0,0,0,0,0,0,0,0,0,0,0,0,0,0,0,0,0,0,0,0,0,0,0,0,0,0,0,0,0,0,0,0,0,0,0,0,0,0,0,0,0,0,0,0,0,0,0,0,0,0,0,0,0,0,0,0,0,0,0,0,0,0,0,0,0,0,0,0,0,0,0,0,0,0,0,0,0,0,0,0,0,0,0,0,0,0,0,0,0,0,0,0,0,0,0,0,0,0,0,0,0,0,0,0,0,0,0,0,0,0,0,0,0,0,0,0,0,0,0,0,0,0,0,0,0,0,0,0,0,0,0,0,0,0,0,0,0,0,0,0,0,0,0,0,0,0,0,0,0,0,0,0,0,0,0,0,0,0,0,0,0,0,0,0,0,0,0,0,0,0,0,0,0,0,0,0,0,0,
0,0,0,0,0,0,0,0,0,0,0,0,0,0,0,0,0,0,0,0,0,0,0,0,0,0,0,0,0,0,0,0,0,0,0,0,0,0,0,0,0,0,0,0,0,0,0,0,0,0,0,0,0,0,0,0,0,0,0,0,0,0,0,0,0,0,0,0,0,0,0,0,0,0,0,0,0,0,0,0,0,0,0,0,0,0,0,0,0,0,0,0,0,0,0,0,0,0,0,0,0,0,0,0,0,0,0,0,0,0,0,0,0,0,0,0,0,0,0,0,0,0,0,0,0,0,0,0,0,0,0,0,0,0,0,0,0,0,0,0,0,0,0,0,0,0,0,0,0,0,0,0,0,0,0,0,0,0,0,0,0,0,0,0,0,0,0,0,0,0,0,0,0,0,0,0,0,0,0,0,0,0,0,0,0,0,0,0,0,0,0,0,0,0,0,0,0,0,0,0,0,0,0,0,0,0,0,0,0,0,0,0,0,0,0,0,0,0,0,0,0,0,0,0,0,0,0,0,0,0,0,0,0,0,0,0,0,0,0,0,0,0,0,0,0,0,0,0,0,0,0,0,0,0,0,0,
0,0,0,0,0,0,0,0,0,0,0,0,0,0,0,0,0,0,0,0,0,0,0,0,0,0,0,0,0,0,0,0,0,0,0,0,0,0,0,0,0,0,0,0,0,0,0,0,0,0,0,0,0,0,0,0,0,0,0,0,0,0,0,0,0,0,0,0,0,0,0,0,0,0,0,0,0,0,0,0,0,0,0,0,0,0,0,0,0,0,0,0,0,0,0,0,0,0,0,0,0,0,0,0,0,0,0,0,0,0,0,0,0,0,0,0,0,0,0,0,0,0,0,0,0,0,0,0,0,0,0,0,0,0,0,0,0,0,0,0,0,0,0,0,0,0,0,0,0,0,0,0,0,0,0,0,0,0,0,0,0,0,0,0,0,0,0,0,0,0,0,0,0,0,0,0,0,0,0,0,0,0,0,0,0,0,0,0,0,0,0,0,0,0,0,0,0,0,0,0,0,0,0,0,0,0,0,0,0,0,0,0,0,0,0,0,0,0,0,0,0,0,0,0,0,0,0,0,0,0,0,0,0,0,0,0,0,0,0,0,0,0,0,0,0,0,0,0,0,0,0,0,0,0,0,0,
0,0,0,0,0,0,0,0,0,0,0,0,0,0,0,0,0,0,0,0,0,0,0,0,0,0,0,0,0,0,0,0,0,0,0,0,0,0,0,0,0,0,0,0,0,0,0,0,0,0,0,0,0,0,0,0,0,0,0,0,0,0,0,0,0,0,0,0,0,0,0,0,0,0,0,0,0,0,0,0,0,0,0,0,0,0,0,0,0,0,0,0,0,0,0,0,0,0,0,0,0,0,0,0,0,0,0,0,0,0,0,0,0,0,0,0,0,0,0,0,0,0,0,0,0,0,0,0,0,0,0,0,0,0,0,0,0,0,0,0,0,0,0,0,0,0,0,0,0,0,0,0,0,0,0,0,0,0,0,0,0,0,0,0,0,0,0,0,0,0,0,0,0,0,0,0,0,0,0,0,0,0,0,0,0,0,0,0,0,0,0,0,0,0,0,0,0,0,0,0,0,0,0,0,0,0,0,0,0,0,0,0,0,0,0,0,0,0,0,0,0,0,0,0,0,0,0,0,0,0,0,0,0,0,0,0,0,0,0,0,0,0,0,0,0,0,0,0,0,0,0,0,0,0,0,0,
0,0,0,0,0,0,0,0,0,0,0,0,0,0,0,0,0,0,0,0,0,0,0,0,0,0,0,0,0,0,0,0,0,0,0,0,0,0,0,0,0,0,0,0,0,0,0,0,0,0,0,0,0,0,0,0,0,0,0,0,0,0,0,0,0,0,0,0,0,0,0,0,0,0,0,0,2664,2664,2664,2664,0,0,0,0,0,0,0,0,0,0,0,0,0,0,0,0,0,0,0,0,0,0,0,0,0,0,0,0,0,0,0,0,0,0,0,0,0,0,0,0,0,0,0,0,0,0,0,0,0,0,0,0,0,0,0,0,0,0,0,0,0,0,0,0,0,0,0,0,0,0,0,0,0,0,0,0,0,0,0,0,0,0,0,0,0,0,0,0,0,0,0,0,0,0,0,0,0,0,0,0,0,0,0,0,0,0,0,0,0,0,0,0,0,0,0,0,0,0,0,0,0,0,0,0,0,0,0,0,0,0,0,0,0,0,0,0,0,0,0,0,0,0,0,0,0,0,0,0,0,0,0,0,0,0,0,0,0,0,0,0,0,0,0,0,0,0,0,0,0,0,0,0,0,0,0,0,
0,0,0,0,0,0,0,0,0,0,0,0,0,0,0,0,0,0,0,0,0,0,0,0,0,0,0,0,0,0,0,0,0,0,0,0,0,0,0,0,0,0,0,0,0,0,0,0,0,0,0,0,0,0,0,0,0,0,0,0,0,0,0,0,0,0,0,0,0,0,0,0,0,0,0,0,2664,2664,2664,2664,0,0,0,0,0,0,0,0,0,0,0,0,0,0,0,0,0,0,0,0,0,0,0,0,0,0,0,0,0,0,0,0,0,0,0,0,0,0,0,0,0,0,0,0,0,0,0,0,0,0,0,0,0,0,0,0,0,0,0,0,0,0,0,0,0,0,0,0,0,0,0,0,0,0,0,0,0,0,0,0,0,0,0,0,0,0,0,0,0,0,0,0,0,0,0,0,0,0,0,0,0,0,0,0,0,0,0,0,0,0,0,0,0,0,0,0,0,0,0,0,0,0,0,0,0,0,0,0,0,0,0,0,0,0,0,0,0,0,0,0,0,0,0,0,0,0,0,0,0,0,0,0,0,0,0,0,0,0,0,0,0,0,0,0,0,0,0,0,0,0,0,0,0,0,0,0,
0,0,0,0,0,0,0,0,0,0,0,0,0,0,0,0,0,0,0,0,0,0,0,0,0,0,0,0,0,0,0,0,0,0,0,0,0,0,0,0,0,0,0,0,0,0,0,0,0,0,0,0,0,0,0,0,0,0,0,0,0,0,0,0,0,0,0,0,0,0,0,0,0,0,0,0,2664,2664,2664,2664,0,0,0,0,0,0,0,0,0,0,0,0,0,0,0,0,0,0,0,0,0,0,0,0,0,0,0,0,0,0,0,0,0,0,0,0,0,0,0,0,0,0,0,0,0,0,0,0,0,0,0,0,0,0,0,0,0,0,0,0,0,0,0,0,0,0,0,0,0,0,0,0,0,0,0,0,0,0,0,0,0,0,0,0,0,0,0,0,0,0,0,0,0,0,0,0,0,0,0,0,0,0,0,0,0,0,0,0,0,0,0,0,0,0,0,0,0,0,0,0,0,0,0,0,0,0,0,0,0,0,0,0,0,0,0,0,0,0,0,0,0,0,0,0,0,0,0,0,0,0,0,0,0,0,0,0,0,0,0,0,0,0,0,0,0,0,0,0,0,0,0,0,0,0,0,0,
0,0,0,0,0,0,0,0,0,0,0,0,0,0,0,0,0,0,0,0,0,0,0,0,0,0,0,0,0,0,0,0,0,0,0,0,0,0,0,0,0,0,0,0,0,0,0,0,0,0,0,0,0,0,0,0,0,0,0,0,0,0,0,0,0,0,0,0,0,0,0,0,0,0,0,0,0,0,0,0,0,0,0,0,0,0,0,0,0,0,0,0,0,0,0,0,0,0,0,0,0,0,0,0,0,0,0,0,0,0,0,0,0,0,0,0,0,0,0,0,0,0,0,0,0,0,0,0,0,0,0,0,0,0,0,0,0,0,0,0,0,0,0,0,0,0,0,0,0,0,0,0,0,0,0,0,0,0,0,0,0,0,0,0,0,0,0,0,0,0,0,0,0,0,0,0,0,0,0,0,0,0,0,0,0,0,0,0,0,0,0,0,0,0,0,0,0,0,0,0,0,0,0,0,0,0,0,0,0,0,0,0,0,0,0,0,0,0,0,0,0,0,0,0,0,0,0,0,0,0,0,0,0,0,0,0,0,0,0,0,0,0,0,0,0,0,0,0,0,0,0,0,0,0,0,0,
0,0,0,0,0,0,0,0,0,0,0,0,0,0,0,0,0,0,0,0,0,0,0,0,0,0,0,0,0,0,0,0,0,0,0,0,0,0,0,0,0,0,0,0,0,0,0,0,0,0,0,0,0,0,0,0,0,0,0,0,0,0,0,0,0,0,0,0,0,0,0,0,0,0,0,0,0,0,0,0,0,0,0,0,0,0,0,0,0,0,0,0,0,0,0,0,0,0,0,0,0,0,0,0,0,0,0,0,0,0,0,0,0,0,0,0,0,0,0,0,0,0,0,0,0,0,0,0,0,0,0,0,0,0,0,0,0,0,0,0,0,0,0,0,0,0,0,0,0,0,0,0,0,0,0,0,0,0,0,0,0,0,0,0,0,0,0,0,0,0,0,0,0,0,0,0,0,0,0,0,0,0,0,0,0,0,0,0,0,0,0,0,0,0,0,0,0,0,0,0,0,0,0,0,0,0,0,0,0,0,0,0,0,0,0,0,0,0,0,0,0,0,0,0,0,0,0,0,0,0,0,0,0,0,0,0,0,0,0,0,0,0,0,0,0,0,0,0,0,0,0,0,0,0,0,0,
0,0,0,0,0,0,0,0,0,0,0,0,0,0,0,0,0,0,0,0,0,0,0,0,0,0,0,0,0,0,0,0,0,0,0,0,0,0,0,0,0,0,0,0,0,0,0,0,0,0,0,0,0,0,0,0,0,0,0,0,0,0,0,0,0,0,0,0,0,0,0,0,0,0,0,0,0,0,0,0,0,0,0,0,0,0,0,0,0,0,0,0,0,0,0,0,0,0,0,0,0,0,0,0,0,0,0,0,0,0,0,0,0,0,0,0,0,0,0,0,0,0,0,0,0,0,0,0,0,0,0,0,0,0,0,0,0,0,0,0,0,0,0,0,0,0,0,0,0,0,0,0,0,0,0,0,0,0,0,0,0,0,0,0,0,0,0,0,0,0,0,0,0,0,0,0,0,0,0,0,0,0,0,0,0,0,0,0,0,0,0,0,0,0,0,0,0,0,0,0,0,0,0,0,0,0,0,0,0,0,0,0,0,0,0,0,0,0,0,0,0,0,0,0,0,0,0,0,0,0,0,0,0,0,0,0,0,0,0,0,0,0,0,0,0,0,0,0,0,0,0,0,0,0,0,0,
0,0,0,0,0,0,0,0,0,0,0,0,0,0,0,0,0,0,0,0,0,0,0,0,0,0,0,0,0,0,0,0,0,0,0,0,0,0,0,0,0,0,0,0,0,0,0,0,0,0,0,0,0,0,0,0,0,0,0,0,0,0,0,0,0,0,0,0,0,0,0,0,0,0,0,0,0,0,0,0,0,0,0,0,0,0,0,0,0,0,0,0,0,0,0,0,0,0,0,0,0,0,0,0,0,0,0,0,0,0,0,0,0,0,0,0,0,0,0,0,0,0,0,0,0,0,0,0,0,0,0,0,0,0,0,0,0,0,0,0,0,0,0,0,0,0,0,0,0,0,0,0,0,0,0,0,0,0,0,0,0,0,0,0,0,0,0,0,0,0,0,0,0,0,0,0,0,0,0,0,0,0,0,0,0,0,0,0,0,0,0,0,0,0,0,0,0,0,0,0,0,0,0,0,0,0,0,0,0,0,0,0,0,0,0,0,0,0,0,0,0,0,0,0,0,0,0,0,0,0,0,0,0,0,0,0,0,0,0,0,0,0,0,0,0,0,0,0,0,0,0,0,0,0,0,0,
0,0,0,0,0,0,0,0,0,0,0,0,0,0,0,0,0,0,0,0,0,0,0,0,0,0,0,0,0,0,0,0,0,0,0,0,0,0,0,0,0,0,0,0,0,0,0,0,0,0,0,0,0,0,0,0,0,0,0,0,0,0,0,0,0,0,0,0,0,0,0,0,0,0,0,0,0,0,0,0,0,0,0,0,0,0,0,0,0,0,0,0,0,0,0,0,0,0,0,0,0,0,0,0,0,0,0,0,0,0,0,0,0,0,0,0,0,0,0,0,0,0,0,0,0,0,0,0,0,0,0,0,0,0,0,0,0,0,0,0,0,0,0,0,0,0,0,0,0,0,0,0,0,0,0,0,0,0,0,0,0,0,0,0,0,0,0,0,0,0,0,0,0,0,0,0,0,0,0,0,0,0,0,0,0,0,0,0,0,0,0,0,0,0,0,0,0,0,0,0,0,0,0,0,0,0,0,0,0,0,0,0,0,0,0,0,0,0,0,0,0,0,0,0,0,0,0,0,0,0,0,0,0,0,0,0,0,0,0,0,0,0,0,0,0,0,0,0,0,0,0,0,0,0,0,0,
0,0,0,0,0,0,0,0,0,0,0,0,0,0,0,0,0,0,0,0,0,0,0,0,0,0,0,0,0,0,0,0,0,0,0,0,0,0,0,0,0,0,0,0,0,0,0,0,0,0,0,0,0,0,0,0,0,0,0,0,0,0,0,0,0,0,0,0,0,0,0,0,0,0,0,0,0,0,0,0,0,0,0,0,0,0,0,0,0,0,0,0,0,0,0,0,0,0,0,0,0,0,0,0,0,0,0,0,0,0,0,0,0,0,0,0,0,0,0,0,0,0,0,0,0,0,0,0,0,0,0,0,0,0,0,0,0,0,0,0,0,0,0,0,0,0,0,0,0,0,0,0,0,0,0,0,0,0,0,0,0,0,0,0,0,0,0,0,0,0,0,0,0,0,0,0,0,0,0,0,0,0,0,0,0,0,0,0,0,0,0,0,0,0,0,0,0,0,0,0,0,0,0,0,0,0,0,1729,0,0,0,0,0,0,0,0,0,0,0,0,0,0,0,0,0,0,0,0,0,0,0,0,0,0,0,0,0,0,0,0,0,0,0,0,0,0,0,0,0,0,0,0,0,0,0,0,
0,0,0,0,0,0,0,0,0,0,0,0,0,0,0,0,0,0,0,0,0,0,0,0,0,0,0,0,0,0,0,0,0,0,0,0,0,0,0,0,0,0,0,0,0,0,0,0,0,0,0,0,0,0,0,0,0,0,0,0,0,0,0,0,0,0,0,0,0,0,0,0,0,0,0,0,0,0,0,0,0,0,0,0,0,0,0,0,0,0,0,0,0,0,0,0,0,0,0,0,0,0,0,0,0,0,0,0,0,0,0,0,0,0,0,0,0,0,0,0,0,0,0,0,0,0,0,0,0,0,0,0,0,0,0,0,0,0,0,0,0,0,0,0,0,0,0,0,0,0,0,0,0,0,0,0,0,0,0,0,0,0,0,0,0,0,0,0,0,0,0,0,0,0,0,0,0,0,0,0,0,0,0,0,0,0,0,0,0,0,0,0,0,0,0,0,0,0,0,0,0,0,0,0,0,0,0,0,0,0,0,0,0,0,0,0,0,0,0,0,0,0,0,0,0,0,0,0,0,0,0,0,0,0,0,0,0,0,0,0,0,0,0,0,0,0,0,0,0,0,0,0,0,0,0,0,
0,0,0,0,0,0,0,0,0,0,0,0,0,0,0,0,0,0,0,0,0,0,0,0,0,0,0,0,0,0,0,0,0,0,0,0,0,0,0,0,0,0,0,0,0,0,0,0,0,0,0,0,0,0,0,0,0,0,0,0,0,0,0,0,0,0,0,0,0,0,0,0,0,0,0,0,0,0,0,0,0,0,0,0,0,0,0,0,0,0,0,0,0,0,0,0,0,0,0,0,0,0,0,0,0,0,0,0,0,0,0,0,0,0,0,0,0,0,0,0,0,0,0,0,0,0,0,0,0,0,0,0,0,0,0,0,0,0,0,0,0,0,0,0,0,0,0,0,0,0,0,0,0,0,0,0,0,0,0,0,0,0,0,0,0,0,0,0,0,0,0,0,0,0,0,0,0,0,0,0,0,0,0,0,0,0,0,0,0,0,0,0,0,0,0,0,0,0,0,0,0,0,0,0,0,0,0,0,0,0,0,0,0,0,0,0,0,0,0,0,0,0,0,0,0,0,0,0,0,0,0,0,0,0,0,0,0,0,0,0,0,0,0,0,0,0,0,0,0,0,0,0,0,0,0,0,
0,0,0,0,0,0,0,0,0,0,0,0,0,0,0,0,0,0,0,0,0,0,0,0,0,0,0,0,0,0,0,0,0,0,0,0,0,0,0,0,0,0,0,0,0,0,0,0,0,0,0,0,0,0,0,0,0,0,0,0,0,0,0,0,0,0,0,0,0,0,0,0,0,0,0,0,0,0,0,0,0,0,0,0,0,0,0,0,0,0,0,0,0,0,0,0,0,0,0,0,0,0,0,0,0,0,0,0,0,0,0,0,0,0,0,0,0,0,0,0,0,0,0,0,0,0,0,0,0,0,0,0,0,0,0,0,0,0,0,0,0,0,0,0,0,0,0,0,0,0,0,0,0,0,0,0,0,0,0,0,0,0,0,0,0,0,0,0,0,0,0,0,0,0,0,0,0,0,0,0,0,0,0,0,0,0,0,0,0,0,0,0,0,0,0,0,0,0,0,0,0,0,0,0,0,0,0,0,0,0,0,0,0,0,0,0,0,0,0,0,0,0,0,0,0,0,0,0,0,0,0,0,0,0,0,0,0,0,0,0,0,0,0,0,0,0,0,0,0,0,0,0,0,0,0,0,
0,0,0,0,0,0,0,0,0,0,0,0,0,0,0,0,0,0,0,0,0,0,0,0,0,0,0,0,0,0,0,0,0,0,0,0,0,0,0,0,0,0,0,0,0,0,0,0,0,0,0,0,0,0,0,0,0,0,0,0,0,0,0,0,0,0,0,0,0,0,0,0,0,0,0,0,0,0,0,0,0,0,0,0,0,0,0,0,0,0,0,0,0,0,0,0,0,0,0,0,0,0,0,0,0,0,0,0,0,0,0,0,0,0,0,0,0,0,0,0,0,0,0,0,0,0,0,0,0,0,0,0,0,0,0,0,0,0,0,0,0,0,0,0,0,0,0,0,0,0,0,0,0,0,0,0,0,0,0,0,0,0,0,0,0,0,0,0,0,0,0,0,0,0,0,0,0,0,0,0,0,0,0,0,0,0,0,0,0,0,0,0,0,0,0,0,0,0,0,0,0,0,0,0,0,0,0,0,0,0,0,0,0,0,0,0,0,0,0,0,0,0,0,0,0,0,0,0,0,0,0,0,0,0,0,0,0,0,0,0,0,0,0,0,0,0,0,0,0,0,0,0,0,0,0,0,
0,0,0,0,0,0,0,0,0,0,0,0,0,0,0,0,0,0,0,0,0,0,0,0,0,0,0,0,0,0,0,0,0,0,0,0,0,0,0,0,0,0,0,0,0,0,0,0,0,0,0,0,0,0,0,0,0,0,0,0,0,0,0,0,0,0,0,0,0,0,0,0,0,0,0,0,0,0,0,0,0,0,0,0,0,0,0,0,0,0,0,0,0,0,0,0,0,0,0,0,0,0,0,0,0,0,0,0,0,0,0,0,0,0,0,0,0,0,0,0,0,0,0,0,0,0,0,0,0,0,0,0,0,0,0,0,0,0,0,0,0,0,0,0,0,0,0,0,0,0,0,0,0,0,0,0,0,0,0,0,0,0,0,0,0,0,0,0,0,0,0,0,0,0,0,0,0,0,0,0,0,0,0,0,0,0,0,0,0,0,0,0,0,0,0,0,0,0,0,0,0,0,0,0,0,0,0,0,0,0,0,0,0,0,0,0,0,0,0,0,0,0,0,0,0,0,0,0,0,0,0,0,0,0,0,0,0,0,0,0,0,0,0,0,0,0,0,0,0,0,0,0,0,0,0,0,
0,0,0,0,0,0,0,0,0,0,0,0,0,0,0,0,0,0,0,0,0,0,0,0,0,0,0,0,0,0,0,0,0,0,0,0,0,0,0,0,0,0,0,0,0,0,0,0,0,0,0,0,0,0,0,0,0,0,0,0,0,0,0,0,0,0,0,0,0,0,0,0,0,0,0,0,0,0,0,0,0,0,0,0,0,0,0,0,0,0,0,0,0,0,0,0,0,0,0,0,0,0,0,0,0,0,0,0,0,0,0,0,0,0,0,0,0,0,0,0,0,0,0,0,0,0,0,0,0,0,0,0,0,0,0,0,0,0,0,0,0,0,0,0,0,0,0,0,0,0,0,0,0,0,0,0,0,0,0,0,0,0,0,0,0,0,0,0,0,0,0,0,0,0,0,0,0,0,0,0,0,0,0,0,0,0,0,0,0,0,0,0,0,0,0,0,0,0,0,0,0,0,0,0,0,0,0,0,0,0,0,0,0,0,0,0,0,0,0,0,0,0,0,0,0,0,0,0,0,0,0,0,0,0,0,0,0,0,0,0,0,0,0,0,0,0,0,0,0,0,0,0,0,0,0,0,
0,0,0,0,0,0,0,0,0,0,0,0,0,0,0,0,0,0,0,0,0,0,0,0,0,0,0,0,0,0,0,0,0,0,0,0,0,0,0,0,0,0,0,0,0,0,0,0,0,0,0,0,0,0,0,0,0,0,0,0,0,0,0,0,0,0,0,0,0,0,0,0,0,0,0,0,0,0,0,0,0,0,0,0,0,0,0,0,0,0,0,0,0,0,0,0,0,0,0,0,0,0,0,0,0,0,0,0,0,0,0,0,0,0,0,0,0,0,0,0,0,0,0,0,0,0,0,0,0,0,0,0,0,0,0,0,0,0,0,0,0,0,0,0,0,0,0,0,0,0,0,0,0,0,0,0,0,0,0,0,0,0,0,0,0,0,0,0,0,0,0,0,0,0,0,0,0,0,0,0,0,0,0,0,0,0,0,0,0,0,0,0,0,0,0,0,0,0,0,0,0,0,0,0,0,0,0,0,0,0,0,0,0,0,0,0,0,0,0,0,0,0,0,0,0,0,0,0,0,0,0,0,0,0,0,0,0,0,0,0,0,0,0,0,0,0,0,0,0,0,0,0,0,0,0,0,
0,0,0,0,0,0,0,0,0,0,0,0,0,0,0,0,0,0,0,0,0,0,0,0,0,0,0,0,0,0,0,0,0,0,0,0,0,0,0,0,0,0,0,0,0,0,0,0,0,0,0,0,0,0,0,0,0,0,0,0,0,0,0,0,0,0,0,0,0,0,0,0,0,0,0,0,0,0,0,0,0,0,0,0,0,0,0,0,0,0,0,0,0,0,0,0,0,0,0,0,0,0,0,0,0,0,0,0,0,0,0,0,0,0,0,0,0,0,0,0,0,0,0,0,0,0,0,0,0,0,0,0,0,0,0,0,0,0,0,0,0,0,0,0,0,0,0,0,0,0,0,0,0,0,0,0,0,0,0,0,0,0,0,0,0,0,0,0,0,0,0,0,0,0,0,0,0,0,0,0,0,0,0,0,0,0,0,0,0,0,0,0,0,0,0,0,0,0,0,0,0,0,0,0,0,0,0,0,0,0,0,0,0,0,0,0,0,0,0,0,0,0,0,0,0,0,0,0,0,0,0,0,0,0,0,0,0,0,0,0,0,0,0,0,0,0,0,0,0,0,0,0,0,0,0,0,
0,0,0,0,0,0,0,0,0,0,0,0,0,0,0,0,0,0,0,0,0,0,0,0,0,0,0,0,0,0,0,0,0,0,0,0,0,0,0,0,0,0,0,0,0,0,0,0,0,0,0,0,0,0,0,0,0,0,0,0,0,0,0,0,0,0,0,0,0,0,0,0,0,0,0,0,0,0,0,0,0,0,0,0,0,0,0,0,0,0,0,0,0,0,0,0,0,0,0,0,0,0,0,0,0,0,0,0,0,0,0,0,0,0,0,0,0,0,0,0,0,0,0,0,0,0,0,0,0,0,0,0,0,0,0,0,0,0,0,0,0,0,0,0,0,0,0,0,0,0,0,0,0,0,0,0,0,0,0,0,0,0,0,0,0,0,0,0,0,0,0,0,0,0,0,0,0,0,0,0,0,0,0,0,0,0,0,0,0,0,0,0,0,0,0,0,0,0,0,0,0,0,0,0,0,0,0,0,0,0,0,0,0,0,0,0,0,0,0,0,0,0,0,0,0,0,0,0,0,0,0,0,0,0,0,0,0,0,0,0,0,0,0,0,0,0,0,0,0,0,0,0,0,0,0,0,
0,0,0,0,0,0,0,0,0,0,0,0,0,0,0,0,0,0,0,0,0,0,0,0,0,0,0,0,0,0,0,0,0,0,0,0,0,0,0,0,0,0,0,0,0,0,0,0,0,0,0,0,0,0,0,0,0,0,0,0,0,0,0,0,0,0,0,0,0,0,0,0,0,0,0,0,0,0,0,0,0,0,0,0,0,0,0,0,0,0,0,0,0,0,0,0,0,0,0,0,0,0,0,0,0,0,0,0,0,0,0,0,0,0,0,0,0,0,0,0,0,0,0,0,0,0,0,0,0,0,0,0,0,0,0,0,0,0,0,0,0,0,0,0,0,0,0,0,0,0,0,0,0,0,0,0,0,0,0,0,0,0,0,0,0,0,0,0,0,0,0,0,0,0,0,0,0,0,0,0,0,0,0,0,0,0,0,0,0,0,0,0,0,0,0,0,0,0,0,0,0,0,0,0,0,0,0,0,0,0,0,0,0,0,0,0,0,0,0,0,0,0,0,0,0,0,0,0,0,0,0,0,0,0,0,0,0,0,0,0,0,0,0,0,0,0,0,0,0,0,0,0,0,0,0,0,
0,0,0,0,0,0,0,0,0,0,0,0,0,0,0,0,0,0,0,0,0,0,0,0,0,0,0,0,0,0,0,0,0,0,0,0,0,0,0,0,0,0,0,0,0,0,0,0,0,0,0,0,0,0,0,0,0,0,0,0,0,0,0,0,0,0,0,0,0,0,0,0,0,0,0,0,0,0,0,0,0,0,0,0,0,0,0,0,0,0,0,0,0,0,0,0,0,0,0,0,0,0,0,0,0,0,0,0,0,0,0,0,0,0,0,0,0,0,0,0,0,0,0,0,0,0,0,0,0,0,0,0,0,0,0,0,0,0,0,0,0,0,0,0,0,0,0,0,0,0,0,0,0,0,0,0,0,0,0,0,0,0,0,0,0,0,0,0,0,0,0,0,0,0,0,0,0,0,0,0,0,0,0,0,0,0,0,0,0,0,0,0,0,0,0,0,0,0,0,0,0,0,0,0,0,0,0,0,0,0,0,0,0,0,0,0,0,0,0,0,0,0,0,0,0,0,0,0,0,0,0,0,0,0,0,0,0,0,0,0,0,0,0,0,0,0,0,0,0,0,0,0,0,0,0,0,
0,0,0,0,0,0,0,0,0,0,0,0,0,0,0,0,0,0,0,0,0,0,0,0,0,0,0,0,0,0,0,0,0,0,0,0,0,0,0,0,0,0,0,0,0,0,0,0,0,0,0,0,0,0,0,0,0,0,0,0,0,0,0,0,0,0,0,0,0,0,0,0,0,0,0,0,0,0,0,0,0,0,0,0,0,0,0,0,0,0,0,0,0,0,0,0,0,0,0,0,0,0,0,0,0,0,0,0,0,0,0,0,0,0,0,0,0,0,0,0,0,0,0,0,0,0,0,0,0,0,0,0,0,0,0,0,0,0,0,0,0,0,0,0,0,0,0,0,0,0,0,0,0,0,0,0,0,0,0,0,0,0,0,0,0,0,0,0,0,0,0,0,0,0,0,0,0,0,0,0,0,0,0,0,0,0,0,0,0,0,0,0,0,0,0,0,0,0,0,0,0,0,0,0,0,0,0,0,0,0,0,0,0,0,0,0,0,0,0,0,0,0,0,0,0,0,0,0,0,0,0,0,0,0,0,0,0,0,0,0,0,0,0,0,0,0,0,0,0,0,0,0,0,0,0,0,
0,0,0,0,0,0,0,0,0,0,0,0,0,0,0,0,0,0,0,0,0,0,0,0,0,0,0,0,0,0,0,0,0,0,0,0,0,0,0,0,0,0,0,0,0,0,0,0,0,0,0,0,0,0,0,0,0,0,0,0,0,0,0,0,0,0,0,0,0,0,0,0,0,0,0,0,0,0,0,0,0,0,0,0,0,0,0,0,0,0,0,0,0,0,0,0,0,0,0,0,0,0,0,0,0,0,0,0,0,0,0,0,0,0,0,0,0,0,0,0,0,0,0,0,0,0,0,0,0,0,0,0,0,0,0,0,0,0,0,0,0,0,0,0,0,0,0,0,0,0,0,0,0,0,0,0,0,0,0,0,0,0,0,0,0,0,0,0,0,0,0,0,0,0,0,0,0,0,0,0,0,0,0,0,0,0,0,0,0,0,0,0,0,0,0,0,0,0,0,0,0,0,0,0,0,0,0,0,0,0,0,0,0,0,0,0,0,0,0,0,0,0,0,0,0,0,0,0,0,0,0,0,0,0,0,0,0,0,0,0,0,0,0,0,0,0,0,0,0,0,0,0,0,0,0,0,
0,0,0,0,0,0,0,0,0,0,0,0,0,0,0,0,0,0,0,0,0,0,0,0,0,0,0,0,0,0,0,0,0,0,0,0,0,0,0,0,0,0,0,0,0,0,0,0,0,0,0,0,0,0,0,0,0,0,0,0,0,0,0,0,0,0,0,0,0,0,0,0,0,0,0,0,0,0,0,0,0,0,0,0,0,0,0,0,0,0,0,0,0,0,0,0,0,0,0,0,0,0,0,0,0,0,0,0,0,0,0,0,0,0,0,0,0,0,0,0,0,0,0,0,0,0,0,0,0,0,0,0,0,0,0,0,0,0,0,0,0,0,0,0,0,0,0,0,0,0,0,0,0,0,0,0,0,0,0,0,0,0,0,0,0,0,0,0,0,0,0,0,0,0,0,0,0,0,0,0,0,0,0,0,0,0,0,0,0,0,0,0,0,0,0,0,0,0,0,0,0,0,0,0,0,0,0,0,0,0,0,0,0,0,0,0,0,0,0,0,0,0,0,0,0,0,0,0,0,0,0,0,0,0,0,0,0,0,0,0,0,0,0,0,0,0,0,0,0,0,0,0,0,0,0,0,
0,0,0,0,0,0,0,0,0,0,0,0,0,0,0,0,0,0,0,0,0,0,0,0,0,0,0,0,0,0,0,0,0,0,0,0,0,0,0,0,0,0,0,0,0,0,0,0,0,0,0,0,0,0,0,0,0,0,0,0,0,0,0,0,0,0,0,0,0,0,0,0,0,0,0,0,0,0,0,0,0,0,0,0,0,0,0,0,0,0,0,0,0,0,0,0,0,0,0,0,0,0,0,0,0,0,0,0,0,0,0,0,0,0,0,0,0,0,0,0,0,0,0,0,0,0,0,0,0,0,0,0,0,0,0,0,0,0,0,0,0,0,0,0,0,0,0,0,0,0,0,0,0,0,0,0,0,0,0,0,0,0,0,0,0,0,0,0,0,0,0,0,0,0,0,0,0,0,0,0,0,0,0,0,0,0,0,0,0,0,0,0,0,0,0,0,0,0,0,0,0,0,0,0,0,0,0,0,0,0,0,0,0,0,0,0,0,0,0,0,0,0,0,0,0,0,0,0,0,0,0,0,0,0,0,0,0,0,0,0,0,0,0,0,0,0,0,0,0,0,0,0,0,0,0,0,
0,0,0,0,0,0,0,0,0,0,0,0,0,0,0,0,0,0,0,0,0,0,0,0,0,0,0,0,0,0,0,0,0,0,0,0,0,0,0,0,0,0,0,0,0,0,0,0,0,0,0,0,0,0,0,0,0,0,0,0,0,0,0,0,0,0,0,0,0,0,0,0,0,0,0,0,0,0,0,0,0,0,0,0,0,0,0,0,0,0,0,0,0,0,0,0,0,0,0,0,0,0,0,0,0,0,0,0,0,0,0,0,0,0,0,0,0,0,0,0,0,0,0,0,0,0,0,0,0,0,0,0,0,0,0,0,0,0,0,0,0,0,0,0,0,0,0,0,0,0,0,0,0,0,0,0,0,0,0,0,0,0,0,0,0,0,0,0,0,0,0,0,0,0,0,0,0,0,0,0,0,0,0,0,0,0,0,0,0,0,0,0,0,0,0,0,0,0,0,0,0,0,0,0,0,0,0,0,0,0,0,0,0,0,0,0,0,0,0,0,0,0,0,0,0,0,0,0,0,0,0,0,0,0,0,0,0,0,0,0,0,0,0,0,0,0,0,0,0,0,0,0,0,0,0,0,
0,0,0,0,0,0,0,0,0,0,0,0,0,0,0,0,0,0,0,0,0,0,0,0,0,0,0,0,0,0,0,0,0,0,0,0,0,0,0,0,0,0,0,0,0,0,0,0,0,0,0,0,0,0,0,0,0,0,0,0,0,0,0,0,0,0,0,0,0,0,0,0,0,0,0,0,0,0,0,0,0,0,0,0,0,0,0,0,0,0,0,0,0,0,0,0,0,0,0,0,0,0,0,0,0,0,0,0,0,0,0,0,0,0,0,0,0,0,0,0,0,0,0,0,0,0,0,0,0,0,0,0,0,0,0,0,0,0,0,0,0,0,0,0,0,0,0,0,0,0,0,0,0,0,0,0,0,0,0,0,0,0,0,0,0,0,0,0,0,0,0,0,0,0,0,0,0,0,0,0,0,0,0,0,0,0,0,0,0,0,0,0,0,0,0,0,0,0,0,0,0,0,0,0,0,0,0,0,0,0,0,0,0,0,0,0,0,0,0,0,0,0,0,0,0,0,0,0,0,0,0,0,0,0,0,0,0,0,0,0,0,0,0,0,0,0,0,0,0,0,0,0,0,0,0,0,
0,0,0,0,0,0,0,0,0,0,0,0,0,0,0,0,0,0,0,0,0,0,0,0,0,0,0,0,0,0,0,0,0,0,0,0,0,0,0,0,0,0,0,0,0,0,0,0,0,0,0,0,0,0,0,0,0,0,0,0,0,0,0,0,0,0,0,0,0,0,0,0,0,0,0,0,0,0,0,0,0,0,0,0,0,0,0,0,0,0,0,0,0,0,0,0,0,0,0,0,0,0,0,0,0,0,0,0,0,0,0,0,0,0,0,0,0,0,0,0,0,0,0,0,0,0,0,0,0,0,0,0,0,0,0,0,0,0,0,0,0,0,0,0,0,0,0,0,0,0,0,0,0,0,0,0,0,0,0,0,0,0,0,0,0,0,0,0,0,0,0,0,0,0,0,0,0,0,0,0,0,0,0,0,0,0,0,0,0,0,0,0,0,0,0,0,0,0,0,0,0,0,0,0,0,0,0,0,0,0,0,0,0,0,0,0,0,0,0,0,0,0,0,0,0,0,0,0,0,0,0,0,0,0,0,0,0,0,0,0,0,0,0,0,0,0,0,0,0,0,0,0,0,0,0,0,
0,0,0,0,0,0,0,0,0,0,0,0,0,0,0,0,0,0,0,0,0,0,0,0,0,0,0,0,0,0,0,0,0,0,0,0,0,0,0,0,0,0,0,0,0,0,0,0,0,0,0,0,0,0,0,0,0,0,0,0,0,0,0,0,0,0,0,0,0,0,0,0,0,0,0,0,0,0,0,0,0,0,0,0,0,0,0,0,0,0,0,0,0,0,0,0,0,0,0,0,0,0,0,0,0,0,0,0,0,0,0,0,0,0,0,0,0,0,0,0,0,0,0,0,0,0,0,0,0,0,0,0,0,0,0,0,0,0,0,0,0,0,0,0,0,0,0,0,0,0,0,0,0,0,0,0,0,0,0,0,0,0,0,0,0,0,0,0,0,0,0,0,0,0,0,0,0,0,0,0,0,0,0,0,0,0,0,0,0,0,0,0,0,0,0,0,0,0,0,0,0,0,0,0,0,0,0,0,0,0,0,0,0,0,0,0,0,0,0,0,0,0,0,0,0,0,0,0,0,0,0,0,0,0,0,0,0,0,0,0,0,0,0,0,0,0,0,0,0,0,0,0,0,0,0,0,
0,0,0,0,0,0,0,0,0,0,0,0,0,0,0,0,0,0,0,0,0,0,0,0,0,0,0,0,0,0,0,0,0,0,0,0,0,0,0,0,0,0,0,0,0,0,0,0,0,0,0,0,0,0,0,0,0,0,0,0,0,0,0,0,0,0,0,0,0,0,0,0,0,0,0,0,0,0,0,0,0,0,0,0,0,0,0,0,0,0,0,0,0,0,0,0,0,0,0,0,0,0,0,0,0,0,0,0,0,0,0,0,0,0,0,0,0,0,0,0,0,0,0,0,0,0,0,0,0,0,0,0,0,0,0,0,0,0,0,0,0,0,0,0,0,0,0,0,0,0,0,0,0,0,0,0,0,0,0,0,0,0,0,0,0,0,0,0,0,0,0,0,0,0,0,0,0,0,0,0,0,0,0,0,0,0,0,0,0,0,0,0,0,0,0,0,0,0,0,0,0,0,0,0,0,0,0,0,0,0,0,0,0,0,0,0,0,0,0,0,0,0,0,0,0,0,0,0,0,0,0,0,0,0,0,0,0,0,0,0,0,0,0,0,0,0,0,0,0,0,0,0,0,0,0,0,
0,0,0,0,0,0,0,0,0,0,0,0,0,0,0,0,0,0,0,0,0,0,0,0,0,0,0,0,0,0,0,0,0,0,0,0,0,0,0,0,0,0,0,0,0,0,0,0,0,0,0,0,0,0,0,0,0,0,0,0,0,0,0,0,0,0,0,0,0,0,0,0,0,0,0,0,0,0,0,0,0,0,0,0,0,0,0,0,0,0,0,0,0,0,0,0,0,0,0,0,0,0,0,0,0,0,0,0,0,0,0,0,0,0,0,0,0,0,0,0,0,0,0,0,0,0,0,0,0,0,0,0,0,0,0,0,0,0,0,0,0,0,0,0,0,0,0,0,0,0,0,0,0,0,0,0,0,0,0,0,0,0,0,0,0,0,0,0,0,0,0,0,0,0,0,0,0,0,0,0,0,0,0,0,0,0,0,0,0,0,0,0,0,0,0,0,0,0,0,0,0,0,0,0,0,0,0,0,0,0,0,0,0,0,0,0,0,0,0,0,0,0,0,0,0,0,0,0,0,0,0,0,0,0,0,0,0,0,0,0,0,0,0,0,0,0,0,0,0,0,0,0,0,0,0,0,
0,0,0,0,0,0,0,0,0,0,0,0,0,0,0,0,0,0,0,0,0,0,0,0,0,0,0,0,0,0,0,0,0,0,0,0,0,0,0,0,0,0,0,0,0,0,0,0,0,0,0,0,0,0,0,0,0,0,0,0,0,0,0,0,0,0,0,0,0,0,0,0,0,0,0,0,0,0,0,0,0,0,0,0,0,0,0,0,0,0,0,0,0,0,0,0,0,0,0,0,0,0,0,0,0,0,0,0,0,0,0,0,0,0,0,0,0,0,0,0,0,0,0,0,0,0,0,0,0,0,0,0,0,0,0,0,0,0,0,0,0,0,0,0,0,0,0,0,0,0,0,0,0,0,0,0,0,0,0,0,0,0,0,0,0,0,0,0,0,0,0,0,0,0,0,0,0,0,0,0,0,0,0,0,0,0,0,0,0,0,0,0,0,0,0,0,0,0,0,0,0,0,0,0,0,0,0,0,0,0,0,0,0,0,0,0,0,0,0,0,0,0,0,0,0,0,0,0,0,0,0,0,0,0,0,0,0,0,0,0,0,0,0,0,0,0,0,0,0,0,0,0,0,0,0,0,
0,0,0,0,0,0,0,0,0,0,0,0,0,0,0,0,0,0,0,0,0,0,0,0,0,0,0,0,0,0,0,0,0,0,0,0,0,0,0,0,0,0,0,0,0,0,0,0,0,0,0,0,0,0,0,0,0,0,0,0,0,0,0,0,0,0,0,0,0,0,0,0,0,0,0,0,0,0,0,0,0,0,0,0,0,0,0,0,0,0,0,0,0,0,0,0,0,0,0,0,0,0,0,0,0,0,0,0,0,0,0,0,0,0,0,0,0,0,0,0,0,0,0,0,0,0,0,0,0,0,0,0,0,0,0,0,0,0,0,0,0,0,0,0,0,0,0,0,0,0,0,0,0,0,0,0,0,0,0,0,0,0,0,0,0,0,0,0,0,0,0,0,0,0,0,0,0,0,0,0,0,0,0,0,0,0,0,0,0,0,0,0,0,0,0,0,0,0,0,0,0,0,0,0,0,0,0,0,0,0,0,0,0,0,0,0,0,0,0,0,0,0,0,0,0,0,0,0,0,0,0,0,0,0,0,0,0,0,0,0,0,0,0,0,0,0,0,0,0,0,0,0,0,0,0,0,
0,0,0,0,0,0,0,0,0,0,0,0,0,0,0,0,0,0,0,0,0,0,0,0,0,0,0,0,0,0,0,0,0,0,0,0,0,0,0,0,0,0,0,0,0,0,0,0,0,0,0,0,0,0,0,0,0,0,0,0,0,0,0,0,0,0,0,0,0,0,0,0,0,0,0,0,0,0,0,0,0,0,0,0,0,0,0,0,0,0,0,0,0,0,0,0,0,0,0,0,0,0,0,0,0,0,0,0,0,0,0,0,0,0,0,0,0,0,0,0,0,0,0,0,0,0,0,0,0,0,0,0,0,0,0,0,0,0,0,0,0,0,0,0,0,0,0,0,0,0,0,0,0,0,0,0,0,0,0,0,0,0,0,0,0,0,0,0,0,0,0,0,0,0,0,0,0,0,0,0,0,0,0,0,0,0,0,0,0,0,0,0,0,0,0,0,0,0,0,0,0,0,0,0,0,0,0,0,0,0,0,0,0,0,0,0,0,0,0,0,0,0,0,0,0,0,0,0,0,0,0,0,0,0,0,0,0,0,0,0,0,0,0,0,0,0,0,0,0,0,0,0,0,0,0,0,
0,0,0,0,0,0,0,0,0,0,0,0,0,0,0,0,0,0,0,0,0,0,0,0,0,0,0,0,0,0,0,0,0,0,0,0,0,0,0,0,0,0,0,0,0,0,0,0,0,0,0,0,0,0,0,0,0,0,0,0,0,0,0,0,0,0,0,0,0,0,0,0,0,0,0,0,0,0,0,0,0,0,0,0,0,0,0,0,0,0,0,0,0,0,0,0,0,0,0,0,0,0,0,0,0,0,0,0,0,0,0,0,0,0,0,0,0,0,0,0,0,0,0,0,0,0,0,0,0,0,0,0,0,0,0,0,0,0,0,0,0,0,0,0,0,0,0,0,0,0,0,0,0,0,0,0,0,0,0,0,0,0,0,0,0,0,0,0,0,0,0,0,0,0,0,0,0,0,0,0,0,0,0,0,0,0,0,0,0,0,0,0,0,0,0,0,0,0,0,0,0,0,0,0,0,0,0,0,0,0,0,0,0,0,0,0,0,0,0,0,0,0,0,0,0,0,0,0,0,0,0,0,0,0,0,0,0,0,0,0,0,0,0,0,0,0,0,0,0,0,0,0,0,0,0,0,
0,0,0,0,0,0,0,0,0,0,0,0,0,0,0,0,0,0,0,0,0,0,0,0,0,0,0,0,0,0,0,0,0,0,0,0,0,0,0,0,0,0,0,0,0,0,0,0,0,0,0,0,0,0,0,0,0,0,0,0,0,0,0,0,0,0,0,0,0,0,0,0,0,0,0,0,0,0,0,0,0,0,0,0,0,0,0,0,0,0,0,0,0,0,0,0,0,0,0,0,0,0,0,0,0,0,0,0,0,0,0,0,0,0,0,0,0,0,0,0,0,0,0,0,0,0,0,0,0,0,0,0,0,0,0,0,0,0,0,0,0,0,0,0,0,0,0,0,0,0,0,0,0,0,0,0,0,0,0,0,0,0,0,0,0,0,0,0,0,0,0,0,0,0,0,0,0,0,0,0,0,0,0,0,0,0,0,0,0,0,0,0,0,0,0,0,0,0,0,0,0,0,0,0,0,0,0,0,0,0,0,0,0,0,0,0,0,0,0,0,0,0,0,0,0,0,0,0,0,0,0,0,0,0,0,0,0,0,0,0,0,0,0,0,0,0,0,0,0,0,0,0,0,0,0,0,
0,0,0,0,0,0,0,0,0,0,0,0,0,0,0,0,0,0,0,0,0,0,0,0,0,0,0,0,0,0,0,0,0,0,0,0,0,0,0,0,0,0,0,0,0,0,0,0,0,0,0,0,0,0,0,0,0,0,0,0,0,0,0,0,0,0,0,0,0,0,0,0,0,0,0,0,0,0,0,0,0,0,0,0,0,0,0,0,0,0,0,0,0,0,0,0,0,0,0,0,0,0,0,0,0,0,0,0,0,0,0,0,0,0,0,0,0,0,0,0,0,0,0,0,0,0,0,0,0,0,0,0,0,0,0,0,0,0,0,0,0,0,0,0,0,0,0,0,0,0,0,0,0,0,0,0,0,0,0,0,0,0,0,0,0,0,0,0,0,0,0,0,0,0,0,0,0,0,0,0,0,0,0,0,0,0,0,0,0,0,0,0,0,0,0,0,0,0,0,0,0,0,0,0,0,0,0,0,0,0,0,0,0,0,0,0,0,0,0,0,0,0,0,0,0,0,0,0,0,0,0,0,0,0,0,0,0,0,0,0,0,0,0,0,0,0,0,0,0,0,0,0,0,0,0,0,
0,0,0,0,0,0,0,0,0,0,0,0,0,0,0,0,0,0,0,0,0,0,0,0,0,0,0,0,0,0,0,0,0,0,0,0,0,0,0,0,0,0,0,0,0,0,0,0,0,0,0,0,0,0,0,0,0,0,0,0,0,0,0,0,0,0,0,0,0,0,0,0,0,0,0,0,0,0,0,0,0,0,0,0,0,0,0,0,0,0,0,0,0,0,0,0,0,0,0,0,0,0,0,0,0,0,0,0,0,0,0,0,0,0,0,0,0,0,0,0,0,0,0,0,0,0,0,0,0,0,0,0,0,0,0,0,0,0,0,0,0,0,0,0,0,0,0,0,0,0,0,0,0,0,0,0,0,0,0,0,0,0,0,0,0,0,0,0,0,0,0,0,0,0,0,0,0,0,0,0,0,0,0,0,0,0,0,0,0,0,0,0,0,0,0,0,0,0,0,0,0,0,0,0,0,0,0,0,0,0,0,0,0,0,0,0,0,0,0,0,0,0,0,0,0,0,0,0,0,0,0,0,0,0,0,0,0,0,0,0,0,0,0,0,0,0,0,0,0,0,0,0,0,0,0,0,
0,0,0,0,0,0,0,0,0,0,0,0,0,0,0,0,0,0,0,0,0,0,0,0,0,0,0,0,0,0,0,0,0,0,0,0,0,0,0,0,0,0,0,0,0,0,0,0,0,0,0,0,0,0,0,0,0,0,0,0,0,0,0,0,0,0,0,0,0,0,0,0,0,0,0,0,0,0,0,0,0,0,0,0,0,0,0,0,0,0,0,0,0,0,0,0,0,0,0,0,0,0,0,0,0,0,0,0,0,0,0,0,0,0,0,0,0,0,0,0,0,0,0,0,0,0,0,0,0,0,0,0,0,0,0,0,0,0,0,0,0,0,0,0,0,0,0,0,0,0,0,0,0,0,0,0,0,0,0,0,0,0,0,0,0,0,0,0,0,0,0,0,0,0,0,0,0,0,0,0,0,0,0,0,0,0,0,0,0,0,0,0,0,0,0,0,0,0,0,0,0,0,0,0,0,0,0,0,0,0,0,0,0,0,0,0,0,0,0,0,0,0,0,0,0,0,0,0,0,0,0,0,0,0,0,0,0,0,0,0,0,0,0,0,0,0,0,0,0,0,0,0,0,0,0,0,
0,0,0,0,0,0,0,0,0,0,0,0,0,0,0,0,0,0,0,0,0,0,0,0,0,0,0,0,0,0,0,0,0,0,0,0,0,0,0,0,0,0,0,0,0,0,0,0,0,0,0,0,0,0,0,0,0,0,0,0,0,0,0,0,0,0,0,0,0,0,0,0,0,0,0,0,0,0,0,0,0,0,0,0,0,0,0,0,0,0,0,0,0,0,0,0,0,0,0,0,0,0,0,0,0,0,0,0,0,0,0,0,0,0,0,0,0,0,0,0,0,0,0,0,0,0,0,0,0,0,0,0,0,0,0,0,0,0,0,0,0,0,0,0,0,0,0,0,0,0,0,0,0,0,0,0,0,0,0,0,0,0,0,0,0,0,0,0,0,0,0,0,0,0,0,0,0,0,0,0,0,0,0,0,0,0,0,0,0,0,0,0,0,0,0,0,0,0,0,0,0,0,0,0,0,0,0,0,0,0,0,0,0,0,0,0,0,0,0,0,0,0,0,0,0,0,0,0,0,0,0,0,0,0,0,0,0,0,0,0,0,0,0,0,0,0,0,0,0,0,0,0,0,0,0,0,
0,0,0,0,0,0,0,0,0,0,0,0,0,0,0,0,0,0,0,0,0,0,0,0,0,0,0,0,0,0,0,0,0,0,0,0,0,0,0,0,0,0,0,0,0,0,0,0,0,0,0,0,0,0,0,0,0,0,0,0,0,0,0,0,0,0,0,0,0,0,0,0,0,0,0,0,0,0,0,0,0,0,0,0,0,0,0,0,0,0,0,0,0,0,0,0,0,0,0,0,0,0,0,0,0,0,0,0,0,0,0,0,0,0,0,0,0,0,0,0,0,0,0,0,0,0,0,0,0,0,0,0,0,0,0,0,0,0,0,0,0,0,0,0,0,0,0,0,0,0,0,0,0,0,0,0,0,0,0,0,0,0,0,0,0,0,0,0,0,0,0,0,0,0,0,0,0,0,0,0,0,0,0,0,0,0,0,0,0,0,0,0,0,0,0,0,0,0,0,0,0,0,0,0,0,0,0,0,0,0,0,0,0,0,0,0,0,0,0,0,0,0,0,0,0,0,0,0,0,0,0,0,0,0,0,0,0,0,0,0,0,0,0,0,0,0,0,0,0,0,0,0,0,0,0,0,
0,0,0,0,0,0,0,0,0,0,0,0,0,0,0,0,0,0,0,0,0,0,0,0,0,0,0,0,0,0,0,0,0,0,0,0,0,0,0,0,0,0,0,0,0,0,0,0,0,0,0,0,0,0,0,0,0,0,0,0,0,0,0,0,0,0,0,0,0,0,0,0,0,0,0,0,0,0,0,0,0,0,0,0,0,0,0,0,0,0,0,0,0,0,0,0,0,0,0,0,0,0,0,0,0,0,0,0,0,0,0,0,0,0,0,0,0,0,0,0,0,0,0,0,0,0,0,0,0,0,0,0,0,0,0,0,0,0,0,0,0,0,0,0,0,0,0,0,0,0,0,0,0,0,0,0,0,0,0,0,0,0,0,0,0,0,0,0,0,0,0,0,0,0,0,0,0,0,0,0,0,0,0,0,0,0,0,0,0,0,0,0,0,0,0,0,0,0,0,0,0,0,0,0,0,0,0,0,0,0,0,0,0,0,0,0,0,0,0,0,0,0,0,0,0,0,0,0,0,0,0,0,0,0,0,0,0,0,0,0,0,0,0,0,0,0,0,0,0,0,0,0,0,0,0,0,
0,0,0,0,0,0,0,0,0,0,0,0,0,0,0,0,0,0,0,0,0,0,0,0,0,0,0,0,0,0,0,0,0,0,0,0,0,0,0,0,0,0,0,0,0,0,0,0,0,0,0,0,0,0,0,0,0,0,0,0,0,0,0,0,0,0,0,0,0,0,0,0,0,0,0,0,0,0,0,0,0,0,0,0,0,0,0,0,0,0,0,0,0,0,0,0,0,0,0,0,0,0,0,0,0,0,0,0,0,0,0,0,0,0,0,0,0,0,0,0,0,0,0,0,0,0,0,0,0,0,0,0,0,0,0,0,0,0,0,0,0,0,0,0,0,0,0,0,0,0,0,0,0,0,0,0,0,0,0,0,0,0,0,0,0,0,0,0,0,0,0,0,0,0,0,0,0,0,0,0,0,0,0,0,0,0,0,0,0,0,0,0,0,0,0,0,0,0,0,0,0,0,0,0,0,0,0,0,0,0,0,0,0,0,0,0,0,0,0,0,0,0,0,0,0,0,0,0,0,0,0,0,0,0,0,0,0,0,0,0,0,0,0,0,0,0,0,0,0,0,0,0,0,0,0,0,
0,0,0,0,0,0,0,0,0,0,0,0,0,0,0,0,0,0,0,0,0,0,0,0,0,0,0,0,0,0,0,0,0,0,0,0,0,0,0,0,0,0,0,0,0,0,0,0,0,0,0,0,0,0,0,0,0,0,0,0,0,0,0,0,0,0,0,0,0,0,0,0,0,0,0,0,0,0,0,0,0,0,0,0,0,0,0,0,0,0,0,0,0,0,0,0,0,0,0,0,0,0,0,0,0,0,0,0,0,0,0,0,0,0,0,0,0,0,0,0,0,0,0,0,0,0,0,0,0,0,0,0,0,0,0,0,0,0,0,0,0,0,0,0,0,0,0,0,0,0,0,0,0,0,0,0,0,0,0,0,0,0,0,0,0,0,0,0,0,0,0,0,0,0,0,0,0,0,0,0,0,0,0,0,0,0,0,0,0,0,0,0,0,0,0,0,0,0,0,0,0,0,0,0,0,0,0,0,0,0,0,0,0,0,0,0,0,0,0,0,0,0,0,0,0,0,0,0,0,0,0,0,0,0,0,0,0,0,0,0,0,0,0,0,0,0,0,0,0,0,0,0,0,0,0,0,
0,0,0,0,0,0,0,0,0,0,0,0,0,0,0,0,0,0,0,0,0,0,0,0,0,0,0,0,0,0,0,0,0,0,0,0,0,0,0,0,0,0,0,0,0,0,0,0,0,0,0,0,0,0,0,0,0,0,0,0,0,0,0,0,0,0,0,0,0,0,0,0,0,0,0,0,0,0,0,0,0,0,0,0,0,0,0,0,0,0,0,0,0,0,0,0,0,0,0,0,0,0,0,0,0,0,0,0,0,0,0,0,0,0,0,0,0,0,0,0,0,0,0,0,0,0,0,0,0,0,0,0,0,0,0,0,0,0,0,0,0,0,0,0,0,0,0,0,0,0,0,0,0,0,0,0,0,0,0,0,0,0,0,0,0,0,0,0,0,0,0,0,0,0,0,0,0,0,0,0,0,0,0,0,0,0,0,0,0,0,0,0,0,0,0,0,0,0,0,0,0,0,0,0,0,0,0,0,0,0,0,0,0,0,0,0,0,0,0,0,0,0,0,0,0,0,0,0,0,0,0,0,0,0,0,0,0,0,0,0,0,0,0,0,0,0,0,0,0,0,0,0,0,0,0,0,
0,0,0,0,0,0,0,0,0,0,0,0,0,0,0,0,0,0,0,0,0,0,0,0,0,0,0,0,0,0,0,0,0,0,0,0,0,0,0,0,0,0,0,0,0,0,0,0,0,0,0,0,0,0,0,0,0,0,0,0,0,0,0,0,0,0,0,0,0,0,0,0,0,0,0,0,0,0,0,0,0,0,0,0,0,0,0,0,0,0,0,0,0,0,0,0,0,0,0,0,0,0,0,0,0,0,0,0,0,0,0,0,0,0,0,0,0,0,0,0,0,0,0,0,0,0,0,0,0,0,0,0,0,0,0,0,0,0,0,0,0,0,0,0,0,0,0,0,0,0,0,0,0,0,0,0,0,0,0,0,0,0,0,0,0,0,0,0,0,0,0,0,0,0,0,0,0,0,0,0,0,0,0,0,0,0,0,0,0,0,0,0,0,0,0,0,0,0,0,0,0,0,0,0,0,0,0,0,0,0,0,0,0,0,0,0,0,0,0,0,0,0,0,0,0,0,0,0,0,0,0,0,0,0,0,0,0,0,0,0,0,0,0,0,0,0,0,0,0,0,0,0,0,0,0,0,
0,0,0,0,0,0,0,0,0,0,0,0,0,0,0,0,0,0,0,0,0,0,0,0,0,0,0,0,0,0,0,0,0,0,0,0,0,0,0,0,0,0,0,0,0,0,0,0,0,0,0,0,0,0,0,0,0,0,0,0,0,0,0,0,0,0,0,0,0,0,0,0,0,0,0,0,0,0,0,0,0,0,0,0,0,0,0,0,0,0,0,0,0,0,0,0,0,0,0,0,0,0,0,0,0,0,0,0,0,0,0,0,0,0,0,0,0,0,0,0,0,0,0,0,0,0,0,0,0,0,0,0,0,0,0,0,0,0,0,0,0,0,0,0,0,0,0,0,0,0,0,0,0,0,0,0,0,0,0,0,0,0,0,0,0,0,0,0,0,0,0,0,0,0,0,0,0,0,0,0,0,0,0,0,0,0,0,0,0,0,0,0,0,0,0,0,0,0,0,0,0,0,0,0,0,0,0,0,0,0,0,0,0,0,0,0,0,0,0,0,0,0,0,0,0,0,0,0,0,0,0,0,0,0,0,0,0,0,0,0,0,0,0,0,0,0,0,0,0,0,0,0,0,0,0,0,
0,0,0,0,0,0,0,0,0,0,0,0,0,0,0,0,0,0,0,0,0,0,0,0,0,0,0,0,0,0,0,0,0,0,0,0,0,0,0,0,0,0,0,0,0,0,0,0,0,0,0,0,0,0,0,0,0,0,0,0,0,0,0,0,0,0,0,0,0,0,0,0,0,0,0,0,0,0,0,0,0,0,0,0,0,0,0,0,0,0,0,0,0,0,0,0,0,0,0,0,0,0,0,0,0,0,0,0,0,0,0,0,0,0,0,0,0,0,0,0,0,0,0,0,0,0,0,0,0,0,0,0,0,0,0,0,0,0,0,0,0,0,0,0,0,0,0,0,0,0,0,0,0,0,0,0,0,0,0,0,0,0,0,0,0,0,0,0,0,0,0,0,0,0,0,0,0,0,0,0,0,0,0,0,0,0,0,0,0,0,0,0,0,0,0,0,0,0,0,0,0,0,0,0,0,0,0,0,0,0,0,0,0,0,0,0,0,0,0,0,0,0,0,0,0,0,0,0,0,0,0,0,0,0,0,0,0,0,0,0,0,0,0,0,0,0,0,0,0,0,0,0,0,0,0,0,
0,0,0,0,0,0,0,0,0,0,0,0,0,0,0,0,0,0,0,0,0,0,0,0,0,0,0,0,0,0,0,0,0,0,0,0,0,0,0,0,0,0,0,0,0,0,0,0,0,0,0,0,0,0,0,0,0,0,0,0,0,0,0,0,0,0,0,0,0,0,0,0,0,0,0,0,0,0,0,0,0,0,0,0,0,0,0,0,0,0,0,0,0,0,0,0,0,0,0,0,0,0,0,0,0,0,0,0,0,0,0,0,0,0,0,0,0,0,0,0,0,0,0,0,0,0,0,0,0,0,0,0,0,0,0,0,0,0,0,0,0,0,0,0,0,0,0,0,0,0,0,0,0,0,0,0,0,0,0,0,0,0,0,0,0,0,0,0,0,0,0,0,0,0,0,0,0,0,0,0,0,0,0,0,0,0,0,0,0,0,0,0,0,0,0,0,0,0,0,0,0,0,0,0,0,0,0,0,0,0,0,0,0,0,0,0,0,0,0,0,0,0,0,0,0,0,0,0,0,0,0,0,0,0,0,0,0,0,0,0,0,0,0,0,0,0,0,0,0,0,0,0,0,0,0,0,
0,0,0,0,0,0,0,0,0,0,0,0,0,0,0,0,0,0,0,0,0,0,0,0,0,0,0,0,0,0,0,0,0,0,0,0,0,0,0,0,0,0,0,0,0,0,0,0,0,0,0,0,0,0,0,0,0,0,0,0,0,0,0,0,0,0,0,0,0,0,0,0,0,0,0,0,0,0,0,0,0,0,0,0,0,0,0,0,0,0,0,0,0,0,0,0,0,0,0,0,0,0,0,0,0,0,0,0,0,0,0,0,0,0,0,0,0,0,0,0,0,0,0,0,0,0,0,0,0,0,0,0,0,0,0,0,0,0,0,0,0,0,0,0,0,0,0,0,0,0,0,0,0,0,0,0,0,0,0,0,0,0,0,0,0,0,0,0,0,0,0,0,0,0,0,0,0,0,0,0,0,0,0,0,0,0,0,0,0,0,0,0,0,0,0,0,0,0,0,0,0,0,0,0,0,0,0,0,0,0,0,0,0,0,0,0,0,0,0,0,0,0,0,0,0,0,0,0,0,0,0,0,0,0,0,0,0,0,0,0,0,0,0,0,0,0,0,0,0,0,0,0,0,0,0,0,
0,0,0,0,0,0,0,0,0,0,0,0,0,0,0,0,0,0,0,0,0,0,0,0,0,0,0,0,0,0,0,0,0,0,0,0,0,0,0,0,0,0,0,0,0,0,0,0,0,0,0,0,0,0,0,0,0,0,0,0,0,0,0,0,0,0,0,0,0,0,0,0,0,0,0,0,0,0,0,0,0,0,0,0,0,0,0,0,0,0,0,0,0,0,0,0,0,0,0,0,0,0,0,0,0,0,0,0,0,0,0,0,0,0,0,0,0,0,0,0,0,0,0,0,0,0,0,0,0,0,0,0,0,0,0,0,0,0,0,0,0,0,0,0,0,0,0,0,0,0,0,0,0,0,0,0,0,0,0,0,0,0,0,0,0,0,0,0,0,0,0,0,0,0,0,0,0,0,0,0,0,0,0,0,0,0,0,0,0,0,0,0,0,0,0,0,0,0,0,0,0,0,0,0,0,0,0,0,0,0,0,0,0,0,0,0,0,0,0,0,0,0,0,0,0,0,0,0,0,0,0,0,0,0,0,0,0,0,0,0,0,0,0,0,0,0,0,0,0,0,0,0,0,0,0,0,
0,0,0,0,0,0,0,0,0,0,0,0,0,0,0,0,0,0,0,0,0,0,0,0,0,0,0,0,0,0,0,0,0,0,0,0,0,0,0,0,0,0,0,0,0,0,0,0,0,0,0,0,0,0,0,0,0,0,0,0,0,0,0,0,0,0,0,0,0,0,0,0,0,0,0,0,0,0,0,0,0,0,0,0,0,0,0,0,0,0,0,0,0,0,0,0,0,0,0,0,0,0,0,0,0,0,0,0,0,0,0,0,0,0,0,0,0,0,0,0,0,0,0,0,0,0,0,0,0,0,0,0,0,0,0,0,0,0,0,0,0,0,0,0,0,0,0,0,0,0,0,0,0,0,0,0,0,0,0,0,0,0,0,0,0,0,0,0,0,0,0,0,0,0,0,0,0,0,0,0,0,0,0,0,0,0,0,0,0,0,0,0,0,0,0,0,0,0,0,0,0,0,0,0,0,0,0,0,0,0,0,0,0,0,0,0,0,0,0,0,0,0,0,0,0,0,0,0,0,0,0,0,0,0,0,0,0,0,0,0,0,0,0,0,0,0,0,0,0,0,0,0,0,0,0,0,
0,0,0,0,0,0,0,0,0,0,0,0,0,0,0,0,0,0,0,0,0,0,0,0,0,0,0,0,0,0,0,0,0,0,0,0,0,0,0,0,0,0,0,0,0,0,0,0,0,0,0,0,0,0,0,0,0,0,0,0,0,0,0,0,0,0,0,0,0,0,0,0,0,0,0,0,0,0,0,0,0,0,0,0,0,0,0,0,0,0,0,0,0,0,0,0,0,0,0,0,0,0,0,0,0,0,0,0,0,0,0,0,0,0,0,0,0,0,0,0,0,0,0,0,0,0,0,0,0,0,0,0,0,0,0,0,0,0,0,0,0,0,0,0,0,0,0,0,0,0,0,0,0,0,0,0,0,0,0,0,0,0,0,0,0,0,0,0,0,0,0,0,0,0,0,0,0,0,0,0,0,0,0,0,0,0,0,0,0,0,0,0,0,0,0,0,0,0,0,0,0,0,0,0,0,0,0,0,0,0,0,0,0,0,0,0,0,0,0,0,0,0,0,0,0,0,0,0,0,0,0,0,0,0,0,0,0,0,0,0,0,0,0,0,0,0,0,0,0,0,0,0,0,0,0,0,
0,0,0,0,0,0,0,0,0,0,0,0,0,0,0,0,0,0,0,0,0,0,0,0,0,0,0,0,0,0,0,0,0,0,0,0,0,0,0,0,0,0,0,0,0,0,0,0,0,0,0,0,0,0,0,0,0,0,0,0,0,0,0,0,0,0,0,0,0,0,0,0,0,0,0,0,0,0,0,0,0,0,0,0,0,0,0,0,0,0,0,0,0,0,0,0,0,0,0,0,0,0,0,0,0,0,0,0,0,0,0,0,0,0,0,0,0,0,0,0,0,0,0,0,0,0,0,0,0,0,0,0,0,0,0,0,0,0,0,0,0,0,0,0,0,0,0,0,0,0,0,0,0,0,0,0,0,0,0,0,0,0,0,0,0,0,0,0,0,0,0,0,0,0,0,0,0,0,0,0,0,0,0,0,0,0,0,0,0,0,0,0,0,0,0,0,0,0,0,0,0,0,0,0,0,0,0,0,0,0,0,0,0,0,0,0,0,0,0,0,0,0,0,0,0,0,0,0,0,0,0,0,0,0,0,0,0,0,0,0,0,0,0,0,0,0,0,0,0,0,0,0,0,0,0,0,
0,0,0,0,0,0,0,0,0,0,0,0,0,0,0,0,0,0,0,0,0,0,0,0,0,0,0,0,0,0,0,0,0,0,0,0,0,0,0,0,0,0,0,0,0,0,0,0,0,0,0,0,0,0,0,0,0,0,0,0,0,0,0,0,0,0,0,0,0,0,0,0,0,0,0,0,0,0,0,0,0,0,0,0,0,0,0,0,0,0,0,0,0,0,0,0,0,0,0,0,0,0,0,0,0,0,0,0,0,0,0,0,0,0,0,0,0,0,0,0,0,0,0,0,0,0,0,0,0,0,0,0,0,0,0,0,0,0,0,0,0,0,0,0,0,0,0,0,0,0,0,0,0,0,0,0,0,0,0,0,0,0,0,0,0,0,0,0,0,0,0,0,0,0,0,0,0,0,0,0,0,0,0,0,0,0,0,0,0,0,0,0,0,0,0,0,0,0,0,0,0,0,0,0,0,0,0,0,0,0,0,0,0,0,0,0,0,0,0,0,0,0,0,0,0,0,0,0,0,0,0,0,0,0,0,0,0,0,0,0,0,0,0,0,0,0,0,0,0,0,0,0,0,0,0,0,
0,0,0,0,0,0,0,0,0,0,0,0,0,0,0,0,0,0,0,0,0,0,0,0,0,0,0,0,0,0,0,0,0,0,0,0,0,0,0,0,0,0,0,0,0,0,0,0,0,0,0,0,0,0,0,0,0,0,0,0,0,0,0,0,0,0,0,0,0,0,0,0,0,0,0,0,0,0,0,0,0,0,0,0,0,0,0,0,0,0,0,0,0,0,0,0,0,0,0,0,0,0,0,0,0,0,0,0,0,0,0,0,0,0,0,0,0,0,0,0,0,0,0,0,0,0,0,0,0,0,0,0,0,0,0,0,0,0,0,0,0,0,0,0,0,0,0,0,0,0,0,0,0,0,0,0,0,0,0,0,0,0,0,0,0,0,0,0,0,0,0,0,0,0,0,0,0,0,0,0,0,0,0,0,0,0,0,0,0,0,0,0,0,0,0,0,0,0,0,0,0,0,0,0,0,0,0,0,0,0,0,0,0,0,0,0,0,0,0,0,0,0,0,0,0,0,0,0,0,0,0,0,0,0,0,0,0,0,0,0,0,0,0,0,0,0,0,0,0,0,0,0,0,0,0,0,
0,0,0,0,0,0,0,0,0,0,0,0,0,0,0,0,0,0,0,0,0,0,0,0,0,0,0,0,0,0,0,0,0,0,0,0,0,0,0,0,0,0,0,0,0,0,0,0,0,0,0,0,0,0,0,0,0,0,0,0,0,0,0,0,0,0,0,0,0,0,0,0,0,0,0,0,0,0,0,0,0,0,0,0,0,0,0,0,0,0,0,0,0,0,0,0,0,0,0,0,0,0,0,0,0,0,0,0,0,0,0,0,0,0,0,0,0,0,0,0,0,0,0,0,0,0,0,0,0,0,0,0,0,0,0,0,0,0,0,0,0,0,0,0,0,0,0,0,0,0,0,0,0,0,0,0,0,0,0,0,0,0,0,0,0,0,0,0,0,0,0,0,0,0,0,0,0,0,0,0,0,0,0,0,0,0,0,0,0,0,0,0,0,0,0,0,0,0,0,0,0,0,0,0,0,0,0,0,0,0,0,0,0,0,0,0,0,0,0,0,0,0,0,0,0,0,0,0,0,0,0,0,0,0,0,0,0,0,0,0,0,0,0,0,0,0,0,0,0,0,0,0,0,0,0,0,
0,0,0,0,0,0,0,0,0,0,0,0,0,0,0,0,0,0,0,0,0,0,0,0,0,0,0,0,0,0,0,0,0,0,0,0,0,0,0,0,0,0,0,0,0,0,0,0,0,0,0,0,0,0,0,0,0,0,0,0,0,0,0,0,0,0,0,0,0,0,0,0,0,0,0,0,0,0,0,0,0,0,0,0,0,0,0,0,0,0,0,0,0,0,0,0,0,0,0,0,0,0,0,0,0,0,0,0,0,0,0,0,0,0,0,0,0,0,0,0,0,0,0,0,0,0,0,0,0,0,0,0,0,0,0,0,0,0,0,0,0,0,0,0,0,0,0,0,0,0,0,0,0,0,0,0,0,0,0,0,0,0,0,0,0,0,0,0,0,0,0,0,0,0,0,0,0,0,0,0,0,0,0,0,0,0,0,0,0,0,0,0,0,0,0,0,0,0,0,0,0,0,0,0,0,0,0,0,0,0,0,0,0,0,0,0,0,0,0,0,0,0,0,0,0,0,0,0,0,0,0,0,0,0,0,0,0,0,0,0,0,0,0,0,0,0,0,0,0,0,0,0,0,0,0,0,
0,0,0,0,0,0,0,0,0,0,0,0,0,0,0,0,0,0,0,0,0,0,0,0,0,0,0,0,0,0,0,0,0,0,0,0,0,0,0,0,0,0,0,0,0,0,0,0,0,0,0,0,0,0,0,0,0,0,0,0,0,0,0,0,0,0,0,0,0,0,0,0,0,0,0,0,0,0,0,0,0,0,0,0,0,0,0,0,0,0,0,0,0,0,0,0,0,0,0,0,0,0,0,0,0,0,0,0,0,0,0,0,0,0,0,0,0,0,0,0,0,0,0,0,0,0,0,0,0,0,0,0,0,0,0,0,0,0,0,0,0,0,0,0,0,0,0,0,0,0,0,0,0,0,0,0,0,0,0,0,0,0,0,0,0,0,0,0,0,0,0,0,0,0,0,0,0,0,0,0,0,0,0,0,0,0,0,0,0,0,0,0,0,0,0,0,0,0,0,0,0,0,0,0,0,0,0,0,0,0,0,0,0,0,0,0,0,0,0,0,0,0,0,0,0,0,0,0,0,0,0,0,0,0,0,0,0,0,0,0,0,0,0,0,0,0,0,0,0,0,0,0,0,0,0,0,
0,0,0,0,0,0,0,0,0,0,0,0,0,0,0,0,0,0,0,0,0,0,0,0,0,0,0,0,0,0,0,0,0,0,0,0,0,0,0,0,0,0,0,0,0,0,0,0,0,0,0,0,0,0,0,0,0,0,0,0,0,0,0,0,0,0,0,0,0,0,0,0,0,0,0,0,0,0,0,0,0,0,0,0,0,0,0,0,0,0,0,0,0,0,0,0,0,0,0,0,0,0,0,0,0,0,0,0,0,0,0,0,0,0,0,0,0,0,0,0,0,0,0,0,0,0,0,0,0,0,0,0,0,0,0,0,0,0,0,0,0,0,0,0,0,0,0,0,0,0,0,0,0,0,0,0,0,0,0,0,0,0,0,0,0,0,0,0,0,0,0,0,0,0,0,0,0,0,0,0,0,0,0,0,0,0,0,0,0,0,0,0,0,0,0,0,0,0,0,0,0,0,0,0,0,0,0,0,0,0,0,0,0,0,0,0,0,0,0,0,0,0,0,0,0,0,0,0,0,0,0,0,0,0,0,0,0,0,0,0,0,0,0,0,0,0,0,0,0,0,0,0,0,0,0,0,
0,0,0,0,0,0,0,0,0,0,0,0,0,0,0,0,0,0,0,0,0,0,0,0,0,0,0,0,0,0,0,0,0,0,0,0,0,0,0,0,0,0,0,0,0,0,0,0,0,0,0,0,0,0,0,0,0,0,0,0,0,0,0,0,0,0,0,0,0,0,0,0,0,0,0,0,0,0,0,0,0,0,0,0,0,0,0,0,0,0,0,0,0,0,0,0,0,0,0,0,0,0,0,0,0,0,0,0,0,0,0,0,0,0,0,0,0,0,0,0,0,0,0,0,0,0,0,0,0,0,0,0,0,0,0,0,0,0,0,0,0,0,0,0,0,0,0,0,0,0,0,0,0,0,0,0,0,0,0,0,0,0,0,0,0,0,0,0,0,0,0,0,0,0,0,0,0,0,0,0,0,0,0,0,0,0,0,0,0,0,0,0,0,0,0,0,0,0,0,0,0,0,0,0,0,0,0,0,0,0,0,0,0,0,0,0,0,0,0,0,0,0,0,0,0,0,0,0,0,0,0,0,0,0,0,0,0,0,0,0,0,0,0,0,0,0,0,0,0,0,0,0,0,0,0,0,
0,0,0,0,0,0,0,0,0,0,0,0,0,0,0,0,0,0,0,0,0,0,0,0,0,0,0,0,0,0,0,0,0,0,0,0,0,0,0,0,0,0,0,0,0,0,0,0,0,0,0,0,0,0,0,0,0,0,0,0,0,0,0,0,0,0,0,0,0,0,0,0,0,0,0,0,0,0,0,0,0,0,0,0,0,0,0,0,0,0,0,0,0,0,0,0,0,0,0,0,0,0,0,0,0,0,0,0,0,0,0,0,0,0,0,0,0,0,0,0,0,0,0,0,0,0,0,0,0,0,0,0,0,0,0,0,0,0,0,0,0,0,0,0,0,0,0,0,0,0,0,0,0,0,0,0,0,0,0,0,0,0,0,0,0,0,0,0,0,0,0,0,0,0,0,0,0,0,0,0,0,0,0,0,0,0,0,0,0,0,0,0,0,0,0,0,0,0,0,0,0,0,0,0,0,0,0,0,0,0,0,0,0,0,0,0,0,0,0,0,0,0,0,0,0,0,0,0,0,0,0,0,0,0,0,0,0,0,0,0,0,0,0,0,0,0,0,0,0,0,0,0,0,0,0,0,
0,0,0,0,0,0,0,0,0,0,0,0,0,0,0,0,0,0,0,0,0,0,0,0,0,0,0,0,0,0,0,0,0,0,0,0,0,0,0,0,0,0,0,0,0,0,0,0,0,0,0,0,0,0,0,0,0,0,0,0,0,0,0,0,0,0,0,0,0,0,0,0,0,0,0,0,0,0,0,0,0,0,0,0,0,0,0,0,0,0,0,0,0,0,0,0,0,0,0,0,0,0,0,0,0,0,0,0,0,0,0,0,0,0,0,0,0,0,0,0,0,0,0,0,0,0,0,0,0,0,0,0,0,0,0,0,0,0,0,0,0,0,0,0,0,0,0,0,0,0,0,0,0,0,0,0,0,0,0,0,0,0,0,0,0,0,0,0,0,0,0,0,0,0,0,0,0,0,0,0,0,0,0,0,0,0,0,0,0,0,0,0,0,0,0,0,0,0,0,0,0,0,0,0,0,0,0,0,0,0,0,0,0,0,0,0,0,0,0,0,0,0,0,0,0,0,0,0,0,0,0,0,0,0,0,0,0,0,0,0,0,0,0,0,0,0,0,0,0,0,0,0,0,0,0,0,
0,0,0,0,0,0,0,0,0,0,0,0,0,0,0,0,0,0,0,0,0,0,0,0,0,0,0,0,0,0,0,0,0,0,0,0,0,0,0,0,0,0,0,0,0,0,0,0,0,0,0,0,0,0,0,0,0,0,0,0,0,0,0,0,0,0,0,0,0,0,0,0,0,0,0,0,0,0,0,0,0,0,0,0,0,0,0,0,0,0,0,0,0,0,0,0,0,0,0,0,0,0,0,0,0,0,0,0,0,0,0,0,0,0,0,0,0,0,0,0,0,0,0,0,0,0,0,0,0,0,0,0,0,0,0,0,0,0,0,0,0,0,0,0,0,0,0,0,0,0,0,0,0,0,0,0,0,0,0,0,0,0,0,0,0,0,0,0,0,0,0,0,0,0,0,0,0,0,0,0,0,0,0,0,0,0,0,0,0,0,0,0,0,0,0,0,0,0,0,0,0,0,0,0,0,0,0,0,0,0,0,0,0,0,0,0,0,0,0,0,0,0,0,0,0,0,0,0,0,0,0,0,0,0,0,0,0,0,0,0,0,0,0,0,0,0,0,0,0,0,0,0,0,0,0,0,
0,0,0,0,0,0,0,0,0,0,0,0,0,0,0,0,0,0,0,0,0,0,0,0,0,0,0,0,0,0,0,0,0,0,0,0,0,0,0,0,0,0,0,0,0,0,0,0,0,0,0,0,0,0,0,0,0,0,0,0,0,0,0,0,0,0,0,0,0,0,0,0,0,0,0,0,0,0,0,0,0,0,0,0,0,0,0,0,0,0,0,0,0,0,0,0,0,0,0,0,0,0,0,0,0,0,0,0,0,0,0,0,0,0,0,0,0,0,0,0,0,0,0,0,0,0,0,0,0,0,0,0,0,0,0,0,0,0,0,0,0,0,0,0,0,0,0,0,0,0,0,0,0,0,0,0,0,0,0,0,0,0,0,0,0,0,0,0,0,0,0,0,0,0,0,0,0,0,0,0,0,0,0,0,0,0,0,0,0,0,0,0,0,0,0,0,0,0,0,0,0,0,0,0,0,0,0,0,0,0,0,0,0,0,0,0,0,0,0,0,0,0,0,0,0,0,0,0,0,0,0,0,0,0,0,0,0,0,0,0,0,0,0,0,0,0,0,0,0,0,0,0,0,0,0,0
</data>
 </layer>
 <layer id="3" name="items" width="256" height="128">
  <data encoding="csv">
0,0,0,0,0,0,0,0,0,0,0,0,0,0,0,0,0,0,0,0,0,0,0,0,0,0,0,0,0,0,0,0,0,0,0,0,0,0,0,0,0,0,0,0,0,0,0,0,0,0,0,0,0,0,0,0,0,0,0,0,0,0,0,0,0,0,0,0,0,0,0,0,0,0,0,0,0,0,0,0,0,0,0,0,0,0,0,0,0,0,0,0,0,0,0,0,0,0,0,0,0,0,0,0,0,0,0,0,0,0,0,0,0,0,0,0,0,0,0,0,0,0,0,0,0,0,0,0,0,0,0,0,0,0,0,0,0,0,0,0,0,0,0,0,0,0,0,0,0,0,0,0,0,0,0,0,0,0,0,0,0,0,0,0,0,0,0,0,0,0,0,0,0,0,0,0,0,0,0,0,0,0,0,0,0,0,0,0,0,0,0,0,0,0,0,0,0,0,0,0,0,0,0,0,0,0,0,0,0,0,0,0,0,0,0,0,0,0,0,0,0,0,0,0,0,0,0,0,0,0,0,0,0,0,0,0,0,0,0,0,0,0,0,0,0,0,0,0,0,0,0,0,0,0,0,0,
0,0,0,0,0,0,0,0,0,0,0,0,0,0,0,0,0,0,0,0,0,0,0,0,0,0,0,0,0,0,0,0,0,0,0,0,0,0,0,0,0,0,0,0,0,0,0,0,0,0,0,0,0,0,0,0,0,0,0,0,0,0,0,0,0,0,0,0,0,0,0,0,0,0,0,0,0,0,0,0,0,0,0,0,0,0,0,0,0,0,0,0,0,0,0,0,0,0,0,0,0,0,0,0,0,0,0,0,0,0,0,0,0,0,0,0,0,0,0,0,0,0,0,0,0,0,0,0,0,0,0,0,0,0,0,0,0,0,0,0,0,0,0,0,0,0,0,0,0,0,0,0,0,0,0,0,0,0,0,0,0,0,0,0,0,0,0,0,0,0,0,0,0,0,0,0,0,0,0,0,0,0,0,0,0,0,0,0,0,0,0,0,0,0,0,0,0,0,0,0,0,0,0,0,0,0,0,0,0,0,0,0,0,0,0,0,0,0,0,0,0,0,0,0,0,0,0,0,0,0,0,0,0,0,0,0,0,0,0,0,0,0,0,0,0,0,0,0,0,0,0,0,0,0,0,0,
0,0,0,0,0,0,0,0,0,0,0,0,0,0,0,0,0,0,0,0,0,0,0,0,0,0,0,0,0,0,0,0,0,0,0,0,0,0,0,0,0,0,0,0,0,0,0,0,0,0,0,0,0,0,0,0,0,0,0,0,0,0,0,0,0,0,0,0,0,0,0,0,0,0,0,0,0,0,0,0,0,0,0,0,0,0,0,0,0,0,0,0,0,0,0,0,0,0,0,0,0,0,0,0,0,0,0,0,0,0,0,0,0,0,0,0,0,0,0,0,0,0,0,0,0,0,0,0,0,0,0,0,0,0,0,0,0,0,0,0,0,0,0,0,0,0,0,0,0,0,0,0,0,0,0,0,0,0,0,0,0,0,0,0,0,0,0,0,0,0,0,0,0,0,0,0,0,0,0,0,0,0,0,0,0,0,0,0,0,0,0,0,0,0,0,0,0,0,0,0,0,0,0,0,0,0,0,0,0,0,0,0,0,0,0,0,0,0,0,0,0,0,0,0,0,0,0,0,0,0,0,0,0,0,0,0,0,0,0,0,0,0,0,0,0,0,0,0,0,0,0,0,0,0,0,0,
0,0,0,0,0,0,0,0,0,0,0,0,0,0,0,0,0,0,0,0,0,0,0,0,0,0,0,0,0,0,0,0,0,0,0,0,0,0,0,0,0,0,0,0,0,0,0,0,0,0,0,0,0,0,0,0,0,0,0,0,0,0,0,0,0,0,0,0,0,0,0,0,0,0,0,0,0,0,0,0,0,0,0,0,0,0,0,0,0,0,0,0,0,0,0,0,0,0,0,0,0,0,0,0,0,0,0,0,0,0,0,0,0,0,0,0,0,0,0,0,0,0,0,0,0,0,0,0,0,0,0,0,0,0,0,0,0,0,0,0,0,0,0,0,0,0,0,0,0,0,0,0,0,0,0,0,0,0,0,0,0,0,0,0,0,0,0,0,0,0,0,0,0,0,0,0,0,0,0,0,0,0,0,0,0,0,0,0,0,0,0,0,0,0,0,0,0,0,0,0,0,0,0,0,0,0,0,0,0,0,0,0,0,0,0,0,0,0,0,0,0,0,0,0,0,0,0,0,0,0,0,0,0,0,0,0,0,0,0,0,0,0,0,0,0,0,0,0,0,0,0,0,0,0,0,0,
0,0,0,0,0,0,0,0,0,0,0,0,0,0,0,0,0,0,0,0,0,0,0,0,0,0,0,0,0,0,0,0,0,0,0,0,0,0,0,0,0,0,0,0,0,0,0,0,0,0,0,0,0,0,0,0,0,0,0,0,0,0,0,0,0,0,0,0,0,0,0,0,0,0,0,0,0,0,0,0,0,0,0,0,0,0,0,0,0,0,0,0,0,0,0,0,0,0,0,0,0,0,0,0,0,0,0,0,0,0,0,0,0,0,0,0,0,0,0,0,0,0,0,0,0,0,0,0,0,0,0,0,0,0,0,0,0,0,0,0,0,0,0,0,0,0,0,0,0,0,0,0,0,0,0,0,0,0,0,0,0,0,0,0,0,0,0,0,0,0,0,0,0,0,0,0,0,0,0,0,0,0,0,0,0,0,0,0,0,0,0,0,0,0,0,0,0,0,0,0,0,0,0,0,0,0,0,0,0,0,0,0,0,0,0,0,0,0,0,0,0,0,0,0,0,0,0,0,0,0,0,0,0,0,0,0,0,0,0,0,0,0,0,0,0,0,0,0,0,0,0,0,0,0,0,0,
0,0,0,0,0,0,0,0,0,0,0,0,0,0,0,0,0,0,0,0,0,0,0,0,0,0,0,0,0,0,0,0,0,0,0,0,0,0,0,0,0,0,0,0,0,0,0,0,0,0,0,0,0,0,0,0,0,0,0,0,0,0,0,0,0,0,0,0,0,0,0,0,0,0,0,0,0,0,0,0,0,0,0,0,0,0,0,0,0,0,0,0,0,0,0,0,0,0,0,0,0,0,0,0,0,0,0,0,0,0,0,0,0,0,0,0,0,0,0,0,0,0,0,0,0,0,0,0,0,0,0,0,0,0,0,0,0,0,0,0,0,0,0,0,0,0,0,0,0,0,0,0,0,0,0,0,0,0,0,0,0,0,0,0,0,0,0,0,0,0,0,0,0,0,0,0,0,0,0,0,0,0,0,0,0,0,0,0,0,0,0,0,0,0,0,0,0,0,0,0,0,0,0,0,0,0,0,0,0,0,0,0,0,0,0,0,0,0,0,0,0,0,0,0,0,0,0,0,0,0,0,0,0,0,0,0,0,0,0,0,0,0,0,0,0,0,0,0,0,0,0,0,0,0,0,0,
0,0,0,0,0,0,0,0,0,0,0,0,0,0,0,0,0,0,0,0,0,0,0,0,0,0,0,0,0,0,0,0,0,0,0,0,0,0,0,0,0,0,0,0,0,0,0,0,0,0,0,0,0,0,0,0,0,0,0,0,0,0,0,0,0,0,0,0,0,0,0,0,0,0,0,0,0,0,0,0,0,0,0,0,0,0,0,0,0,0,0,0,0,0,0,0,0,0,0,0,0,0,0,0,0,0,0,0,0,0,0,0,0,0,0,0,0,0,0,0,0,0,0,0,0,0,0,0,0,0,0,0,0,0,0,0,0,0,0,0,0,0,0,0,0,0,0,0,0,0,0,0,0,0,0,0,0,0,0,0,0,0,0,0,0,0,0,0,0,0,0,0,0,0,0,0,0,0,0,0,0,0,0,0,0,0,0,0,0,0,0,0,0,0,0,0,0,0,0,0,0,0,0,0,0,0,0,0,0,0,0,0,0,0,0,0,0,0,0,0,0,0,0,0,0,0,0,0,0,0,0,0,0,0,0,0,0,0,0,0,0,0,0,0,0,0,0,0,0,0,0,0,0,0,0,0,
0,0,0,0,0,0,0,0,0,0,0,0,0,0,0,0,0,0,0,0,0,0,0,0,0,0,0,0,0,0,0,0,0,0,0,0,0,0,0,0,0,0,0,0,0,0,0,0,0,0,0,0,0,0,0,0,0,0,0,0,0,0,0,0,0,0,0,0,0,0,0,0,0,0,0,0,0,0,0,0,0,0,0,0,0,0,0,0,0,0,0,0,0,0,0,0,0,0,0,0,0,0,0,0,0,0,0,0,0,0,0,0,0,0,0,0,0,0,0,0,0,0,0,0,0,0,0,0,0,0,0,0,0,0,0,0,0,0,0,0,0,0,0,0,0,0,0,0,0,0,0,0,0,0,0,0,0,0,0,0,0,0,0,0,0,0,0,0,0,0,0,0,0,0,0,0,0,0,0,0,0,0,0,0,0,0,0,0,0,0,0,0,0,0,0,0,0,0,0,0,0,0,0,0,0,0,0,0,0,0,0,0,0,0,0,0,0,0,0,0,0,0,0,0,0,0,0,0,0,0,0,0,0,0,0,0,0,0,0,0,0,0,0,0,0,0,0,0,0,0,0,0,0,0,0,0,
0,0,0,0,0,0,0,0,0,0,0,0,0,0,0,0,0,0,0,0,0,0,0,0,0,0,0,0,0,0,0,0,0,0,0,0,0,0,0,0,0,0,0,0,0,0,0,0,0,0,0,0,0,0,0,0,0,0,0,0,0,0,0,0,0,0,0,0,0,0,0,0,0,0,0,0,0,0,0,0,0,0,0,0,0,0,0,0,0,0,0,0,0,0,0,0,0,0,0,0,0,0,0,0,0,0,0,0,0,0,0,0,0,0,0,0,0,0,0,0,0,0,0,0,0,0,0,0,0,0,0,0,0,0,0,0,0,0,0,0,0,0,0,0,0,0,0,0,0,0,0,0,0,0,0,0,0,0,0,0,0,0,0,0,0,0,0,0,0,0,0,0,0,0,0,0,0,0,0,0,0,0,0,0,0,0,0,0,0,0,0,0,0,0,0,0,0,0,0,0,0,0,0,0,0,0,0,0,0,0,0,0,0,0,0,0,0,0,0,0,0,0,0,0,0,0,0,0,0,0,0,0,0,0,0,0,0,0,0,0,0,0,0,0,0,0,0,0,0,0,0,0,0,0,0,0,
0,0,0,0,0,0,0,0,0,0,0,0,0,0,0,0,0,0,0,0,0,0,0,0,0,0,0,0,0,0,0,0,0,0,0,0,0,0,0,0,0,0,0,0,0,0,0,0,0,0,0,0,0,0,0,0,0,0,0,0,0,0,0,0,0,0,0,0,0,0,0,0,0,0,0,0,0,0,0,0,0,0,0,0,0,0,0,0,0,0,0,0,0,0,0,0,0,0,0,0,0,0,0,0,0,0,0,0,0,0,0,0,0,0,0,0,0,0,0,0,0,0,0,0,0,0,0,0,0,0,0,0,0,0,0,0,0,0,0,0,0,0,0,0,0,0,0,0,0,0,0,0,0,0,0,0,0,0,0,0,0,0,0,0,0,0,0,0,0,0,0,0,0,0,0,0,0,0,0,0,0,0,0,0,0,0,0,0,0,0,0,0,0,0,0,0,0,0,0,0,0,0,0,0,0,0,0,0,0,0,0,0,0,0,0,0,0,0,0,0,0,0,0,0,0,0,0,0,0,0,0,0,0,0,0,0,0,0,0,0,0,0,0,0,0,0,0,0,0,0,0,0,0,0,0,0,
0,0,0,0,0,0,0,0,0,0,0,0,0,0,0,0,0,0,0,0,0,0,0,0,0,0,0,0,0,0,0,0,0,0,0,0,0,0,0,0,0,0,0,0,0,0,0,0,0,0,0,0,0,0,0,0,0,0,0,0,0,0,0,0,0,0,0,0,0,0,0,0,0,0,0,0,0,0,0,0,0,0,0,0,0,0,0,0,0,0,0,0,0,0,0,0,0,0,0,0,0,0,0,0,0,0,0,0,0,0,0,0,0,0,0,0,0,0,0,0,0,0,0,0,0,0,0,0,0,0,0,0,0,0,0,0,0,0,0,0,0,0,0,0,0,0,0,0,0,0,0,0,0,0,0,0,0,0,0,0,0,0,0,0,0,0,0,0,0,0,0,0,0,0,0,0,0,0,0,0,0,0,0,0,0,0,0,0,0,0,0,0,0,0,0,0,0,0,0,0,0,0,0,0,0,0,0,0,0,0,0,0,0,0,0,0,0,0,0,0,0,0,0,0,0,0,0,0,0,0,0,0,0,0,0,0,0,0,0,0,0,0,0,0,0,0,0,0,0,0,0,0,0,0,0,0,
0,0,0,0,0,0,0,0,0,0,0,0,0,0,0,0,0,0,0,0,0,0,0,0,0,0,0,0,0,0,0,0,0,0,0,0,0,0,0,0,0,0,0,0,0,0,0,0,0,0,0,0,0,0,0,0,0,0,0,0,0,0,0,0,0,0,0,0,0,0,0,0,0,0,0,0,0,0,0,0,0,0,0,0,0,0,0,0,0,0,0,0,0,0,0,0,0,0,0,0,0,0,0,0,0,0,0,0,0,0,0,0,0,0,0,0,0,0,0,0,0,0,0,0,0,0,0,0,0,0,0,0,0,0,0,0,0,0,0,0,0,0,0,0,0,0,0,0,0,0,0,0,0,0,0,0,0,0,0,0,0,0,0,0,0,0,0,0,0,0,0,0,0,0,0,0,0,0,0,0,0,0,0,0,0,0,0,0,0,0,0,0,0,0,0,0,0,0,0,0,0,0,0,0,0,0,0,0,0,0,0,0,0,0,0,0,0,0,0,0,0,0,0,0,0,0,0,0,0,0,0,0,0,0,0,0,0,0,0,0,0,0,0,0,0,0,0,0,0,0,0,0,0,0,0,0,
0,0,0,0,0,0,0,0,0,0,0,0,0,0,0,0,0,0,0,0,0,0,0,0,0,0,0,0,0,0,0,0,0,0,0,0,0,0,0,0,0,0,0,0,0,0,0,0,0,0,0,0,0,0,0,0,0,0,0,0,0,0,0,0,0,0,0,0,0,0,0,0,0,0,0,0,0,0,0,0,0,0,0,0,0,0,0,0,0,0,0,0,0,0,0,0,0,0,0,0,0,0,0,0,0,0,0,0,0,0,0,0,0,0,0,0,0,0,0,0,0,0,0,0,0,0,0,0,0,0,0,0,0,0,0,0,0,0,0,0,0,0,0,0,0,0,0,0,0,0,0,0,0,0,0,0,0,0,0,0,0,0,0,0,0,0,0,0,0,0,0,0,0,0,0,0,0,0,0,0,0,0,0,0,0,0,0,0,0,0,0,0,0,0,0,0,0,0,0,0,0,0,0,0,0,0,0,0,0,0,0,0,0,0,0,0,0,0,0,0,0,0,0,0,0,0,0,0,0,0,0,0,0,0,0,0,0,0,0,0,0,0,0,0,0,0,0,0,0,0,0,0,0,0,0,0,
0,0,0,0,0,0,0,0,0,0,0,0,0,0,0,0,0,0,0,0,0,0,0,0,0,0,0,0,0,0,0,0,0,0,0,0,0,0,0,0,0,0,0,0,0,0,0,0,0,0,0,0,0,0,0,0,0,0,0,0,0,0,0,0,0,0,0,0,0,0,0,0,0,0,0,0,0,0,0,0,0,0,0,0,0,0,0,0,0,0,0,0,0,0,0,0,0,0,0,0,0,0,0,0,0,0,0,0,0,0,0,0,0,0,0,0,0,0,0,0,0,0,0,0,0,0,0,0,0,0,0,0,0,0,0,0,0,0,0,0,0,0,0,0,0,0,0,0,0,0,0,0,0,0,0,0,0,0,0,0,0,0,0,0,0,0,0,0,0,0,0,0,0,0,0,0,0,0,0,0,0,0,0,0,0,0,0,0,0,0,0,0,0,0,0,0,0,0,0,0,0,0,0,0,0,0,0,0,0,0,0,0,0,0,0,0,0,0,0,0,0,0,0,0,0,0,0,0,0,0,0,0,0,0,0,0,0,0,0,0,0,0,0,0,0,0,0,0,0,0,0,0,0,0,0,0,
0,0,0,0,0,0,0,0,0,0,0,0,0,0,0,0,0,0,0,0,0,0,0,0,0,0,0,0,0,0,0,0,0,0,0,0,0,0,0,0,0,0,0,0,0,0,0,0,0,0,0,0,0,0,0,0,0,0,0,0,0,0,0,0,0,0,0,0,0,0,0,0,0,0,0,0,0,0,0,0,0,0,0,0,0,0,0,0,0,0,0,0,0,0,0,0,0,0,0,0,0,0,0,0,0,0,0,0,0,0,0,0,0,0,0,0,0,0,0,0,0,0,0,0,0,0,0,0,0,0,0,0,0,0,0,0,0,0,0,0,0,0,0,0,0,0,0,0,0,0,0,0,0,0,0,0,0,0,0,0,0,0,0,0,0,0,0,0,0,0,0,0,0,0,0,0,0,0,0,0,0,0,0,0,0,0,0,0,0,0,0,0,0,0,0,0,0,0,0,0,0,0,0,0,0,0,0,0,0,0,0,0,0,0,0,0,0,0,0,0,0,0,0,0,0,0,0,0,0,0,0,0,0,0,0,0,0,0,0,0,0,0,0,0,0,0,0,0,0,0,0,0,0,0,0,0,
0,0,0,0,0,0,0,0,0,0,0,0,0,0,0,0,0,0,0,0,0,0,0,0,0,0,0,0,0,0,0,0,0,0,0,0,0,0,0,0,0,0,0,0,0,0,0,0,0,0,0,0,0,0,0,0,0,0,0,0,0,0,0,0,0,0,0,0,0,0,0,0,0,0,0,0,0,0,0,0,0,0,0,0,0,0,0,0,0,0,0,0,0,0,0,0,0,0,0,0,0,0,0,0,0,0,0,0,0,0,0,0,0,0,0,0,0,0,0,0,0,0,0,0,0,0,0,0,0,0,0,0,0,0,0,0,0,0,0,0,0,0,0,0,0,0,0,0,0,0,0,0,0,0,0,0,0,0,0,0,0,0,0,0,0,0,0,0,0,0,0,0,0,0,0,0,0,0,0,0,0,0,0,0,0,0,0,0,0,0,0,0,0,0,0,0,0,0,0,0,0,0,0,0,0,0,0,0,0,0,0,0,0,0,0,0,0,0,0,0,0,0,0,0,0,0,0,0,0,0,0,0,0,0,0,0,0,0,0,0,0,0,0,0,0,0,0,0,0,0,0,0,0,0,0,0,
0,0,0,0,0,0,0,0,0,0,0,0,0,0,0,0,0,0,0,0,0,0,0,0,0,0,0,0,0,0,0,0,0,0,0,0,0,0,0,0,0,0,0,0,0,0,0,0,0,0,0,0,0,0,0,0,0,0,0,0,0,0,0,0,0,0,0,0,0,0,0,0,0,0,0,0,0,0,0,0,0,0,0,0,0,0,0,0,0,0,0,0,0,0,0,0,0,0,0,0,0,0,0,0,0,0,0,0,0,0,0,0,0,0,0,0,0,0,0,0,0,0,0,0,0,0,0,0,0,0,0,0,0,0,0,0,0,0,0,0,0,0,0,0,0,0,0,0,0,0,0,0,0,0,0,0,0,0,0,0,0,0,0,0,0,0,0,0,0,0,0,0,0,0,0,0,0,0,0,0,0,0,0,0,0,0,0,0,0,0,0,0,0,0,0,0,0,0,0,0,0,0,0,0,0,0,0,0,0,0,0,0,0,0,0,0,0,0,0,0,0,0,0,0,0,0,0,0,0,0,0,0,0,0,0,0,0,0,0,0,0,0,0,0,0,0,0,0,0,0,0,0,0,0,0,0,
0,0,0,0,0,0,0,0,0,0,0,0,0,0,0,0,0,0,0,0,0,0,0,0,0,0,0,0,0,0,0,0,0,0,0,0,0,0,0,0,0,0,0,0,0,0,0,0,0,0,0,0,0,0,0,0,0,0,0,0,0,0,0,0,0,0,0,0,0,0,0,0,0,0,0,0,0,0,0,0,0,0,0,0,0,0,0,0,0,0,0,0,0,0,0,0,0,0,0,0,0,0,0,0,0,0,0,0,0,0,0,0,0,0,0,0,0,0,0,0,0,0,0,0,0,0,0,0,0,0,0,0,0,0,0,0,0,0,0,0,0,0,0,0,0,0,0,0,0,0,0,0,0,0,0,0,0,0,0,0,0,0,0,0,0,0,0,0,0,0,0,0,0,0,0,0,0,0,0,0,0,0,0,0,0,0,0,0,0,0,0,0,0,0,0,0,0,0,0,0,0,0,0,0,0,0,0,0,0,0,0,0,0,0,0,0,0,0,0,0,0,0,0,0,0,0,0,0,0,0,0,0,0,0,0,0,0,0,0,0,0,0,0,0,0,0,0,0,0,0,0,0,0,0,0,0,
0,0,0,0,0,0,0,0,0,0,0,0,0,0,0,0,0,0,0,0,0,0,0,0,0,0,0,0,0,0,0,0,0,0,0,0,0,0,0,0,0,0,0,0,0,0,0,0,0,0,0,0,0,0,0,0,0,0,0,0,0,0,0,0,0,0,0,0,0,0,0,0,0,0,0,0,0,0,0,0,0,0,0,0,0,0,0,0,0,0,0,0,0,0,0,0,0,0,0,0,0,0,0,0,0,0,0,0,0,0,0,0,0,0,0,0,0,0,0,0,0,0,0,0,0,0,0,0,0,0,0,0,0,0,0,0,0,0,0,0,0,0,0,0,0,0,0,0,0,0,0,0,0,0,0,0,0,0,0,0,0,0,0,0,0,0,0,0,0,0,0,0,0,0,0,0,0,0,0,0,0,0,0,0,0,0,0,0,0,0,0,0,0,0,0,0,0,0,0,0,0,0,0,0,0,0,0,0,0,0,0,0,0,0,0,0,0,0,0,0,0,0,0,0,0,0,0,0,0,0,0,0,0,0,0,0,0,0,0,0,0,0,0,0,0,0,0,0,0,0,0,0,0,0,0,0,
0,0,0,0,0,0,0,0,0,0,0,0,0,0,0,0,0,0,0,0,0,0,0,0,0,0,0,0,0,0,0,0,0,0,0,0,0,0,0,0,0,0,0,0,0,0,0,0,0,0,0,0,0,0,0,0,0,0,0,0,0,0,0,0,0,0,0,0,0,0,0,0,0,0,0,0,0,0,0,0,0,0,0,0,0,0,0,0,0,0,0,0,0,0,0,0,0,0,0,0,0,0,0,0,0,0,0,0,0,0,0,0,0,0,0,0,0,0,0,0,0,0,0,0,0,0,0,0,0,0,0,0,0,0,0,0,0,0,0,0,0,0,0,0,0,0,0,0,0,0,0,0,0,0,0,0,0,0,0,0,0,0,0,0,0,0,0,0,0,0,0,0,0,0,0,0,0,0,0,0,0,0,0,0,0,0,0,0,0,0,0,0,0,0,0,0,0,0,0,0,0,0,0,0,0,0,0,0,0,0,0,0,0,0,0,0,0,0,0,0,0,0,0,0,0,0,0,0,0,0,0,0,0,0,0,0,0,0,0,0,0,0,0,0,0,0,0,0,0,0,0,0,0,0,0,0,
0,0,0,0,0,0,0,0,0,0,0,0,0,0,0,0,0,0,0,0,0,0,0,0,0,0,0,0,0,0,0,0,0,0,0,0,0,0,0,0,0,0,0,0,0,0,0,0,0,0,0,0,0,0,0,0,0,0,0,0,0,0,0,0,0,0,0,0,0,0,0,0,0,0,0,0,0,0,0,0,0,0,0,0,0,0,0,0,0,0,0,0,0,0,0,0,0,0,0,0,0,0,0,0,0,0,0,0,0,0,0,0,0,0,0,0,0,0,0,0,0,0,0,0,0,0,0,0,0,0,0,0,0,0,0,0,0,0,0,0,0,0,0,0,0,0,0,0,0,0,0,0,0,0,0,0,0,0,0,0,0,0,0,0,0,0,0,0,0,0,0,0,0,0,0,0,0,0,0,0,0,0,0,0,0,0,0,0,0,0,0,0,0,0,0,0,0,0,0,0,0,0,0,0,0,0,0,0,0,0,0,0,0,0,0,0,0,0,0,0,0,0,0,0,0,0,0,0,0,0,0,0,0,0,0,0,0,0,0,0,0,0,0,0,0,0,0,0,0,0,0,0,0,0,0,0,
0,0,0,0,0,0,0,0,0,0,0,0,0,0,0,0,0,0,0,0,0,0,0,0,0,0,0,0,0,0,0,0,0,0,0,0,0,0,0,0,0,0,0,0,0,0,0,0,0,0,0,0,0,0,0,0,0,0,0,0,0,0,0,0,0,0,0,0,0,0,0,0,0,0,0,0,0,0,0,0,0,0,0,0,0,0,0,0,0,0,0,0,0,0,0,0,0,0,0,0,0,0,0,0,0,0,0,0,0,0,0,0,0,0,0,0,0,0,0,0,0,0,0,0,0,0,0,0,0,0,0,0,0,0,0,0,0,0,0,0,0,0,0,0,0,0,0,0,0,0,0,0,0,0,0,0,0,0,0,0,0,0,0,0,0,0,0,0,0,0,0,0,0,0,0,0,0,0,0,0,0,0,0,0,0,0,0,0,0,0,0,0,0,0,0,0,0,0,0,0,0,0,0,0,0,0,0,0,0,0,0,0,0,0,0,0,0,0,0,0,0,0,0,0,0,0,0,0,0,0,0,0,0,0,0,0,0,0,0,0,0,0,0,0,0,0,0,0,0,0,0,0,0,0,0,0,
0,0,0,0,0,0,0,0,0,0,0,0,0,0,0,0,0,0,0,0,0,0,0,0,0,0,0,0,0,0,0,0,0,0,0,0,0,0,0,0,0,0,0,0,0,0,0,0,0,0,0,0,0,0,0,0,0,0,0,0,0,0,0,0,0,0,0,0,0,0,0,0,0,0,0,0,0,0,0,0,0,0,0,0,0,0,0,0,0,0,0,0,0,0,0,0,0,0,0,0,0,0,0,0,0,0,0,0,0,0,0,0,0,0,0,0,0,0,0,0,0,0,0,0,0,0,0,0,0,0,0,0,0,0,0,0,0,0,0,0,0,0,0,0,0,0,0,0,0,0,0,0,0,0,0,0,0,0,0,0,0,0,0,0,0,0,0,0,0,0,0,0,0,0,0,0,0,0,0,0,0,0,0,0,0,0,0,0,0,0,0,0,0,0,0,0,0,0,0,0,0,0,0,0,0,0,0,0,0,0,0,0,0,0,0,0,0,0,0,0,0,0,0,0,0,0,0,0,0,0,0,0,0,0,0,0,0,0,0,0,0,0,0,0,0,0,0,0,0,0,0,0,0,0,0,0,
0,0,0,0,0,0,0,0,0,0,0,0,0,0,0,0,0,0,0,0,0,0,0,0,0,0,0,0,0,0,0,0,0,0,0,0,0,0,0,0,0,0,0,0,0,0,0,0,0,0,0,0,0,0,0,0,0,0,0,0,0,0,0,0,0,0,0,0,0,0,0,0,0,0,0,0,0,0,0,0,0,0,0,0,0,0,0,0,0,0,0,0,0,0,0,0,0,0,0,0,0,0,0,0,0,0,0,0,0,0,0,0,0,0,0,0,0,0,0,0,0,0,0,0,0,0,0,0,0,0,0,0,0,0,0,0,0,0,0,0,0,0,0,0,0,0,0,0,0,0,0,0,0,0,0,0,0,0,0,0,0,0,0,0,0,0,0,0,0,0,0,0,0,0,0,0,0,0,0,0,0,0,0,0,0,0,0,0,0,0,0,0,0,0,0,0,0,0,0,0,0,0,0,0,0,0,0,0,0,0,0,0,0,0,0,0,0,0,0,0,0,0,0,0,0,0,0,0,0,0,0,0,0,0,0,0,0,0,0,0,0,0,0,0,0,0,0,0,0,0,0,0,0,0,0,0,
0,0,0,0,0,0,0,0,0,0,0,0,0,0,0,0,0,0,0,0,0,0,0,0,0,0,0,0,0,0,0,0,0,0,0,0,0,0,0,0,0,0,0,0,0,0,0,0,0,0,0,0,0,0,0,0,0,0,0,0,0,0,0,0,0,0,0,0,0,0,0,0,0,0,0,0,0,0,0,0,0,0,0,0,0,0,0,0,0,0,0,0,0,0,0,0,0,0,0,0,0,0,0,0,0,0,0,0,0,0,0,0,0,0,0,0,0,0,0,0,0,0,0,0,0,0,0,0,0,0,0,0,0,0,0,0,0,0,0,0,0,0,0,0,0,0,0,0,0,0,0,0,0,0,0,0,0,0,0,0,0,0,0,0,0,0,0,0,0,0,0,0,0,0,0,0,0,0,0,0,0,0,0,0,0,0,0,0,0,0,0,0,0,0,0,0,0,0,0,0,0,0,0,0,0,0,0,0,0,0,0,0,0,0,0,0,0,0,0,0,0,0,0,0,0,0,0,0,0,0,0,0,0,0,0,0,0,0,0,0,0,0,0,0,0,0,0,0,0,0,0,0,0,0,0,0,
0,0,0,0,0,0,0,0,0,0,0,0,0,0,0,0,0,0,0,0,0,0,0,0,0,0,0,0,0,0,0,0,0,0,0,0,0,0,0,0,0,0,0,0,0,0,0,0,0,0,0,0,0,0,0,0,0,0,0,0,0,0,0,0,0,0,0,0,0,0,0,0,0,0,0,0,0,0,0,0,0,0,0,0,0,0,0,0,0,0,0,0,0,0,0,0,0,0,0,0,0,0,0,0,0,0,0,0,0,0,0,0,0,0,0,0,0,0,0,0,0,0,0,0,0,0,0,0,0,0,0,0,0,0,0,0,0,0,0,0,0,0,0,0,0,0,0,0,0,0,0,0,0,0,0,0,0,0,0,0,0,0,0,0,0,0,0,0,0,0,0,0,0,0,0,0,0,0,0,0,0,0,0,0,0,0,0,0,0,0,0,0,0,0,0,0,0,0,0,0,0,0,0,0,0,0,0,0,0,0,0,0,0,0,0,0,0,0,0,0,0,0,0,0,0,0,0,0,0,0,0,0,0,0,0,0,0,0,0,0,0,0,0,0,0,0,0,0,0,0,0,0,0,0,0,0,
0,0,0,0,0,0,0,0,0,0,0,0,0,0,0,0,0,0,0,0,0,0,0,0,0,0,0,0,0,0,0,0,0,0,0,0,0,0,0,0,0,0,0,0,0,0,0,0,0,0,0,0,0,0,0,0,0,0,0,0,0,0,0,0,0,0,0,0,0,0,0,0,0,0,0,0,0,0,0,0,0,0,0,0,0,0,0,0,0,0,0,0,0,0,0,0,0,0,0,0,0,0,0,0,0,0,0,0,0,0,0,0,0,0,0,0,0,0,0,0,0,0,0,0,0,0,0,0,0,0,0,0,0,0,0,0,0,0,0,0,0,0,0,0,0,0,0,0,0,0,0,0,0,0,0,0,0,0,0,0,0,0,0,0,0,0,0,0,0,0,0,0,0,0,0,0,0,0,0,0,0,0,0,0,0,0,0,0,0,0,0,0,0,0,0,0,0,0,0,0,0,0,0,0,0,0,0,0,0,0,0,0,0,0,0,0,0,0,0,0,0,0,0,0,0,0,0,0,0,0,0,0,0,0,0,0,0,0,0,0,0,0,0,0,0,0,0,0,0,0,0,0,0,0,0,0,
0,0,0,0,0,0,0,0,0,0,0,0,0,0,0,0,0,0,0,0,0,0,0,0,0,0,0,0,0,0,0,0,0,0,0,0,0,0,0,0,0,0,0,0,0,0,0,0,0,0,0,0,0,0,0,0,0,0,0,0,0,0,0,0,0,0,0,0,0,0,0,0,0,0,0,0,0,0,0,0,0,0,0,0,0,0,0,0,0,0,0,0,0,0,0,0,0,0,0,0,0,0,0,0,0,0,0,0,0,0,0,0,0,0,0,0,0,0,0,0,0,0,0,0,0,0,0,0,0,0,0,0,0,0,0,0,0,0,0,0,0,0,0,0,0,0,0,0,0,0,0,0,0,0,0,0,0,0,0,0,0,0,0,0,0,0,0,0,0,0,0,0,0,0,0,0,0,0,0,0,0,0,0,0,0,0,0,0,0,0,0,0,0,0,0,0,0,0,0,0,0,0,0,0,0,0,0,0,0,0,0,0,0,0,0,0,0,0,0,0,0,0,0,0,0,0,0,0,0,0,0,0,0,0,0,0,0,0,0,0,0,0,0,0,0,0,0,0,0,0,0,0,0,0,0,0,
0,0,0,0,0,0,0,0,0,0,0,0,0,0,0,0,0,0,0,0,0,0,0,0,0,0,0,0,0,0,0,0,0,0,0,0,0,0,0,0,0,0,0,0,0,0,0,0,0,0,0,0,0,0,0,0,0,0,0,0,0,0,0,0,0,0,0,0,0,0,0,0,0,0,0,0,0,0,0,0,0,0,0,0,0,0,0,0,0,0,0,0,0,0,0,0,0,0,0,0,0,0,0,0,0,0,0,0,0,0,0,0,0,0,0,0,0,0,0,0,0,0,0,0,0,0,0,0,0,0,0,0,0,0,0,0,0,0,0,0,0,0,0,0,0,0,0,0,0,0,0,0,0,0,0,0,0,0,0,0,0,0,0,0,0,0,0,0,0,0,0,0,0,0,0,0,0,0,0,0,0,0,0,0,0,0,0,0,0,0,0,0,0,0,0,0,0,0,0,0,0,0,0,0,0,0,0,0,0,0,0,0,0,0,0,0,0,0,0,0,0,0,0,0,0,0,0,0,0,0,0,0,0,0,0,0,0,0,0,0,0,0,0,0,0,0,0,0,0,0,0,0,0,0,0,0,
0,0,0,0,0,0,0,0,0,0,0,0,0,0,0,0,0,0,0,0,0,0,0,0,0,0,0,0,0,0,0,0,0,0,0,0,0,0,0,0,0,0,0,0,0,0,0,0,0,0,0,0,0,0,0,0,0,0,0,0,0,0,0,0,0,0,0,0,0,0,0,0,0,0,0,0,0,0,0,0,0,0,0,0,0,0,0,0,0,0,0,0,0,0,0,0,0,0,0,0,0,0,0,0,0,0,0,0,0,0,0,0,0,0,0,0,0,0,0,0,0,0,0,0,0,0,0,0,0,0,0,0,0,0,0,0,0,0,0,0,0,0,0,0,0,0,0,0,0,0,0,0,0,0,0,0,0,0,0,0,0,0,0,0,0,0,0,0,0,0,0,0,0,0,0,0,0,0,0,0,0,0,0,0,0,0,0,0,0,0,0,0,0,0,0,0,0,0,0,0,0,0,0,0,0,0,0,0,0,0,0,0,0,0,0,0,0,0,0,0,0,0,0,0,0,0,0,0,0,0,0,0,0,0,0,0,0,0,0,0,0,0,0,0,0,0,0,0,0,0,0,0,0,0,0,0,
0,0,0,0,0,0,0,0,0,0,0,0,0,0,0,0,0,0,0,0,0,0,0,0,0,0,0,0,0,0,0,0,0,0,0,0,0,0,0,0,0,0,0,0,0,0,0,0,0,0,0,0,0,0,0,0,0,0,0,0,0,0,0,0,0,0,0,0,0,0,0,0,0,0,0,0,0,0,0,0,0,0,0,0,0,0,0,0,0,0,0,0,0,0,0,0,0,0,0,0,0,0,0,0,0,0,0,0,0,0,0,0,0,0,0,0,0,0,0,0,0,0,0,0,0,0,0,0,0,0,0,0,0,0,0,0,0,0,0,0,0,0,0,0,0,0,0,0,0,0,0,0,0,0,0,0,0,0,0,0,0,0,0,0,0,0,0,0,0,0,0,0,0,0,0,0,0,0,0,0,0,0,0,0,0,0,0,0,0,0,0,0,0,0,0,0,0,0,0,0,0,0,0,0,0,0,0,0,0,0,0,0,0,0,0,0,0,0,0,0,0,0,0,0,0,0,0,0,0,0,0,0,0,0,0,0,0,0,0,0,0,0,0,0,0,0,0,0,0,0,0,0,0,0,0,0,
0,0,0,0,0,0,0,0,0,0,0,0,0,0,0,0,0,0,0,0,0,0,0,0,0,0,0,0,0,0,0,0,0,0,0,0,0,0,0,0,0,0,0,0,0,0,0,0,0,0,0,0,0,0,0,0,0,0,0,0,0,0,0,0,0,0,0,0,0,0,0,0,0,0,0,0,0,0,0,0,0,0,0,0,0,0,0,0,0,0,0,0,0,0,0,0,0,0,0,0,0,0,0,0,0,0,0,0,0,0,0,0,0,0,0,0,0,0,0,0,0,0,0,0,0,0,0,0,0,0,0,0,0,0,0,0,0,0,0,0,0,0,0,0,0,0,0,0,0,0,0,0,0,0,0,0,0,0,0,0,0,0,0,0,0,0,0,0,0,0,0,0,0,0,0,0,0,0,0,0,0,0,0,0,0,0,0,0,0,0,0,0,0,0,0,0,0,0,0,0,0,0,0,0,0,0,0,0,0,0,0,0,0,0,0,0,0,0,0,0,0,0,0,0,0,0,0,0,0,0,0,0,0,0,0,0,0,0,0,0,0,0,0,0,0,0,0,0,0,0,0,0,0,0,0,0,
0,0,0,0,0,0,0,0,0,0,0,0,0,0,0,0,0,0,0,0,0,0,0,0,0,0,0,0,0,0,0,0,0,0,0,0,0,0,0,0,0,0,0,0,0,0,0,0,0,0,0,0,0,0,0,0,0,0,0,0,0,0,0,0,0,0,0,0,0,0,0,0,0,0,0,0,0,0,0,0,0,0,0,0,0,0,0,0,0,0,0,0,0,0,0,0,0,0,0,0,0,0,0,0,0,0,0,0,0,0,0,0,0,0,0,0,0,0,0,0,0,0,0,0,0,0,0,0,0,0,0,0,0,0,0,0,0,0,0,0,0,0,0,0,0,0,0,0,0,0,0,0,0,0,0,0,0,0,0,0,0,0,0,0,0,0,0,0,0,0,0,0,0,0,0,0,0,0,0,0,0,0,0,0,0,0,0,0,0,0,0,0,0,0,0,0,0,0,0,0,0,0,0,0,0,0,0,0,0,0,0,0,0,0,0,0,0,0,0,0,0,0,0,0,0,0,0,0,0,0,0,0,0,0,0,0,0,0,0,0,0,0,0,0,0,0,0,0,0,0,0,0,0,0,0,0,
0,0,0,0,0,0,0,0,0,0,0,0,0,0,0,0,0,0,0,0,0,0,0,0,0,0,0,0,0,0,0,0,0,0,0,0,0,0,0,0,0,0,0,0,0,0,0,0,0,0,0,0,0,0,0,0,0,0,0,0,0,0,0,0,0,0,0,0,0,0,0,0,0,0,0,0,0,0,0,0,0,0,0,0,0,0,0,0,0,0,0,0,0,0,0,0,0,0,0,0,0,0,0,0,0,0,0,0,0,0,0,0,0,0,0,0,0,0,0,0,0,0,0,0,0,0,0,0,0,0,0,0,0,0,0,0,0,0,0,0,0,0,0,0,0,0,0,0,0,0,0,0,0,0,0,0,0,0,0,0,0,0,0,0,0,0,0,0,0,0,0,0,0,0,0,0,0,0,0,0,0,0,0,0,0,0,0,0,0,0,0,0,0,0,0,0,0,0,0,0,0,0,0,0,0,0,0,0,0,0,0,0,0,0,0,0,0,0,0,0,0,0,0,0,0,0,0,0,0,0,0,0,0,0,0,0,0,0,0,0,0,0,0,0,0,0,0,0,0,0,0,0,0,0,0,0,
0,0,0,0,0,0,0,0,0,0,0,0,0,0,0,0,0,0,0,0,0,0,0,0,0,0,0,0,0,0,0,0,0,0,0,0,0,0,0,0,0,0,0,0,0,0,0,0,0,0,0,0,0,0,0,0,0,0,0,0,0,0,0,0,0,0,0,0,0,0,0,0,0,0,0,0,0,0,0,0,0,0,0,0,0,0,0,0,0,0,0,0,0,0,0,0,0,0,0,0,0,0,0,0,0,0,0,0,0,0,0,0,0,0,0,0,0,0,0,0,0,0,0,0,0,0,0,0,0,0,0,0,0,0,0,0,0,0,0,0,0,0,0,0,0,0,0,0,0,0,0,0,0,0,0,0,0,0,0,0,0,0,0,0,0,0,0,0,0,0,0,0,0,0,0,0,0,0,0,0,0,0,0,0,0,0,0,0,0,0,0,0,0,0,0,0,0,0,0,0,0,0,0,0,0,0,0,0,0,0,0,0,0,0,0,0,0,0,0,0,0,0,0,0,0,0,0,0,0,0,0,0,0,0,0,0,0,0,0,0,0,0,0,0,0,0,0,0,0,0,0,0,0,0,0,0,
0,0,0,0,0,0,0,0,0,0,0,0,0,0,0,0,0,0,0,0,0,0,0,0,0,0,0,0,0,0,0,0,0,0,0,0,0,0,0,0,0,0,0,0,0,0,0,0,0,0,0,0,0,0,0,0,0,0,0,0,0,0,0,0,0,0,0,0,0,0,0,0,0,0,0,0,0,0,0,0,0,0,0,0,0,0,0,0,0,0,0,0,0,0,0,0,0,0,0,0,0,0,0,0,0,0,0,0,0,0,0,0,0,0,0,0,0,0,0,0,0,0,0,0,0,0,0,0,0,0,0,0,0,0,0,0,0,0,0,0,0,0,0,0,0,0,0,0,0,0,0,0,0,0,0,0,0,0,0,0,0,0,0,0,0,0,0,0,0,0,0,0,0,0,0,0,0,0,0,0,0,0,0,0,0,0,0,0,0,0,0,0,0,0,0,0,0,0,0,0,0,0,0,0,0,0,0,0,0,0,0,0,0,0,0,0,0,0,0,0,0,0,0,0,0,0,0,0,0,0,0,0,0,0,0,0,0,0,0,0,0,0,0,0,0,0,0,0,0,0,0,0,0,0,0,0,
0,0,0,0,0,0,0,0,0,0,0,0,0,0,0,0,0,0,0,0,0,0,0,0,0,0,0,0,0,0,0,0,0,0,0,0,0,0,0,0,0,0,0,0,0,0,0,0,0,0,0,0,0,0,0,0,0,0,0,0,0,0,0,0,0,0,0,0,0,0,0,0,0,0,0,0,0,0,0,0,0,0,0,0,0,0,0,0,0,0,0,0,0,0,0,0,0,0,0,0,0,0,0,0,0,0,0,0,0,0,0,0,0,0,0,0,0,0,0,0,0,0,0,0,0,0,0,0,0,0,0,0,0,0,0,0,0,0,0,0,0,0,0,0,0,0,0,0,0,0,0,0,0,0,0,0,0,0,0,0,0,0,0,0,0,0,0,0,0,0,0,0,0,0,0,0,0,0,0,0,0,0,0,0,0,0,0,0,0,0,0,0,0,0,0,0,0,0,0,0,0,0,0,0,0,0,0,0,0,0,0,0,0,0,0,0,0,0,0,0,0,0,0,0,0,0,0,0,0,0,0,0,0,0,0,0,0,0,0,0,0,0,0,0,0,0,0,0,0,0,0,0,0,0,0,0,
0,0,0,0,0,0,0,0,0,0,0,0,0,0,0,0,0,0,0,0,0,0,0,0,0,0,0,0,0,0,0,0,0,0,0,0,0,0,0,0,0,0,0,0,0,0,0,0,0,0,0,0,0,0,0,0,0,0,0,0,0,0,0,0,0,0,0,0,0,0,0,0,0,0,0,0,0,0,0,0,0,0,0,0,0,0,0,0,0,0,0,0,0,0,0,0,0,0,0,0,0,0,0,0,0,0,0,0,0,0,0,0,0,0,0,0,0,0,0,0,0,0,0,0,0,0,0,0,0,0,0,0,0,0,0,0,0,0,0,0,0,0,0,0,0,0,0,0,0,0,0,0,0,0,0,0,0,0,0,0,0,0,0,0,0,0,0,0,0,0,0,0,0,0,0,0,0,0,0,0,0,0,0,0,0,0,0,0,0,0,0,0,0,0,0,0,0,0,0,0,0,0,0,0,0,0,0,0,0,0,0,0,0,0,0,0,0,0,0,0,0,0,0,0,0,0,0,0,0,0,0,0,0,0,0,0,0,0,0,0,0,0,0,0,0,0,0,0,0,0,0,0,0,0,0,0,
0,0,0,0,0,0,0,0,0,0,0,0,0,0,0,0,0,0,0,0,0,0,0,0,0,0,0,0,0,0,0,0,0,0,0,0,0,0,0,0,0,0,0,0,0,0,0,0,0,0,0,0,0,0,0,0,0,0,0,0,0,0,0,0,0,0,0,0,0,0,0,0,0,0,0,0,0,0,0,0,0,0,0,0,0,0,0,0,0,0,0,0,0,0,0,0,0,0,0,0,0,0,0,0,0,0,0,0,0,0,0,0,0,0,0,0,0,0,0,0,0,0,0,0,0,0,0,0,0,0,0,0,0,0,0,0,0,0,0,0,0,0,0,0,0,0,0,0,0,0,0,0,0,0,0,0,0,0,0,0,0,0,0,0,0,0,0,0,0,0,0,0,0,0,0,0,0,0,0,0,0,0,0,0,0,0,0,0,0,0,0,0,0,0,0,0,0,0,0,0,0,0,0,0,0,0,0,0,0,0,0,0,0,0,0,0,0,0,0,0,0,0,0,0,0,0,0,0,0,0,0,0,0,0,0,0,0,0,0,0,0,0,0,0,0,0,0,0,0,0,0,0,0,0,0,0,
0,0,0,0,0,0,0,0,0,0,0,0,0,0,0,0,0,0,0,0,0,0,0,0,0,0,0,0,0,0,0,0,0,0,0,0,0,0,0,0,0,0,0,0,0,0,0,0,0,0,0,0,0,0,0,0,0,0,0,0,0,0,0,0,0,0,0,0,0,0,0,0,0,0,0,0,0,0,0,0,0,0,0,0,0,0,0,0,0,0,0,0,0,0,0,0,0,0,0,0,0,0,0,0,0,0,0,0,0,0,0,0,0,0,0,0,0,0,0,0,0,0,0,0,0,0,0,0,0,0,0,0,0,0,0,0,0,0,0,0,0,0,0,0,0,0,0,0,0,0,0,0,0,0,0,0,0,0,0,0,0,0,0,0,0,0,0,0,0,0,0,0,0,0,0,0,0,0,0,0,0,0,0,0,0,0,0,0,0,0,0,0,0,0,0,0,0,0,0,0,0,0,0,0,0,0,0,0,0,0,0,0,0,0,0,0,0,0,0,0,0,0,0,0,0,0,0,0,0,0,0,0,0,0,0,0,0,0,0,0,0,0,0,0,0,0,0,0,0,0,0,0,0,0,0,0,
0,0,0,0,0,0,0,0,0,0,0,0,0,0,0,0,0,0,0,0,0,0,0,0,0,0,0,0,0,0,0,0,0,0,0,0,0,0,0,0,0,0,0,0,0,0,0,0,0,0,0,0,0,0,0,0,0,0,0,0,0,0,0,0,0,0,0,0,0,0,0,0,0,0,0,0,0,0,0,0,0,0,0,0,0,0,0,0,0,0,0,0,0,0,0,0,0,0,0,0,0,0,0,0,0,0,0,0,0,0,0,0,0,0,0,0,0,0,0,0,0,0,0,0,0,0,0,0,0,0,0,0,0,0,0,0,0,0,0,0,0,0,0,0,0,0,0,0,0,0,0,0,0,0,0,0,0,0,0,0,0,0,0,0,0,0,0,0,0,0,0,0,0,0,0,0,0,0,0,0,0,0,0,0,0,0,0,0,0,0,0,0,0,0,0,0,0,0,0,0,0,0,0,0,0,0,0,0,0,0,0,0,0,0,0,0,0,0,0,0,0,0,0,0,0,0,0,0,0,0,0,0,0,0,0,0,0,0,0,0,0,0,0,0,0,0,0,0,0,0,0,0,0,0,0,0,
0,0,0,0,0,0,0,0,0,0,0,0,0,0,0,0,0,0,0,0,0,0,0,0,0,0,0,0,0,0,0,0,0,0,0,0,0,0,0,0,0,0,0,0,0,0,0,0,0,0,0,0,0,0,0,0,0,0,0,0,0,0,0,0,0,0,0,0,0,0,0,0,0,0,0,0,0,0,0,0,0,0,0,0,0,0,0,0,0,0,0,0,0,0,0,0,0,0,0,0,0,0,0,0,0,0,0,0,0,0,0,0,0,0,0,0,0,0,0,0,0,0,0,0,0,0,0,0,0,0,0,0,0,0,0,0,0,0,0,0,0,0,0,0,0,0,0,0,0,0,0,0,0,0,0,0,0,0,0,0,0,0,0,0,0,0,0,0,0,0,0,0,0,0,0,0,0,0,0,0,0,0,0,0,0,0,0,0,0,0,0,0,0,0,0,0,0,0,0,0,0,0,0,0,0,0,0,0,0,0,0,0,0,0,0,0,0,0,0,0,0,0,0,0,0,0,0,0,0,0,0,0,0,0,0,0,0,0,0,0,0,0,0,0,0,0,0,0,0,0,0,0,0,0,0,0,
0,0,0,0,0,0,0,0,0,0,0,0,0,0,0,0,0,0,0,0,0,0,0,0,0,0,0,0,0,0,0,0,0,0,0,0,0,0,0,0,0,0,0,0,0,0,0,0,0,0,0,0,0,0,0,0,0,0,0,0,0,0,0,0,0,0,0,0,0,0,0,0,0,0,0,0,0,0,0,0,0,0,0,0,0,0,0,0,0,0,0,0,0,0,0,0,0,0,0,0,0,0,0,0,0,0,0,0,0,0,0,0,0,0,0,0,0,0,0,0,0,0,0,0,0,0,0,0,0,0,0,0,0,0,0,0,0,0,0,0,0,0,0,0,0,0,0,0,0,0,0,0,0,0,0,0,0,0,0,0,0,0,0,0,0,0,0,0,0,0,0,0,0,0,0,0,0,0,0,0,0,0,0,0,0,0,0,0,0,0,0,0,0,0,0,0,0,0,0,0,0,0,0,0,0,0,0,0,0,0,0,0,0,0,0,0,0,0,0,0,0,0,0,0,0,0,0,0,0,0,0,0,0,0,0,0,0,0,0,0,0,0,0,0,0,0,0,0,0,0,0,0,0,0,0,0,
0,0,0,0,0,0,0,0,0,0,0,0,0,0,0,0,0,0,0,0,0,0,0,0,0,0,0,0,0,0,0,0,0,0,0,0,0,0,0,0,0,0,0,0,0,0,0,0,0,0,0,0,0,0,0,0,0,0,0,0,0,0,0,0,0,0,0,0,0,0,0,0,0,0,0,0,0,0,0,0,0,0,0,0,0,0,0,0,0,0,0,0,0,0,0,0,0,0,0,0,0,0,0,0,0,0,0,0,0,0,0,0,0,0,0,0,0,0,0,0,0,0,0,0,0,0,0,0,0,0,0,0,0,0,0,0,0,0,0,0,0,0,0,0,0,0,0,0,0,0,0,0,0,0,0,0,0,0,0,0,0,0,0,0,0,0,0,0,0,0,0,0,0,0,0,0,0,0,0,0,0,0,0,0,0,0,0,0,0,0,0,0,0,0,0,0,0,0,0,0,0,0,0,0,0,0,0,0,0,0,0,0,0,0,0,0,0,0,0,0,0,0,0,0,0,0,0,0,0,0,0,0,0,0,0,0,0,0,0,0,0,0,0,0,0,0,0,0,0,0,0,0,0,0,0,0,
0,0,0,0,0,0,0,0,0,0,0,0,0,0,0,0,0,0,0,0,0,0,0,0,0,0,0,0,0,0,0,0,0,0,0,0,0,0,0,0,0,0,0,0,0,0,0,0,0,0,0,0,0,0,0,0,0,0,0,0,0,0,0,0,0,0,0,0,0,0,0,0,0,0,0,0,0,0,0,0,0,0,0,0,0,0,0,0,0,0,0,0,0,0,0,0,0,0,0,0,0,0,0,0,0,0,0,0,0,0,0,0,0,0,0,0,0,0,0,0,0,0,0,0,0,0,0,0,0,0,0,0,0,0,0,0,0,0,0,0,0,0,0,0,0,0,0,0,0,0,0,0,0,0,0,0,0,0,0,0,0,0,0,0,0,0,0,0,0,0,0,0,0,0,0,0,0,0,0,0,0,0,0,0,0,0,0,0,0,0,0,0,0,0,0,0,0,0,0,0,0,0,0,0,0,0,0,0,0,0,0,0,0,0,0,0,0,0,0,0,0,0,0,0,0,0,0,0,0,0,0,0,0,0,0,0,0,0,0,0,0,0,0,0,0,0,0,0,0,0,0,0,0,0,0,0,
0,0,0,0,0,0,0,0,0,0,0,0,0,0,0,0,0,0,0,0,0,0,0,0,0,0,0,0,0,0,0,0,0,0,0,0,0,0,0,0,0,0,0,0,0,0,0,0,0,0,0,0,0,0,0,0,0,0,0,0,0,0,0,0,0,0,0,0,0,0,0,0,0,0,0,0,0,0,0,0,0,0,0,0,0,0,0,0,0,0,0,0,0,0,0,0,0,0,0,0,0,0,0,0,0,0,0,0,0,0,0,0,0,0,0,0,0,0,0,0,0,0,0,0,0,0,0,0,0,0,0,0,0,0,0,0,0,0,0,0,0,0,0,0,0,0,0,0,0,0,0,0,0,0,0,0,0,0,0,0,0,0,0,0,0,0,0,0,0,0,0,0,0,0,0,0,0,0,0,0,0,0,0,0,0,0,0,0,0,0,0,0,0,0,0,0,0,0,0,0,0,0,0,0,0,0,0,0,0,0,0,0,0,0,0,0,0,0,0,0,0,0,0,0,0,0,0,0,0,0,0,0,0,0,0,0,0,0,0,0,0,0,0,0,0,0,0,0,0,0,0,0,0,0,0,0,
0,0,0,0,0,0,0,0,0,0,0,0,0,0,0,0,0,0,0,0,0,0,0,0,0,0,0,0,0,0,0,0,0,0,0,0,0,0,0,0,0,0,0,0,0,0,0,0,0,0,0,0,0,0,0,0,0,0,0,0,0,0,0,0,0,0,0,0,0,0,0,0,0,0,0,0,0,0,0,0,0,0,0,0,0,0,0,0,0,0,0,0,0,0,0,0,0,0,0,0,0,0,0,0,0,0,0,0,0,0,0,0,0,0,0,0,0,0,0,0,0,0,0,0,0,0,0,0,0,0,0,0,0,0,0,0,0,0,0,0,0,0,0,0,0,0,0,0,0,0,0,0,0,0,0,0,0,0,0,0,0,0,0,0,0,0,0,0,0,0,0,0,0,0,0,0,0,0,0,0,0,0,0,0,0,0,0,0,0,0,0,0,0,0,0,0,0,0,0,0,0,0,0,0,0,0,0,0,0,0,0,0,0,0,0,0,0,0,0,0,0,0,0,0,0,0,0,0,0,0,0,0,0,0,0,0,0,0,0,0,0,0,0,0,0,0,0,0,0,0,0,0,0,0,0,0,
0,0,0,0,0,0,0,0,0,0,0,0,0,0,0,0,0,0,0,0,0,0,0,0,0,0,0,0,0,0,0,0,0,0,0,0,0,0,0,0,0,0,0,0,0,0,0,0,0,0,0,0,0,0,0,0,0,0,0,0,0,0,0,0,0,0,0,0,0,0,0,0,0,0,0,0,0,0,0,0,0,0,0,0,0,0,0,0,0,0,0,0,0,0,0,0,0,0,0,0,0,0,0,0,0,0,0,0,0,0,0,0,0,0,0,0,0,0,0,0,0,0,0,0,0,0,0,0,0,0,0,0,0,0,0,0,0,0,0,0,0,0,0,0,0,0,0,0,0,0,0,0,0,0,0,0,0,0,0,0,0,0,0,0,0,0,0,0,0,0,0,0,0,0,0,0,0,0,0,0,0,0,0,0,0,0,0,0,0,0,0,0,0,0,0,0,0,0,0,0,0,0,0,0,0,0,0,0,0,0,0,0,0,0,0,0,0,0,0,0,0,0,0,0,0,0,0,0,0,0,0,0,0,0,0,0,0,0,0,0,0,0,0,0,0,0,0,0,0,0,0,0,0,0,0,0,
0,0,0,0,0,0,0,0,0,0,0,0,0,0,0,0,0,0,0,0,0,0,0,0,0,0,0,0,0,0,0,0,0,0,0,0,0,0,0,0,0,0,0,0,0,0,0,0,0,0,0,0,0,0,0,0,0,0,0,0,0,0,0,0,0,0,0,0,0,0,0,0,0,0,0,0,0,0,0,0,0,0,0,0,0,0,0,0,0,0,0,0,0,0,0,0,0,0,0,0,0,0,0,0,0,0,0,0,0,0,0,0,0,0,0,0,0,0,0,0,0,0,0,0,0,0,0,0,0,0,0,0,0,0,0,0,0,0,0,0,0,0,0,0,0,0,0,0,0,0,0,0,0,0,0,0,0,0,0,0,0,0,0,0,0,0,0,0,0,0,0,0,0,0,0,0,0,0,0,0,0,0,0,0,0,0,0,0,0,0,0,0,0,0,0,0,0,0,0,0,0,0,0,0,0,0,0,0,0,0,0,0,0,0,0,0,0,0,0,0,0,0,0,0,0,0,0,0,0,0,0,0,0,0,0,0,0,0,0,0,0,0,0,0,0,0,0,0,0,0,0,0,0,0,0,0,
0,0,0,0,0,0,0,0,0,0,0,0,0,0,0,0,0,0,0,0,0,0,0,0,0,0,0,0,0,0,0,0,0,0,0,0,0,0,0,0,0,0,0,0,0,0,0,0,0,0,0,0,0,0,0,0,0,0,0,0,0,0,0,0,0,0,0,0,0,0,0,0,0,0,0,0,0,0,0,0,0,0,0,0,0,0,0,0,0,0,0,0,0,0,0,0,0,0,0,0,0,0,0,0,0,0,0,0,0,0,0,0,0,0,0,0,0,0,0,0,0,0,0,0,0,0,0,0,0,0,0,0,0,0,0,0,0,0,0,0,0,0,0,0,0,0,0,0,0,0,0,0,0,0,0,0,0,0,0,0,0,0,0,0,0,0,0,0,0,0,0,0,0,0,0,0,0,0,0,0,0,0,0,0,0,0,0,0,0,0,0,0,0,0,0,0,0,0,0,0,0,0,0,0,0,0,0,0,0,0,0,0,0,0,0,0,0,0,0,0,0,0,0,0,0,0,0,0,0,0,0,0,0,0,0,0,0,0,0,0,0,0,0,0,0,0,0,0,0,0,0,0,0,0,0,0,
0,0,0,0,0,0,0,0,0,0,0,0,0,0,0,0,0,0,0,0,0,0,0,0,0,0,0,0,0,0,0,0,0,0,0,0,0,0,0,0,0,0,0,0,0,0,0,0,0,0,0,0,0,0,0,0,0,0,0,0,0,0,0,0,0,0,0,0,0,0,0,0,0,0,0,0,0,0,0,0,0,0,0,0,0,0,0,0,0,0,0,0,0,0,0,0,0,0,0,0,0,0,0,0,0,0,0,0,0,0,0,0,0,0,0,0,0,0,0,0,0,0,0,0,0,0,0,0,0,0,0,0,0,0,0,0,0,0,0,0,0,0,0,0,0,0,0,0,0,0,0,0,0,0,0,0,0,0,0,0,0,0,0,0,0,0,0,0,0,0,0,0,0,0,0,0,0,0,0,0,0,0,0,0,0,0,0,0,0,0,0,0,0,0,0,0,0,0,0,0,0,0,0,0,0,0,0,0,0,0,0,0,0,0,0,0,0,0,0,0,0,0,0,0,0,0,0,0,0,0,0,0,0,0,0,0,0,0,0,0,0,0,0,0,0,0,0,0,0,0,0,0,0,0,0,0,
0,0,0,0,0,0,0,0,0,0,0,0,0,0,0,0,0,0,0,0,0,0,0,0,0,0,0,0,0,0,0,0,0,0,0,0,0,0,0,0,0,0,0,0,0,0,0,0,0,0,0,0,0,0,0,0,0,0,0,0,0,0,0,0,0,0,0,0,0,0,0,0,0,0,0,0,0,0,0,0,0,0,0,0,0,0,0,0,0,0,0,0,0,0,0,0,0,0,0,0,0,0,0,0,0,0,0,0,0,0,0,0,0,0,0,0,0,0,0,0,0,0,0,0,0,0,0,0,0,0,0,0,0,0,0,0,0,0,0,0,0,0,0,0,0,0,0,0,0,0,0,0,0,0,0,0,0,0,0,0,0,0,0,0,0,0,0,0,0,0,0,0,0,0,0,0,0,0,0,0,0,0,0,0,0,0,0,0,0,0,0,0,0,0,0,0,0,0,0,0,0,0,0,0,0,0,0,0,0,0,0,0,0,0,0,0,0,0,0,0,0,0,0,0,0,0,0,0,0,0,0,0,0,0,0,0,0,0,0,0,0,0,0,0,0,0,0,0,0,0,0,0,0,0,0,0,
0,0,0,0,0,0,0,0,0,0,0,0,0,0,0,0,0,0,0,0,0,0,0,0,0,0,0,0,0,0,0,0,0,0,0,0,0,0,0,0,0,0,0,0,0,0,0,0,0,0,0,0,0,0,0,0,0,0,0,0,0,0,0,0,0,0,0,0,0,0,0,0,0,0,0,0,0,0,0,0,0,0,0,0,0,0,0,0,0,0,0,0,0,0,0,0,0,0,0,0,0,0,0,0,0,0,0,0,0,0,0,0,0,0,0,0,0,0,0,0,0,0,0,0,0,0,0,0,0,0,0,0,0,0,0,0,0,0,0,0,0,0,0,0,0,0,0,0,0,0,0,0,0,0,0,0,0,0,0,0,0,0,0,0,0,0,0,0,0,0,0,0,0,0,0,0,0,0,0,0,0,0,0,0,0,0,0,0,0,0,0,0,0,0,0,0,0,0,0,0,0,0,0,0,0,0,0,0,0,0,0,0,0,0,0,0,0,0,0,0,0,0,0,0,0,0,0,0,0,0,0,0,0,0,0,0,0,0,0,0,0,0,0,0,0,0,0,0,0,0,0,0,0,0,0,0,
0,0,0,0,0,0,0,0,0,0,0,0,0,0,0,0,0,0,0,0,0,0,0,0,0,0,0,0,0,0,0,0,0,0,0,0,0,0,0,0,0,0,0,0,0,0,0,0,0,0,0,0,0,0,0,0,0,0,0,0,0,0,0,0,0,0,0,0,0,0,0,0,0,0,0,0,0,0,0,0,0,0,0,0,0,0,0,0,0,0,0,0,0,0,0,0,0,0,0,0,0,0,0,0,0,0,0,0,0,0,0,0,0,0,0,0,0,0,0,0,0,0,0,0,0,0,0,0,0,0,0,0,0,0,0,0,0,0,0,0,0,0,0,0,0,0,0,0,0,0,0,0,0,0,0,0,0,0,0,0,0,0,0,0,0,0,0,0,0,0,0,0,0,0,0,0,0,0,0,0,0,0,0,0,0,0,0,0,0,0,0,0,0,0,0,0,0,0,0,0,0,0,0,0,0,0,0,0,0,0,0,0,0,0,0,0,0,0,0,0,0,0,0,0,0,0,0,0,0,0,0,0,0,0,0,0,0,0,0,0,0,0,0,0,0,0,0,0,0,0,0,0,0,0,0,0,
0,0,0,0,0,0,0,0,0,0,0,0,0,0,0,0,0,0,0,0,0,0,0,0,0,0,0,0,0,0,0,0,0,0,0,0,0,0,0,0,0,0,0,0,0,0,0,0,0,0,0,0,0,0,0,0,0,0,0,0,0,0,0,0,0,0,0,0,0,0,0,0,0,0,0,0,0,0,0,0,0,0,0,0,0,0,0,0,0,0,0,0,0,0,0,0,0,0,0,0,0,0,0,0,0,0,0,0,0,0,0,0,0,0,0,0,0,0,0,0,0,0,0,0,0,0,0,0,0,0,0,0,0,0,0,0,0,0,0,0,0,0,0,0,0,0,0,0,0,0,0,0,0,0,0,0,0,0,0,0,0,0,0,0,0,0,0,0,0,0,0,0,0,0,0,0,0,0,0,0,0,0,0,0,0,0,0,0,0,0,0,0,0,0,0,0,0,0,0,0,0,0,0,0,0,0,0,0,0,0,0,0,0,0,0,0,0,0,0,0,0,0,0,0,0,0,0,0,0,0,0,0,0,0,0,0,0,0,0,0,0,0,0,0,0,0,0,0,0,0,0,0,0,0,0,0,
0,0,0,0,0,0,0,0,0,0,0,0,0,0,0,0,0,0,0,0,0,0,0,0,0,0,0,0,0,0,0,0,0,0,0,0,0,0,0,0,0,0,0,0,0,0,0,0,0,0,0,0,0,0,0,0,0,0,0,0,0,0,0,0,0,0,0,0,0,0,0,0,0,0,0,0,0,0,0,0,0,0,0,0,0,0,0,0,0,0,0,0,0,0,0,0,0,0,0,0,0,0,0,0,0,0,0,0,0,0,0,0,0,0,0,0,0,0,0,0,0,0,0,0,0,0,0,0,0,0,0,0,0,0,0,0,0,0,0,0,0,0,0,0,0,0,0,0,0,0,0,0,0,0,0,0,0,0,0,0,0,0,0,0,0,0,0,0,0,0,0,0,0,0,0,0,0,0,0,0,0,0,0,0,0,0,0,0,0,0,0,0,0,0,0,0,0,0,0,0,0,0,0,0,0,0,0,0,0,0,0,0,0,0,0,0,0,0,0,0,0,0,0,0,0,0,0,0,0,0,0,0,0,0,0,0,0,0,0,0,0,0,0,0,0,0,0,0,0,0,0,0,0,0,0,0,
0,0,0,0,0,0,0,0,0,0,0,0,0,0,0,0,0,0,0,0,0,0,0,0,0,0,0,0,0,0,0,0,0,0,0,0,0,0,0,0,0,0,0,0,0,0,0,0,0,0,0,0,0,0,0,0,0,0,0,0,0,0,0,0,0,0,0,0,0,0,0,0,0,0,0,0,0,0,0,0,0,0,0,0,0,0,0,0,0,0,0,0,0,0,0,0,0,0,0,0,0,0,0,0,0,0,0,0,0,0,0,0,0,0,0,0,0,0,0,0,0,0,0,0,0,0,0,0,0,0,0,0,0,0,0,0,0,0,0,0,0,0,0,0,0,0,0,0,0,0,0,0,0,0,0,0,0,0,0,0,0,0,0,0,0,0,0,0,0,0,0,0,0,0,0,0,0,0,0,0,0,0,0,0,0,0,0,0,0,0,0,0,0,0,0,0,0,0,0,0,0,0,0,0,0,0,0,0,0,0,0,0,0,0,0,0,0,0,0,0,0,0,0,0,0,0,0,0,0,0,0,0,0,0,0,0,0,0,0,0,0,0,0,0,0,0,0,0,0,0,0,0,0,0,0,0,
0,0,0,0,0,0,0,0,0,0,0,0,0,0,0,0,0,0,0,0,0,0,0,0,0,0,0,0,0,0,0,0,0,0,0,0,0,0,0,0,0,0,0,0,0,0,0,0,0,0,0,0,0,0,0,0,0,0,0,0,0,0,0,0,0,0,0,0,0,0,0,0,0,0,0,0,0,0,0,0,0,0,0,0,0,0,0,0,0,0,0,0,0,0,0,0,0,0,0,0,0,0,0,0,0,0,0,0,0,0,0,0,0,0,0,0,0,0,0,0,0,0,0,0,0,0,0,0,0,0,0,0,0,0,0,0,0,0,0,0,0,0,0,0,0,0,0,0,0,0,0,0,0,0,0,0,0,0,0,0,0,0,0,0,0,0,0,0,0,0,0,0,0,0,0,0,0,0,0,0,0,0,0,0,0,0,0,0,0,0,0,0,0,0,0,0,0,0,0,0,0,0,0,0,0,0,0,0,0,0,0,0,0,0,0,0,0,0,0,0,0,0,0,0,0,0,0,0,0,0,0,0,0,0,0,0,0,0,0,0,0,0,0,0,0,0,0,0,0,0,0,0,0,0,0,0,
0,0,0,0,0,0,0,0,0,0,0,0,0,0,0,0,0,0,0,0,0,0,0,0,0,0,0,0,0,0,0,0,0,0,0,0,0,0,0,0,0,0,0,0,0,0,0,0,0,0,0,0,0,0,0,0,0,0,0,0,0,0,0,0,0,0,0,0,0,0,0,0,0,0,0,0,0,0,0,0,0,0,0,0,0,0,0,0,0,0,0,0,0,0,0,0,0,0,0,0,0,0,0,0,0,0,0,0,0,0,0,0,0,0,0,0,0,0,0,0,0,0,0,0,0,0,0,0,0,0,0,0,0,0,0,0,0,0,0,0,0,0,0,0,0,0,0,0,0,0,0,0,0,0,0,0,0,0,0,0,0,0,0,0,0,0,0,0,0,0,0,0,0,0,0,0,0,0,0,0,0,0,0,0,0,0,0,0,0,0,0,0,0,0,0,0,0,0,0,0,0,0,0,0,0,0,0,0,0,0,0,0,0,0,0,0,0,0,0,0,0,0,0,0,0,0,0,0,0,0,0,0,0,0,0,0,0,0,0,0,0,0,0,0,0,0,0,0,0,0,0,0,0,0,0,0,
0,0,0,0,0,0,0,0,0,0,0,0,0,0,0,0,0,0,0,0,0,0,0,0,0,0,0,0,0,0,0,0,0,0,0,0,0,0,0,0,0,0,0,0,0,0,0,0,0,0,0,0,0,0,0,0,0,0,0,0,0,0,0,0,0,0,0,0,0,0,0,0,0,0,0,0,0,0,0,0,0,0,0,0,0,0,0,0,0,0,0,0,0,0,0,0,0,0,0,0,0,0,0,0,0,0,0,0,0,0,0,0,0,0,0,0,0,0,0,0,0,0,0,0,0,0,0,0,0,0,0,0,0,0,0,0,0,0,0,0,0,0,0,0,0,0,0,0,0,0,0,0,0,0,0,0,0,0,0,0,0,0,0,0,0,0,0,0,0,0,0,0,0,0,0,0,0,0,0,0,0,0,0,0,0,0,0,0,0,0,0,0,0,0,0,0,0,0,0,0,0,0,0,0,0,0,0,0,0,0,0,0,0,0,0,0,0,0,0,0,0,0,0,0,0,0,0,0,0,0,0,0,0,0,0,0,0,0,0,0,0,0,0,0,0,0,0,0,0,0,0,0,0,0,0,0,
0,0,0,0,0,0,0,0,0,0,0,0,0,0,0,0,0,0,0,0,0,0,0,0,0,0,0,0,0,0,0,0,0,0,0,0,0,0,0,0,0,0,0,0,0,0,0,0,0,0,0,0,0,0,0,0,0,0,0,0,0,0,0,0,0,0,0,0,0,0,0,0,0,0,0,0,0,0,0,0,0,0,0,0,0,0,0,0,0,0,0,0,0,0,0,0,0,0,0,0,0,0,0,0,0,0,0,0,0,0,0,0,0,0,0,0,0,0,0,0,0,0,0,0,0,0,0,0,0,0,0,0,0,0,0,0,0,0,0,0,0,0,0,0,0,0,0,0,0,0,0,0,0,0,0,0,0,0,0,0,0,0,0,0,0,0,0,0,0,0,0,0,0,0,0,0,0,0,0,0,0,0,0,0,0,0,0,0,0,0,0,0,0,0,0,0,0,0,0,0,0,0,0,0,0,0,0,0,0,0,0,0,0,0,0,0,0,0,0,0,0,0,0,0,0,0,0,0,0,0,0,0,0,0,0,0,0,0,0,0,0,0,0,0,0,0,0,0,0,0,0,0,0,0,0,0,
0,0,0,0,0,0,0,0,0,0,0,0,0,0,0,0,0,0,0,0,0,0,0,0,0,0,0,0,0,0,0,0,0,0,0,0,0,0,0,0,0,0,0,0,0,0,0,0,0,0,0,0,0,0,0,0,0,0,0,0,0,0,0,0,0,0,0,0,0,0,0,0,0,0,0,0,0,0,0,0,0,0,0,0,0,0,0,0,0,0,0,0,0,0,0,0,0,0,0,0,0,0,0,0,0,0,0,0,0,0,0,0,0,0,0,0,0,0,0,0,0,0,0,0,0,0,0,0,0,0,0,0,0,0,0,0,0,0,0,0,0,0,0,0,0,0,0,0,0,0,0,0,0,0,0,0,0,0,0,0,0,0,0,0,0,0,0,0,0,0,0,0,0,0,0,0,0,0,0,0,0,0,0,0,0,0,0,0,0,0,0,0,0,0,0,0,0,0,0,0,0,0,0,0,0,0,0,0,0,0,0,0,0,0,0,0,0,0,0,0,0,0,0,0,0,0,0,0,0,0,0,0,0,0,0,0,0,0,0,0,0,0,0,0,0,0,0,0,0,0,0,0,0,0,0,0,
0,0,0,0,0,0,0,0,0,0,0,0,0,0,0,0,0,0,0,0,0,0,0,0,0,0,0,0,0,0,0,0,0,0,0,0,0,0,0,0,0,0,0,0,0,0,0,0,0,0,0,0,0,0,0,0,0,0,0,0,0,0,0,0,0,0,0,0,0,0,0,0,0,0,0,0,0,0,0,0,0,0,0,0,0,0,0,0,0,0,0,0,0,0,0,0,0,0,0,0,0,0,0,0,0,0,0,0,0,0,0,0,0,0,0,0,0,0,0,0,0,0,0,0,0,0,0,0,0,0,0,0,0,0,0,0,0,0,0,0,0,0,0,0,0,0,0,0,0,0,0,0,0,0,0,0,0,0,0,0,0,0,0,0,0,0,0,0,0,0,0,0,0,0,0,0,0,0,0,0,0,0,0,0,0,0,0,0,0,0,0,0,0,0,0,0,0,0,0,0,0,0,0,0,0,0,0,0,0,0,0,0,0,0,0,0,0,0,0,0,0,0,0,0,0,0,0,0,0,0,0,0,0,0,0,0,0,0,0,0,0,0,0,0,0,0,0,0,0,0,0,0,0,0,0,0,
0,0,0,0,0,0,0,0,0,0,0,0,0,0,0,0,0,0,0,0,0,0,0,0,0,0,0,0,0,0,0,0,0,0,0,0,0,0,0,0,0,0,0,0,0,0,0,0,0,0,0,0,0,0,0,0,0,0,0,0,0,0,0,0,0,0,0,0,0,0,0,0,0,0,0,0,0,0,0,0,0,0,0,0,0,0,0,0,0,0,0,0,0,0,0,0,0,0,0,0,0,0,0,0,0,0,0,0,0,0,0,0,0,0,0,0,0,0,0,0,0,0,0,0,0,0,0,0,0,0,0,0,0,0,0,0,0,0,0,0,0,0,0,0,0,0,0,0,0,0,0,0,0,0,0,0,0,0,0,0,0,0,0,0,0,0,0,0,0,0,0,0,0,0,0,0,0,0,0,0,0,0,0,0,0,0,0,0,0,0,0,0,0,0,0,0,0,0,0,0,0,0,0,0,0,0,0,0,0,0,0,0,0,0,0,0,0,0,0,0,0,0,0,0,0,0,0,0,0,0,0,0,0,0,0,0,0,0,0,0,0,0,0,0,0,0,0,0,0,0,0,0,0,0,0,0,
0,0,0,0,0,0,0,0,0,0,0,0,0,0,0,0,0,0,0,0,0,0,0,0,0,0,0,0,0,0,0,0,0,0,0,0,0,0,0,0,0,0,0,0,0,0,0,0,0,0,0,0,0,0,0,0,0,0,0,0,0,0,0,0,0,0,0,0,0,0,0,0,0,0,0,0,0,0,0,0,0,0,0,0,0,0,0,0,0,0,0,0,0,0,0,0,0,0,0,0,0,0,0,0,0,0,0,0,0,0,0,0,0,0,0,0,0,0,0,0,0,0,0,0,0,0,0,0,0,0,0,0,0,0,0,0,0,0,0,0,0,0,0,0,0,0,0,0,0,0,0,0,0,0,0,0,0,0,0,0,0,0,0,0,0,0,0,0,0,0,0,0,0,0,0,0,0,0,0,0,0,0,0,0,0,0,0,0,0,0,0,0,0,0,0,0,0,0,0,0,0,0,0,0,0,0,0,0,0,0,0,0,0,0,0,0,0,0,0,0,0,0,0,0,0,0,0,0,0,0,0,0,0,0,0,0,0,0,0,0,0,0,0,0,0,0,0,0,0,0,0,0,0,0,0,0,
0,0,0,0,0,0,0,0,0,0,0,0,0,0,0,0,0,0,0,0,0,0,0,0,0,0,0,0,0,0,0,0,0,0,0,0,0,0,0,0,0,0,0,0,0,0,0,0,0,0,0,0,0,0,0,0,0,0,0,0,0,0,0,0,0,0,0,0,0,0,0,0,0,0,0,0,0,0,0,0,0,0,0,0,0,0,0,0,0,0,0,0,0,0,0,0,0,0,0,0,0,0,0,0,0,0,0,0,0,0,0,0,0,0,0,0,0,0,0,0,0,0,0,0,0,0,0,0,0,0,0,0,0,0,0,0,0,0,0,0,0,0,0,0,0,0,0,0,0,0,0,0,0,0,0,0,0,0,0,0,0,0,0,0,0,0,0,0,0,0,0,0,0,0,0,0,0,0,0,0,0,0,0,0,0,0,0,0,0,0,0,0,0,0,0,0,0,0,0,0,0,0,0,0,0,0,0,0,0,0,0,0,0,0,0,0,0,0,0,0,0,0,0,0,0,0,0,0,0,0,0,0,0,0,0,0,0,0,0,0,0,0,0,0,0,0,0,0,0,0,0,0,0,0,0,0,
0,0,0,0,0,0,0,0,0,0,0,0,0,0,0,0,0,0,0,0,0,0,0,0,0,0,0,0,0,0,0,0,0,0,0,0,0,0,0,0,0,0,0,0,0,0,0,0,0,0,0,0,0,0,0,0,0,0,0,0,0,0,0,0,0,0,0,0,0,0,0,0,0,0,0,0,0,0,0,0,0,0,0,0,0,0,0,0,0,0,0,0,0,0,0,0,0,0,0,0,0,0,0,0,0,0,0,0,0,0,0,0,0,0,0,0,0,0,0,0,0,0,0,0,0,0,0,0,0,0,0,0,0,0,0,0,0,0,0,0,0,0,0,0,0,0,0,0,0,0,0,0,0,0,0,0,0,0,0,0,0,0,0,0,0,0,0,0,0,0,0,0,0,0,0,0,0,0,0,0,0,0,0,0,0,0,0,0,0,0,0,0,0,0,0,0,0,0,0,0,0,0,0,0,0,0,0,0,0,0,0,0,0,0,0,0,0,0,0,0,0,0,0,0,0,0,0,0,0,0,0,0,0,0,0,0,0,0,0,0,0,0,0,0,0,0,0,0,0,0,0,0,0,0,0,0,
0,0,0,0,0,0,0,0,0,0,0,0,0,0,0,0,0,0,0,0,0,0,0,0,0,0,0,0,0,0,0,0,0,0,0,0,0,0,0,0,0,0,0,0,0,0,0,0,0,0,0,0,0,0,0,0,0,0,0,0,0,0,0,0,0,0,0,0,0,0,2769,0,0,0,0,0,0,0,0,0,0,0,0,0,0,0,0,0,0,0,0,0,0,0,0,0,0,0,0,0,0,0,0,0,0,0,0,0,0,0,0,0,0,0,0,0,0,0,0,0,0,0,0,0,0,0,0,0,0,0,0,0,0,0,0,0,0,0,0,0,0,0,0,0,0,0,0,0,0,0,0,0,0,0,0,0,0,0,0,0,0,0,0,0,0,0,0,0,0,0,0,0,0,0,0,0,0,0,0,0,0,0,0,0,0,0,0,0,0,0,0,0,0,0,0,0,0,0,0,0,0,0,0,0,0,0,0,0,0,0,0,0,0,0,0,0,0,0,0,0,0,0,0,0,0,0,0,0,0,0,0,0,0,0,0,0,0,0,0,0,0,0,0,0,0,0,0,0,0,0,0,0,0,0,0,0,
0,0,0,0,0,0,0,0,0,0,0,0,0,0,0,0,0,0,0,0,0,0,0,0,0,0,0,0,0,0,0,0,0,0,0,0,0,0,0,0,0,0,0,0,0,0,0,0,0,0,0,0,0,0,0,0,0,0,0,0,0,0,0,0,0,0,0,0,0,0,0,0,0,0,0,0,0,0,0,0,0,0,0,0,0,0,0,0,0,0,0,0,0,0,0,0,0,0,0,0,0,0,0,0,0,0,0,0,0,0,0,0,0,0,0,0,0,0,0,0,0,0,0,0,0,0,0,0,0,0,0,0,0,0,0,0,0,0,0,0,0,0,0,0,0,0,0,0,0,0,0,0,0,0,0,0,0,0,0,0,0,0,0,0,0,0,0,0,0,0,0,0,0,0,0,0,0,0,0,0,0,0,0,0,0,0,0,0,0,0,0,0,0,0,0,0,0,0,0,0,0,0,0,0,0,0,0,0,0,0,0,0,0,0,0,0,0,0,0,0,0,0,0,0,0,0,0,0,0,0,0,0,0,0,0,0,0,0,0,0,0,0,0,0,0,0,0,0,0,0,0,0,0,0,0,0,
0,0,0,0,0,0,0,0,0,0,0,0,0,0,0,0,0,0,0,0,0,0,0,0,0,0,0,0,0,0,0,0,0,0,0,0,0,0,0,0,0,0,0,0,0,0,0,0,0,0,0,0,0,0,0,0,0,0,0,0,0,0,0,0,0,0,0,0,0,0,0,0,0,0,0,0,0,0,0,0,0,0,0,0,0,0,0,0,0,0,0,0,0,0,0,0,0,0,0,0,0,0,0,0,0,0,0,0,0,0,0,0,0,0,0,0,0,0,0,0,0,0,0,0,0,0,0,0,0,0,0,0,0,0,0,0,0,0,0,0,0,0,0,0,0,0,0,0,0,0,0,0,0,0,0,0,0,0,0,0,0,0,0,0,0,0,0,0,0,0,0,0,0,0,0,0,0,0,0,0,0,0,0,0,0,0,0,0,0,0,0,0,0,0,0,0,0,0,0,0,0,0,0,0,0,0,0,0,0,0,0,0,0,0,0,0,0,0,0,0,0,0,0,0,0,0,0,0,0,0,0,0,0,0,0,0,0,0,0,0,0,0,0,0,0,0,0,0,0,0,0,0,0,0,0,0,
0,0,0,0,0,0,0,0,0,0,0,0,0,0,0,0,0,0,0,0,0,0,0,0,0,0,0,0,0,0,0,0,0,0,0,0,0,0,0,0,0,0,0,0,0,0,0,0,0,0,0,0,0,0,0,0,0,0,0,0,0,0,0,0,0,0,0,0,0,0,0,0,0,0,0,0,0,0,0,0,0,0,0,0,0,0,0,0,0,0,0,0,0,0,0,0,0,0,0,0,0,0,0,0,0,0,0,0,0,0,0,0,0,0,0,0,0,0,0,0,0,0,0,0,0,0,0,0,0,0,0,0,0,0,0,0,0,0,0,0,0,0,0,0,0,0,0,0,0,0,0,0,0,0,0,0,0,0,0,0,0,0,0,0,0,0,0,0,0,0,0,0,0,0,0,0,0,0,0,0,0,0,0,0,0,0,0,0,0,0,0,0,0,0,0,0,0,0,0,0,0,0,0,0,0,0,0,0,0,0,0,0,0,0,0,0,0,0,0,0,0,0,0,0,0,0,0,0,0,0,0,0,0,0,0,0,0,0,0,0,0,0,0,0,0,0,0,0,0,0,0,0,0,0,0,0,
0,0,0,0,0,0,0,0,0,0,0,0,0,0,0,0,0,0,0,0,0,0,0,0,0,0,0,0,0,0,0,0,0,0,0,0,0,0,0,0,0,0,0,0,0,0,0,0,0,0,0,0,0,0,0,0,0,0,0,0,0,0,0,0,0,0,0,0,0,0,0,0,0,0,0,0,0,0,0,0,0,0,0,0,0,0,0,0,0,0,0,0,0,0,0,0,0,0,0,0,0,0,0,0,0,0,0,0,0,0,0,0,0,0,0,0,0,0,0,0,0,0,0,0,0,0,0,0,0,0,0,0,0,0,0,0,0,0,0,0,0,0,0,0,0,0,0,0,0,0,0,0,0,0,0,0,0,0,0,0,0,0,0,0,0,0,0,0,0,0,0,0,0,0,0,0,0,0,0,0,0,0,0,0,0,0,0,0,0,0,0,0,0,0,0,0,0,0,0,0,0,0,0,0,0,0,0,0,0,0,0,0,0,0,0,0,0,0,0,0,0,0,0,0,0,0,0,0,0,0,0,0,0,0,0,0,0,0,0,0,0,0,0,0,0,0,0,0,0,0,0,0,0,0,0,0,
0,0,0,0,0,0,0,0,0,0,0,0,0,0,0,0,0,0,0,0,0,0,0,0,0,0,0,0,0,0,0,0,0,0,0,0,0,0,0,0,0,0,0,0,0,0,0,0,0,0,0,0,0,0,0,0,0,0,0,0,0,0,0,0,0,0,0,0,0,0,0,0,0,0,0,0,0,0,0,0,0,0,0,0,0,0,0,0,0,0,0,0,0,0,0,0,0,0,0,0,0,0,0,0,0,0,0,0,0,0,0,0,0,0,0,0,0,0,0,0,0,0,0,0,0,0,0,0,0,0,0,0,0,0,0,0,0,0,0,0,0,0,0,0,0,0,0,0,0,0,0,0,0,0,0,0,0,0,0,0,0,0,0,0,0,0,0,0,0,0,0,0,0,0,0,0,0,0,0,0,0,0,0,0,0,0,0,0,0,0,0,0,0,0,0,0,0,0,0,0,0,0,0,0,0,0,0,0,0,0,0,0,0,0,0,0,0,0,0,0,0,0,0,0,0,0,0,0,0,0,0,0,0,0,0,0,0,0,0,0,0,0,0,0,0,0,0,0,0,0,0,0,0,0,0,0,
0,0,0,0,0,0,0,0,0,0,0,0,0,0,0,0,0,0,0,0,0,0,0,0,0,0,0,0,0,0,0,0,0,0,0,0,0,0,0,0,0,0,0,0,0,0,0,0,0,0,0,0,0,0,0,0,0,0,0,0,0,0,0,0,0,0,0,0,0,0,0,0,0,0,0,0,0,0,0,0,0,0,0,0,0,0,0,0,0,0,0,0,0,0,0,0,0,0,0,0,0,0,0,0,0,0,0,0,0,0,0,0,0,0,0,0,0,0,0,0,0,0,0,0,0,0,0,0,0,0,0,0,0,0,0,0,0,0,0,0,0,0,0,0,0,0,0,0,0,0,0,0,0,0,0,0,0,0,0,0,0,0,0,0,0,0,0,0,0,0,0,0,0,0,0,0,0,0,0,0,0,0,0,0,0,0,0,0,0,0,0,0,0,0,0,0,0,0,0,0,0,0,0,0,0,0,0,0,0,0,0,0,0,0,0,0,0,0,0,0,0,0,0,0,0,0,0,0,0,0,0,0,0,0,0,0,0,0,0,0,0,0,0,0,0,0,0,0,0,0,0,0,0,0,0,0,
0,0,0,0,0,0,0,0,0,0,0,0,0,0,0,0,0,0,0,0,0,0,0,0,0,0,0,0,0,0,0,0,0,0,0,0,0,0,0,0,0,0,0,0,0,0,0,0,0,0,0,0,0,0,0,0,0,0,0,0,0,0,0,0,0,0,0,0,0,0,0,0,0,0,0,0,0,0,0,0,0,0,0,0,0,0,0,0,0,0,0,0,0,0,0,0,0,0,0,0,0,0,0,0,0,0,0,0,0,0,0,0,0,0,0,0,0,0,0,0,0,0,0,0,0,0,0,0,0,0,0,0,0,0,0,0,0,0,0,0,0,0,0,0,0,0,0,0,0,0,0,0,0,0,0,0,0,0,0,0,0,0,0,0,0,0,0,0,0,0,0,0,0,0,0,0,0,0,0,0,0,0,0,0,0,0,0,0,0,0,0,0,0,0,0,0,0,0,0,0,0,0,0,0,0,0,0,0,0,0,0,0,0,0,0,0,0,0,0,0,0,0,0,0,0,0,0,0,0,0,0,0,0,0,0,0,0,0,0,0,0,0,0,0,0,0,0,0,0,0,0,0,0,0,0,0,
0,0,0,0,0,0,0,0,0,0,0,0,0,0,0,0,0,0,0,0,0,0,0,0,0,0,0,0,0,0,0,0,0,0,0,0,0,0,0,0,0,0,0,0,0,0,0,0,0,0,0,0,0,0,0,0,0,0,0,0,0,0,0,0,0,0,0,0,0,0,0,0,0,0,0,0,0,0,0,0,0,0,0,0,0,0,0,0,0,0,0,0,0,0,0,0,0,0,0,0,0,0,0,0,0,0,0,0,0,0,0,0,0,0,0,0,0,0,0,0,0,0,0,0,0,0,0,0,0,0,0,0,0,0,0,0,0,0,0,0,0,0,0,0,0,0,0,0,0,0,0,0,0,0,0,0,0,0,0,0,0,0,0,0,0,0,0,0,0,0,0,0,0,0,0,0,0,0,0,0,0,0,0,0,0,0,0,0,0,0,0,0,0,0,0,0,0,0,0,0,0,0,0,0,0,0,0,0,0,0,0,0,0,0,0,0,0,0,0,0,0,0,0,0,0,0,0,0,0,0,0,0,0,0,0,0,0,0,0,0,0,0,0,0,0,0,0,0,0,0,0,0,0,0,0,0,
0,0,0,0,0,0,0,0,0,0,0,0,0,0,0,0,0,0,0,0,0,0,0,0,0,0,0,0,0,0,0,0,0,0,0,0,0,0,0,0,0,0,0,0,0,0,0,0,0,0,0,0,0,0,0,0,0,0,0,0,0,0,0,0,0,0,0,0,0,0,0,0,0,0,0,0,0,0,0,0,0,0,0,0,0,0,0,0,0,0,0,0,0,0,0,0,0,0,0,0,0,0,0,0,0,0,0,0,0,0,0,0,0,0,0,0,0,0,0,0,0,0,0,0,0,0,0,0,0,0,0,0,0,0,0,0,0,0,0,0,0,0,0,0,0,0,0,0,0,0,0,0,0,0,0,0,0,0,0,0,0,0,0,0,0,0,0,0,0,0,0,0,0,0,0,0,0,0,0,0,0,0,0,0,0,0,0,0,0,0,0,0,0,0,0,0,0,0,0,0,0,0,0,0,0,0,0,0,0,0,0,0,0,0,0,0,0,0,0,0,0,0,0,0,0,0,0,0,0,0,0,0,0,0,0,0,0,0,0,0,0,0,0,0,0,0,0,0,0,0,0,0,0,0,0,0,
0,0,0,0,0,0,0,0,0,0,0,0,0,0,0,0,0,0,0,0,0,0,0,0,0,0,0,0,0,0,0,0,0,0,0,0,0,0,0,0,0,0,0,0,0,0,0,0,0,0,0,0,0,0,0,0,0,0,0,0,0,0,0,0,0,0,0,0,0,0,0,0,0,0,0,0,0,0,0,0,0,0,0,0,0,0,0,0,0,0,0,0,0,0,0,0,0,0,0,0,0,0,0,0,0,0,0,0,0,0,0,0,0,0,0,0,0,0,0,0,0,0,0,0,0,0,0,0,0,0,0,0,0,0,0,0,0,0,0,0,0,0,0,0,0,0,0,0,0,0,0,0,0,0,0,0,0,0,0,0,0,0,0,0,0,0,0,0,0,0,0,0,0,0,0,0,0,0,0,0,0,0,0,0,0,0,0,0,0,0,0,0,0,0,0,0,0,0,0,0,0,0,0,0,0,0,0,0,0,0,0,0,0,0,0,0,0,0,0,0,0,0,0,0,0,0,0,0,0,0,0,0,0,0,0,0,0,0,0,0,0,0,0,0,0,0,0,0,0,0,0,0,0,0,0,0,
0,0,0,0,0,0,0,0,0,0,0,0,0,0,0,0,0,0,0,0,0,0,0,0,0,0,0,0,0,0,0,0,0,0,0,0,0,0,0,0,0,0,0,0,0,0,0,0,0,0,0,0,0,0,0,0,0,0,0,0,0,0,0,0,0,0,0,0,0,0,0,0,0,0,0,0,0,0,0,0,0,0,0,0,0,0,0,0,0,0,0,0,0,0,0,0,0,0,0,0,0,0,0,0,0,0,0,0,0,0,0,0,0,0,0,0,0,0,0,0,0,0,0,0,0,0,0,0,0,0,0,0,0,0,0,0,0,0,0,0,0,0,0,0,0,0,0,0,0,0,0,0,0,0,0,0,0,0,0,0,0,0,0,0,0,0,0,0,0,0,0,0,0,0,0,0,0,0,0,0,0,0,0,0,0,0,0,0,0,0,0,0,0,0,0,0,0,0,0,0,0,0,0,0,0,0,0,0,0,0,0,0,0,0,0,0,0,0,0,0,0,0,0,0,0,0,0,0,0,0,0,0,0,0,0,0,0,0,0,0,0,0,0,0,0,0,0,0,0,0,0,0,0,0,0,0,
0,0,0,0,0,0,0,0,0,0,0,0,0,0,0,0,0,0,0,0,0,0,0,0,0,0,0,0,0,0,0,0,0,0,0,0,0,0,0,0,0,0,0,0,0,0,0,0,0,0,0,0,0,0,0,0,0,0,0,0,0,0,0,0,0,0,0,0,0,0,0,0,0,0,0,0,0,0,0,0,0,0,0,0,0,0,0,0,0,0,0,0,0,0,0,0,0,0,0,0,0,0,0,0,0,0,0,0,0,0,0,0,0,0,0,0,0,0,0,0,0,0,0,0,0,0,0,0,0,0,0,0,0,0,0,0,0,0,0,0,0,0,0,0,0,0,0,0,0,0,0,0,0,0,0,0,0,0,0,0,0,0,0,0,0,0,0,0,0,0,0,0,0,0,0,0,0,0,0,0,0,0,0,0,0,0,0,0,0,0,0,0,0,0,0,0,0,0,0,0,0,0,0,0,0,0,0,0,0,0,0,0,0,0,0,0,0,0,0,0,0,0,0,0,0,0,0,0,0,0,0,0,0,0,0,0,0,0,0,0,0,0,0,0,0,0,0,0,0,0,0,0,0,0,0,0,
0,0,0,0,0,0,0,0,0,0,0,0,0,0,0,0,0,0,0,0,0,0,0,0,0,0,0,0,0,0,0,0,0,0,0,0,0,0,0,0,0,0,0,0,0,0,0,0,0,0,0,0,0,0,0,0,0,0,0,0,0,0,0,0,0,0,0,0,0,0,0,0,0,0,0,0,0,0,0,0,0,0,0,0,0,0,0,0,0,0,0,0,0,0,0,0,0,0,0,0,0,0,0,0,0,0,0,0,0,0,0,0,0,0,0,0,0,0,0,0,0,0,0,0,0,0,0,0,0,0,0,0,0,0,0,0,0,0,0,0,0,0,0,0,0,0,0,0,0,0,0,0,0,0,0,0,0,0,0,0,0,0,0,0,0,0,0,0,0,0,0,0,0,0,0,0,0,0,0,0,0,0,0,0,0,0,0,0,0,0,0,0,0,0,0,0,0,0,0,0,0,0,0,0,0,0,0,0,0,0,0,0,0,0,0,0,0,0,0,0,0,0,0,0,0,0,0,0,0,0,0,0,0,0,0,0,0,0,0,0,0,0,0,0,0,0,0,0,0,0,0,0,0,0,0,0,
0,0,0,0,0,0,0,0,0,0,0,0,0,0,0,0,0,0,0,0,0,0,0,0,0,0,0,0,0,0,0,0,0,0,0,0,0,0,0,0,0,0,0,0,0,0,0,0,0,0,0,0,0,0,0,0,0,0,0,0,0,0,0,0,0,0,0,0,0,0,0,0,0,0,0,0,0,0,0,0,0,0,0,0,0,0,0,0,0,0,0,0,0,0,0,0,0,0,0,0,0,0,0,0,0,0,0,0,0,0,0,0,0,0,0,0,0,0,0,0,0,0,0,0,0,0,0,0,0,0,0,0,0,0,0,0,0,0,0,0,0,0,0,0,0,0,0,0,0,0,0,0,0,0,0,0,0,0,0,0,0,0,0,0,0,0,0,0,0,0,0,0,0,0,0,0,0,0,0,0,0,0,0,0,0,0,0,0,0,0,0,0,0,0,0,0,0,0,0,0,0,0,0,0,0,0,0,0,0,0,0,0,0,0,0,0,0,0,0,0,0,0,0,0,0,0,0,0,0,0,0,0,0,0,0,0,0,0,0,0,0,0,0,0,0,0,0,0,0,0,0,0,0,0,0,0,
0,0,0,0,0,0,0,0,0,0,0,0,0,0,0,0,0,0,0,0,0,0,0,0,0,0,0,0,0,0,0,0,0,0,0,0,0,0,0,0,0,0,0,0,0,0,0,0,0,0,0,0,0,0,0,0,0,0,0,0,0,0,0,0,0,0,0,0,0,0,0,0,0,0,0,0,0,0,0,0,0,0,0,0,0,0,0,0,0,0,0,0,0,0,0,0,0,0,0,0,0,0,0,0,0,0,0,0,0,0,0,0,0,0,0,0,0,0,0,0,0,0,0,0,0,0,0,0,0,0,0,0,0,0,0,0,0,0,0,0,0,0,0,0,0,0,0,0,0,0,0,0,0,0,0,0,0,0,0,0,0,0,0,0,0,0,0,0,0,0,0,0,0,0,0,0,0,0,0,0,0,0,0,0,0,0,0,0,0,0,0,0,0,0,0,0,0,0,0,0,0,0,0,0,0,0,0,0,0,0,0,0,0,0,0,0,0,0,0,0,0,0,0,0,0,0,0,0,0,0,0,0,0,0,0,0,0,0,0,0,0,0,0,0,0,0,0,0,0,0,0,0,0,0,0,0,
0,0,0,0,0,0,0,0,0,0,0,0,0,0,0,0,0,0,0,0,0,0,0,0,0,0,0,0,0,0,0,0,0,0,0,0,0,0,0,0,0,0,0,0,0,0,0,0,0,0,0,0,0,0,0,0,0,0,0,0,0,0,0,0,0,0,0,0,0,0,0,0,0,0,0,0,0,0,0,0,0,0,0,0,0,0,0,0,0,0,0,0,0,0,0,0,0,0,0,0,0,0,0,0,0,0,0,0,0,0,0,0,0,0,0,0,0,0,0,0,0,0,0,0,0,0,0,0,0,0,0,0,0,0,0,0,0,0,0,0,0,0,0,0,0,0,0,0,0,0,0,0,0,0,0,0,0,0,0,0,0,0,0,0,0,0,0,0,0,0,0,0,0,0,0,0,0,0,0,0,0,0,0,0,0,0,0,0,0,0,0,0,0,0,0,0,0,0,0,0,0,0,0,0,0,0,0,0,0,0,0,0,0,0,0,0,0,0,0,0,0,0,0,0,0,0,0,0,0,0,0,0,0,0,0,0,0,0,0,0,0,0,0,0,0,0,0,0,0,0,0,0,0,0,0,0,
0,0,0,0,0,0,0,0,0,0,0,0,0,0,0,0,0,0,0,0,0,0,0,0,0,0,0,0,0,0,0,0,0,0,0,0,0,0,0,0,0,0,0,0,0,0,0,0,0,0,0,0,0,0,0,0,0,0,0,0,0,0,0,0,0,0,0,0,0,0,0,0,0,0,0,0,0,0,0,0,0,0,0,0,0,0,0,0,0,0,0,0,0,0,0,0,0,0,0,0,0,0,0,0,0,0,0,0,0,0,0,0,0,0,0,0,0,0,0,0,0,0,0,0,0,0,0,0,0,0,0,0,0,0,0,0,0,0,0,0,0,0,0,0,0,0,0,0,0,0,0,0,0,0,0,0,0,0,0,0,0,0,0,0,0,0,0,0,0,0,0,0,0,0,0,0,0,0,0,0,0,0,0,0,0,0,0,0,0,0,0,0,0,0,0,0,0,0,0,0,0,0,0,0,0,0,0,0,0,0,0,0,0,0,0,0,0,0,0,0,0,0,0,0,0,0,0,0,0,0,0,0,0,0,0,0,0,0,0,0,0,0,0,0,0,0,0,0,0,0,0,0,0,0,0,0,
0,0,0,0,0,0,0,0,0,0,0,0,0,0,0,0,0,0,0,0,0,0,0,0,0,0,0,0,0,0,0,0,0,0,0,0,0,0,0,0,0,0,0,0,0,0,0,0,0,0,0,0,0,0,0,0,0,0,0,0,0,0,0,0,0,0,0,0,0,0,0,0,0,0,0,0,0,0,0,0,0,0,0,0,0,0,0,0,0,0,0,0,0,0,0,0,0,0,0,0,0,0,0,0,0,0,0,0,0,0,0,0,0,0,0,0,0,0,0,0,0,0,0,0,0,0,0,0,0,0,0,0,0,0,0,0,0,0,0,0,0,0,0,0,0,0,0,0,0,0,0,0,0,0,0,0,0,0,0,0,0,0,0,0,0,0,0,0,0,0,0,0,0,0,0,0,0,0,0,0,0,0,0,0,0,0,0,0,0,0,0,0,0,0,0,0,0,0,0,0,0,0,0,0,0,0,0,0,0,0,0,0,0,0,0,0,0,0,0,0,0,0,0,0,0,0,0,0,0,0,0,0,0,0,0,0,0,0,0,0,0,0,0,0,0,0,0,0,0,0,0,0,0,0,0,0,
0,0,0,0,0,0,0,0,0,0,0,0,0,0,0,0,0,0,0,0,0,0,0,0,0,0,0,0,0,0,0,0,0,0,0,0,0,0,0,0,0,0,0,0,0,0,0,0,0,0,0,0,0,0,0,0,0,0,0,0,0,0,0,0,0,0,0,0,0,0,0,0,0,0,0,0,0,0,0,0,0,0,0,0,0,0,0,0,0,0,0,0,0,0,0,0,0,0,0,0,0,0,0,0,0,0,0,0,0,0,0,0,0,0,0,0,0,0,0,0,0,0,0,0,0,0,0,0,0,0,0,0,0,0,0,0,0,0,0,0,0,0,0,0,0,0,0,0,0,0,0,0,0,0,0,0,0,0,0,0,0,0,0,0,0,0,0,0,0,0,0,0,0,0,0,0,0,0,0,0,0,0,0,0,0,0,0,0,0,0,0,0,0,0,0,0,0,0,0,0,0,0,0,0,0,0,0,0,0,0,0,0,0,0,0,0,0,0,0,0,0,0,0,0,0,0,0,0,0,0,0,0,0,0,0,0,0,0,0,0,0,0,0,0,0,0,0,0,0,0,0,0,0,0,0,0,
0,0,0,0,0,0,0,0,0,0,0,0,0,0,0,0,0,0,0,0,0,0,0,0,0,0,0,0,0,0,0,0,0,0,0,0,0,0,0,0,0,0,0,0,0,0,0,0,0,0,0,0,0,0,0,0,0,0,0,0,0,0,0,0,0,0,0,0,0,0,0,0,0,0,0,0,0,0,0,0,0,0,0,0,0,0,0,0,0,0,0,0,0,0,0,0,0,0,0,0,0,0,0,0,0,0,0,0,0,0,0,0,0,0,0,0,0,0,0,0,0,0,0,0,0,0,0,0,0,0,0,0,0,0,0,0,0,0,0,0,0,0,0,0,0,0,0,0,0,0,0,0,0,0,0,0,0,0,0,0,0,0,0,0,0,0,0,0,0,0,0,0,0,0,0,0,0,0,0,0,0,0,0,0,0,0,0,0,0,0,0,0,0,0,0,0,0,0,0,0,0,0,0,0,0,0,0,0,0,0,0,0,0,0,0,0,0,0,0,0,0,0,0,0,0,0,0,0,0,0,0,0,0,0,0,0,0,0,0,0,0,0,0,0,0,0,0,0,0,0,0,0,0,0,0,0,
0,0,0,0,0,0,0,0,0,0,0,0,0,0,0,0,0,0,0,0,0,0,0,0,0,0,0,0,0,0,0,0,0,0,0,0,0,0,0,0,0,0,0,0,0,0,0,0,0,0,0,0,0,0,0,0,0,0,0,0,0,0,0,0,0,0,0,0,0,0,0,0,0,0,0,0,0,0,0,0,0,0,0,0,0,0,0,0,0,0,0,0,0,0,0,0,0,0,0,0,0,0,0,0,0,0,0,0,0,0,0,0,0,0,0,0,0,0,0,0,0,0,0,0,0,0,0,0,0,0,0,0,0,0,0,0,0,0,0,0,0,0,0,0,0,0,0,0,0,0,0,0,0,0,0,0,0,0,0,0,0,0,0,0,0,0,0,0,0,0,0,0,0,0,0,0,0,0,0,0,0,0,0,0,0,0,0,0,0,0,0,0,0,0,0,0,0,0,0,0,0,0,0,0,0,0,0,0,0,0,0,0,0,0,0,0,0,0,0,0,0,0,0,0,0,0,0,0,0,0,0,0,0,0,0,0,0,0,0,0,0,0,0,0,0,0,0,0,0,0,0,0,0,0,0,0,
0,0,0,0,0,0,0,0,0,0,0,0,0,0,0,0,0,0,0,0,0,0,0,0,0,0,0,0,0,0,0,0,0,0,0,0,0,0,0,0,0,0,0,0,0,0,0,0,0,0,0,0,0,0,0,0,0,0,0,0,0,0,0,0,0,0,0,0,0,0,0,0,0,0,0,0,0,0,0,0,0,0,0,0,0,0,0,0,0,0,0,0,0,0,0,0,0,0,0,0,0,0,0,0,0,0,0,0,0,0,0,0,0,0,0,0,0,0,0,0,0,0,0,0,0,0,0,0,0,0,0,0,0,0,0,0,0,0,0,0,0,0,0,0,0,0,0,0,0,0,0,0,0,0,0,0,0,0,0,0,0,0,0,0,0,0,0,0,0,0,0,0,0,0,0,0,0,0,0,0,0,0,0,0,0,0,0,0,0,0,0,0,0,0,0,0,0,0,0,0,0,0,0,0,0,0,0,0,0,0,0,0,0,0,0,0,0,0,0,0,0,0,0,0,0,0,0,0,0,0,0,0,0,0,0,0,0,0,0,0,0,0,0,0,0,0,0,0,0,0,0,0,0,0,0,0,
0,0,0,0,0,0,0,0,0,0,0,0,0,0,0,0,0,0,0,0,0,0,0,0,0,0,0,0,0,0,0,0,0,0,0,0,0,0,0,0,0,0,0,0,0,0,0,0,0,0,0,0,0,0,0,0,0,0,0,0,0,0,0,0,0,0,0,0,0,0,0,0,0,0,0,0,0,0,0,0,0,0,0,0,0,0,0,0,0,0,0,0,0,0,0,0,0,0,0,0,0,0,0,0,0,0,0,0,0,0,0,0,0,0,0,0,0,0,0,0,0,0,0,0,0,0,0,0,0,0,0,0,0,0,0,0,0,0,0,0,0,0,0,0,0,0,0,0,0,0,0,0,0,0,0,0,0,0,0,0,0,0,0,0,0,0,0,0,0,0,0,0,0,0,0,0,0,0,0,0,0,0,0,0,0,0,0,0,0,0,0,0,0,0,0,0,0,0,0,0,0,0,0,0,0,0,0,0,0,0,0,0,0,0,0,0,0,0,0,0,0,0,0,0,0,0,0,0,0,0,0,0,0,0,0,0,0,0,0,0,0,0,0,0,0,0,0,0,0,0,0,0,0,0,0,0,
0,0,0,0,0,0,0,0,0,0,0,0,0,0,0,0,0,0,0,0,0,0,0,0,0,0,0,0,0,0,0,0,0,0,0,0,0,0,0,0,0,0,0,0,0,0,0,0,0,0,0,0,0,0,0,0,0,0,0,0,0,0,0,0,0,0,0,0,0,0,0,0,0,0,0,0,0,0,0,0,0,0,0,0,0,0,0,0,0,0,0,0,0,0,0,0,0,0,0,0,0,0,0,0,0,0,0,0,0,0,0,0,0,0,0,0,0,0,0,0,0,0,0,0,0,0,0,0,0,0,0,0,0,0,0,0,0,0,0,0,0,0,0,0,0,0,0,0,0,0,0,0,0,0,0,0,0,0,0,0,0,0,0,0,0,0,0,0,0,0,0,0,0,0,0,0,0,0,0,0,0,0,0,0,0,0,0,0,0,0,0,0,0,0,0,0,0,0,0,0,0,0,0,0,0,0,0,0,0,0,0,0,0,0,0,0,0,0,0,0,0,0,0,0,0,0,0,0,0,0,0,0,0,0,0,0,0,0,0,0,0,0,0,0,0,0,0,0,0,0,0,0,0,0,0,0,
0,0,0,0,0,0,0,0,0,0,0,0,0,0,0,0,0,0,0,0,0,0,0,0,0,0,0,0,0,0,0,0,0,0,0,0,0,0,0,0,0,0,0,0,0,0,0,0,0,0,0,0,0,0,0,0,0,0,0,0,0,0,0,0,0,0,0,0,0,0,0,0,0,0,0,0,0,0,0,0,0,0,0,0,0,0,0,0,0,0,0,0,0,0,0,0,0,0,0,0,0,0,0,0,0,0,0,0,0,0,0,0,0,0,0,0,0,0,0,0,0,0,0,0,0,0,0,0,0,0,0,0,0,0,0,0,0,0,0,0,0,0,0,0,0,0,0,0,0,0,0,0,0,0,0,0,0,0,0,0,0,0,0,0,0,0,0,0,0,0,0,0,0,0,0,0,0,0,0,0,0,0,0,0,0,0,0,0,0,0,0,0,0,0,0,0,0,0,0,0,0,0,0,0,0,0,0,0,0,0,0,0,0,0,0,0,0,0,0,0,0,0,0,0,0,0,0,0,0,0,0,0,0,0,0,0,0,0,0,0,0,0,0,0,0,0,0,0,0,0,0,0,0,0,0,0,
0,0,0,0,0,0,0,0,0,0,0,0,0,0,0,0,0,0,0,0,0,0,0,0,0,0,0,0,0,0,0,0,0,0,0,0,0,0,0,0,0,0,0,0,0,0,0,0,0,0,0,0,0,0,0,0,0,0,0,0,0,0,0,0,0,0,0,0,0,0,0,0,0,0,0,0,0,0,0,0,0,0,0,0,0,0,0,0,0,0,0,0,0,0,0,0,0,0,0,0,0,0,0,0,0,0,0,0,0,0,0,0,0,0,0,0,0,0,0,0,0,0,0,0,0,0,0,0,0,0,0,0,0,0,0,0,0,0,0,0,0,0,0,0,0,0,0,0,0,0,0,0,0,0,0,0,0,0,0,0,0,0,0,0,0,0,0,0,0,0,0,0,0,0,0,0,0,0,0,0,0,0,0,0,0,0,0,0,0,0,0,0,0,0,0,0,0,0,0,0,0,0,0,0,0,0,0,0,0,0,0,0,0,0,0,0,0,0,0,0,0,0,0,0,0,0,0,0,0,0,0,0,0,0,0,0,0,0,0,0,0,0,0,0,0,0,0,0,0,0,0,0,0,0,0,0,
0,0,0,0,0,0,0,0,0,0,0,0,0,0,0,0,0,0,0,0,0,0,0,0,0,0,0,0,0,0,0,0,0,0,0,0,0,0,0,0,0,0,0,0,0,0,0,0,0,0,0,0,0,0,0,0,0,0,0,0,0,0,0,0,0,0,0,0,0,0,0,0,0,0,0,0,0,0,0,0,0,0,0,0,0,0,0,0,0,0,0,0,0,0,0,0,0,0,0,0,0,0,0,0,0,0,0,0,0,0,0,0,0,0,0,0,0,0,0,0,0,0,0,0,0,0,0,0,0,0,0,0,0,0,0,0,0,0,0,0,0,0,0,0,0,0,0,0,0,0,0,0,0,0,0,0,0,0,0,0,0,0,0,0,0,0,0,0,0,0,0,0,0,0,0,0,0,0,0,0,0,0,0,0,0,0,0,0,0,0,0,0,0,0,0,0,0,0,0,0,0,0,0,0,0,0,0,0,0,0,0,0,0,0,0,0,0,0,0,0,0,0,0,0,0,0,0,0,0,0,0,0,0,0,0,0,0,0,0,0,0,0,0,0,0,0,0,0,0,0,0,0,0,0,0,0,
0,0,0,0,0,0,0,0,0,0,0,0,0,0,0,0,0,0,0,0,0,0,0,0,0,0,0,0,0,0,0,0,0,0,0,0,0,0,0,0,0,0,0,0,0,0,0,0,0,0,0,0,0,0,0,0,0,0,0,0,0,0,0,0,0,0,0,0,0,0,0,0,0,0,0,0,0,0,0,0,0,0,0,0,0,0,0,0,0,0,0,0,0,0,0,0,0,0,0,0,0,0,0,0,0,0,0,0,0,0,0,0,0,0,0,0,0,0,0,0,0,0,0,0,0,0,0,0,0,0,0,0,0,0,0,0,0,0,0,0,0,0,0,0,0,0,0,0,0,0,0,0,0,0,0,0,0,0,0,0,0,0,0,0,0,0,0,0,0,0,0,0,0,0,0,0,0,0,0,0,0,0,0,0,0,0,0,0,0,0,0,0,0,0,0,0,0,0,0,0,0,0,0,0,0,0,0,0,0,0,0,0,0,0,0,0,0,0,0,0,0,0,0,0,0,0,0,0,0,0,0,0,0,0,0,0,0,0,0,0,0,0,0,0,0,0,0,0,0,0,0,0,0,0,0,0,
0,0,0,0,0,0,0,0,0,0,0,0,0,0,0,0,0,0,0,0,0,0,0,0,0,0,0,0,0,0,0,0,0,0,0,0,0,0,0,0,0,0,0,0,0,0,0,0,0,0,0,0,0,0,0,0,0,0,0,0,0,0,0,0,0,0,0,0,0,0,0,0,0,0,0,0,0,0,0,0,0,0,0,0,0,0,0,0,0,0,0,0,0,0,0,0,0,0,0,0,0,0,0,0,0,0,0,0,0,0,0,0,0,0,0,0,0,0,0,0,0,0,0,0,0,0,0,0,0,0,0,0,0,0,0,0,0,0,0,0,0,0,0,0,0,0,0,0,0,0,0,0,0,0,0,0,0,0,0,0,0,0,0,0,0,0,0,0,0,0,0,0,0,0,0,0,0,0,0,0,0,0,0,0,0,0,0,0,0,0,0,0,0,0,0,0,0,0,0,0,0,0,0,0,0,0,0,0,0,0,0,0,0,0,0,0,0,0,0,0,0,0,0,0,0,0,0,0,0,0,0,0,0,0,0,0,0,0,0,0,0,0,0,0,0,0,0,0,0,0,0,0,0,0,0,0,
0,0,0,0,0,0,0,0,0,0,0,0,0,0,0,0,0,0,0,0,0,0,0,0,0,0,0,0,0,0,0,0,0,0,0,0,0,0,0,0,0,0,0,0,0,0,0,0,0,0,0,0,0,0,0,0,0,0,0,0,0,0,0,0,0,0,0,0,0,0,0,0,0,0,0,0,0,0,0,0,0,0,0,0,0,0,0,0,0,0,0,0,0,0,0,0,0,0,0,0,0,0,0,0,0,0,0,0,0,0,0,0,0,0,0,0,0,0,0,0,0,0,0,0,0,0,0,0,0,0,0,0,0,0,0,0,0,0,0,0,0,0,0,0,0,0,0,0,0,0,0,0,0,0,0,0,0,0,0,0,0,0,0,0,0,0,0,0,0,0,0,0,0,0,0,0,0,0,0,0,0,0,0,0,0,0,0,0,0,0,0,0,0,0,0,0,0,0,0,0,0,0,0,0,0,0,0,0,0,0,0,0,0,0,0,0,0,0,0,0,0,0,0,0,0,0,0,0,0,0,0,0,0,0,0,0,0,0,0,0,0,0,0,0,0,0,0,0,0,0,0,0,0,0,0,0,
0,0,0,0,0,0,0,0,0,0,0,0,0,0,0,0,0,0,0,0,0,0,0,0,0,0,0,0,0,0,0,0,0,0,0,0,0,0,0,0,0,0,0,0,0,0,0,0,0,0,0,0,0,0,0,0,0,0,0,0,0,0,0,0,0,0,0,0,0,0,0,0,0,0,0,0,0,0,0,0,0,0,0,0,0,0,0,0,0,0,0,0,0,0,0,0,0,0,0,0,0,0,0,0,0,0,0,0,0,0,0,0,0,0,0,0,0,0,0,0,0,0,0,0,0,0,0,0,0,0,0,0,0,0,0,0,0,0,0,0,0,0,0,0,0,0,0,0,0,0,0,0,0,0,0,0,0,0,0,0,0,0,0,0,0,0,0,0,0,0,0,0,0,0,0,0,0,0,0,0,0,0,0,0,0,0,0,0,0,0,0,0,0,0,0,0,0,0,0,0,0,0,0,0,0,0,0,0,0,0,0,0,0,0,0,0,0,0,0,0,0,0,0,0,0,0,0,0,0,0,0,0,0,0,0,0,0,0,0,0,0,0,0,0,0,0,0,0,0,0,0,0,0,0,0,0,
0,0,0,0,0,0,0,0,0,0,0,0,0,0,0,0,0,0,0,0,0,0,0,0,0,0,0,0,0,0,0,0,0,0,0,0,0,0,0,0,0,0,0,0,0,0,0,0,0,0,0,0,0,0,0,0,0,0,0,0,0,0,0,0,0,0,0,0,0,0,0,0,0,0,0,0,0,0,0,0,0,0,0,0,0,0,0,0,0,0,0,0,0,0,0,0,0,0,0,0,0,0,0,0,0,0,0,0,0,0,0,0,0,0,0,0,0,0,0,0,0,0,0,0,0,0,0,0,0,0,0,0,0,0,0,0,0,0,0,0,0,0,0,0,0,0,0,0,0,0,0,0,0,0,0,0,0,0,0,0,0,0,0,0,0,0,0,0,0,0,0,0,0,0,0,0,0,0,0,0,0,0,0,0,0,0,0,0,0,0,0,0,0,0,0,0,0,0,0,0,0,0,0,0,0,0,0,0,0,0,0,0,0,0,0,0,0,0,0,0,0,0,0,0,0,0,0,0,0,0,0,0,0,0,0,0,0,0,0,0,0,0,0,0,0,0,0,0,0,0,0,0,0,0,0,0,
0,0,0,0,0,0,0,0,0,0,0,0,0,0,0,0,0,0,0,0,0,0,0,0,0,0,0,0,0,0,0,0,0,0,0,0,0,0,0,0,0,0,0,0,0,0,0,0,0,0,0,0,0,0,0,0,0,0,0,0,0,0,0,0,0,0,0,0,0,0,0,0,0,0,0,0,0,0,0,0,0,0,0,0,0,0,0,0,0,0,0,0,0,0,0,0,0,0,0,0,0,0,0,0,0,0,0,0,0,0,0,0,0,0,0,0,0,0,0,0,0,0,0,0,0,0,0,0,0,0,0,0,0,0,0,0,0,0,0,0,0,0,0,0,0,0,0,0,0,0,0,0,0,0,0,0,0,0,0,0,0,0,0,0,0,0,0,0,0,0,0,0,0,0,0,0,0,0,0,0,0,0,0,0,0,0,0,0,0,0,0,0,0,0,0,0,0,0,0,0,0,0,0,0,0,0,0,0,0,0,0,0,0,0,0,0,0,0,0,0,0,0,0,0,0,0,0,0,0,0,0,0,0,0,0,0,0,0,0,0,0,0,0,0,0,0,0,0,0,0,0,0,0,0,0,0,
0,0,0,0,0,0,0,0,0,0,0,0,0,0,0,0,0,0,0,0,0,0,0,0,0,0,0,0,0,0,0,0,0,0,0,0,0,0,0,0,0,0,0,0,0,0,0,0,0,0,0,0,0,0,0,0,0,0,0,0,0,0,0,0,0,0,0,0,0,0,0,0,0,0,0,0,0,0,0,0,0,0,0,0,0,0,0,0,0,0,0,0,0,0,0,0,0,0,0,0,0,0,0,0,0,0,0,0,0,0,0,0,0,0,0,0,0,0,0,0,0,0,0,0,0,0,0,0,0,0,0,0,0,0,0,0,0,0,0,0,0,0,0,0,0,0,0,0,0,0,0,0,0,0,0,0,0,0,0,0,0,0,0,0,0,0,0,0,0,0,0,0,0,0,0,0,0,0,0,0,0,0,0,0,0,0,0,0,0,0,0,0,0,0,0,0,0,0,0,0,0,0,0,0,0,0,0,0,0,0,0,0,0,0,0,0,0,0,0,0,0,0,0,0,0,0,0,0,0,0,0,0,0,0,0,0,0,0,0,0,0,0,0,0,0,0,0,0,0,0,0,0,0,0,0,0,
0,0,0,0,0,0,0,0,0,0,0,0,0,0,0,0,0,0,0,0,0,0,0,0,0,0,0,0,0,0,0,0,0,0,0,0,0,0,0,0,0,0,0,0,0,0,0,0,0,0,0,0,0,0,0,0,0,0,0,0,0,0,0,0,0,0,0,0,0,0,0,0,0,0,0,0,0,0,0,0,0,0,0,0,0,0,0,0,0,0,0,0,0,0,0,0,0,0,0,0,0,0,0,0,0,0,0,0,0,0,0,0,0,0,0,0,0,0,0,0,0,0,0,0,0,0,0,0,0,0,0,0,0,0,0,0,0,0,0,0,0,0,0,0,0,0,0,0,0,0,0,0,0,0,0,0,0,0,0,0,0,0,0,0,0,0,0,0,0,0,0,0,0,0,0,0,0,0,0,0,0,0,0,0,0,0,0,0,0,0,0,0,0,0,0,0,0,0,0,0,0,0,0,0,0,0,0,0,0,0,0,0,0,0,0,0,0,0,0,0,0,0,0,0,0,0,0,0,0,0,0,0,0,0,0,0,0,0,0,0,0,0,0,0,0,0,0,0,0,0,0,0,0,0,0,0,
0,0,0,0,0,0,0,0,0,0,0,0,0,0,0,0,0,0,0,0,0,0,0,0,0,0,0,0,0,0,0,0,0,0,0,0,0,0,0,0,0,0,0,0,0,0,0,0,0,0,0,0,0,0,0,0,0,0,0,0,0,0,0,0,0,0,0,0,0,0,0,0,0,0,0,0,0,0,0,0,0,0,0,0,0,0,0,0,0,0,0,0,0,0,0,0,0,0,0,0,0,0,0,0,0,0,0,0,0,0,0,0,0,0,0,0,0,0,0,0,0,0,0,0,0,0,0,0,0,0,0,0,0,0,0,0,0,0,0,0,0,0,0,0,0,0,0,0,0,0,0,0,0,0,0,0,0,0,0,0,0,0,0,0,0,0,0,0,0,0,0,0,0,0,0,0,0,0,0,0,0,0,0,0,0,0,0,0,0,0,0,0,0,0,0,0,0,0,0,0,0,0,0,0,0,0,0,0,0,0,0,0,0,0,0,0,0,0,0,0,0,0,0,0,0,0,0,0,0,0,0,0,0,0,0,0,0,0,0,0,0,0,0,0,0,0,0,0,0,0,0,0,0,0,0,0,
0,0,0,0,0,0,0,0,0,0,0,0,0,0,0,0,0,0,0,0,0,0,0,0,0,0,0,0,0,0,0,0,0,0,0,0,0,0,0,0,0,0,0,0,0,0,0,0,0,0,0,0,0,0,0,0,0,0,0,0,0,0,0,0,0,0,0,0,0,0,0,0,0,0,0,0,0,0,0,0,0,0,0,0,0,0,0,0,0,0,0,0,0,0,0,0,0,0,0,0,0,0,0,0,0,0,0,0,0,0,0,0,0,0,0,0,0,0,0,0,0,0,0,0,0,0,0,0,0,0,0,0,0,0,0,0,0,0,0,0,0,0,0,0,0,0,0,0,0,0,0,0,0,0,0,0,0,0,0,0,0,0,0,0,0,0,0,0,0,0,0,0,0,0,0,0,0,0,0,0,0,0,0,0,0,0,0,0,0,0,0,0,0,0,0,0,0,0,0,0,0,0,0,0,0,0,0,0,0,0,0,0,0,0,0,0,0,0,0,0,0,0,0,0,0,0,0,0,0,0,0,0,0,0,0,0,0,0,0,0,0,0,0,0,0,0,0,0,0,0,0,0,0,0,0,0,
0,0,0,0,0,0,0,0,0,0,0,0,0,0,0,0,0,0,0,0,0,0,0,0,0,0,0,0,0,0,0,0,0,0,0,0,0,0,0,0,0,0,0,0,0,0,0,0,0,0,0,0,0,0,0,0,0,0,0,0,0,0,0,0,0,0,0,0,0,0,0,0,0,0,0,0,0,0,0,0,0,0,0,0,0,0,0,0,0,0,0,0,0,0,0,0,0,0,0,0,0,0,0,0,0,0,0,0,0,0,0,0,0,0,0,0,0,0,0,0,0,0,0,0,0,0,0,0,0,0,0,0,0,0,0,0,0,0,0,0,0,0,0,0,0,0,0,0,0,0,0,0,0,0,0,0,0,0,0,0,0,0,0,0,0,0,0,0,0,0,0,0,0,0,0,0,0,0,0,0,0,0,0,0,0,0,0,0,0,0,0,0,0,0,0,0,0,0,0,0,0,0,0,0,0,0,0,0,0,0,0,0,0,0,0,0,0,0,0,0,0,0,0,0,0,0,0,0,0,0,0,0,0,0,0,0,0,0,0,0,0,0,0,0,0,0,0,0,0,0,0,0,0,0,0,0,
0,0,0,0,0,0,0,0,0,0,0,0,0,0,0,0,0,0,0,0,0,0,0,0,0,0,0,0,0,0,0,0,0,0,0,0,0,0,0,0,0,0,0,0,0,0,0,0,0,0,0,0,0,0,0,0,0,0,0,0,0,0,0,0,0,0,0,0,0,0,0,0,0,0,0,0,0,0,0,0,0,0,0,0,0,0,0,0,0,0,0,0,0,0,0,0,0,0,0,0,0,0,0,0,0,0,0,0,0,0,0,0,0,0,0,0,0,0,0,0,0,0,0,0,0,0,0,0,0,0,0,0,0,0,0,0,0,0,0,0,0,0,0,0,0,0,0,0,0,0,0,0,0,0,0,0,0,0,0,0,0,0,0,0,0,0,0,0,0,0,0,0,0,0,0,0,0,0,0,0,0,0,0,0,0,0,0,0,0,0,0,0,0,0,0,0,0,0,0,0,0,0,0,0,0,0,0,0,0,0,0,0,0,0,0,0,0,0,0,0,0,0,0,0,0,0,0,0,0,0,0,0,0,0,0,0,0,0,0,0,0,0,0,0,0,0,0,0,0,0,0,0,0,0,0,0,
0,0,0,0,0,0,0,0,0,0,0,0,0,0,0,0,0,0,0,0,0,0,0,0,0,0,0,0,0,0,0,0,0,0,0,0,0,0,0,0,0,0,0,0,0,0,0,0,0,0,0,0,0,0,0,0,0,0,0,0,0,0,0,0,0,0,0,0,0,0,0,0,0,0,0,0,0,0,0,0,0,0,0,0,0,0,0,0,0,0,0,0,0,0,0,0,0,0,0,0,0,0,0,0,0,0,0,0,0,0,0,0,0,0,0,0,0,0,0,0,0,0,0,0,0,0,0,0,0,0,0,0,0,0,0,0,0,0,0,0,0,0,0,0,0,0,0,0,0,0,0,0,0,0,0,0,0,0,0,0,0,0,0,0,0,0,0,0,0,0,0,0,0,0,0,0,0,0,0,0,0,0,0,0,0,0,0,0,0,0,0,0,0,0,0,0,0,0,0,0,0,0,0,0,0,0,0,0,0,0,0,0,0,0,0,0,0,0,0,0,0,0,0,0,0,0,0,0,0,0,0,0,0,0,0,0,0,0,0,0,0,0,0,0,0,0,0,0,0,0,0,0,0,0,0,0,
0,0,0,0,0,0,0,0,0,0,0,0,0,0,0,0,0,0,0,0,0,0,0,0,0,0,0,0,0,0,0,0,0,0,0,0,0,0,0,0,0,0,0,0,0,0,0,0,0,0,0,0,0,0,0,0,0,0,0,0,0,0,0,0,0,0,0,0,0,0,0,0,0,0,0,0,0,0,0,0,0,0,0,0,0,0,0,0,0,0,0,0,0,0,0,0,0,0,0,0,0,0,0,0,0,0,0,0,0,0,0,0,0,0,0,0,0,0,0,0,0,0,0,0,0,0,0,0,0,0,0,0,0,0,0,0,0,0,0,0,0,0,0,0,0,0,0,0,0,0,0,0,0,0,0,0,0,0,0,0,0,0,0,0,0,0,0,0,0,0,0,0,0,0,0,0,0,0,0,0,0,0,0,0,0,0,0,0,0,0,0,0,0,0,0,0,0,0,0,0,0,0,0,0,0,0,0,0,0,0,0,0,0,0,0,0,0,0,0,0,0,0,0,0,0,0,0,0,0,0,0,0,0,0,0,0,0,0,0,0,0,0,0,0,0,0,0,0,0,0,0,0,0,0,0,0,
0,0,0,0,0,0,0,0,0,0,0,0,0,0,0,0,0,0,0,0,0,0,0,0,0,0,0,0,0,0,0,0,0,0,0,0,0,0,0,0,0,0,0,0,0,0,0,0,0,0,0,0,0,0,0,0,0,0,0,0,0,0,0,0,0,0,0,0,0,0,0,0,0,0,0,0,0,0,0,0,0,0,0,0,0,0,0,0,0,0,0,0,0,0,0,0,0,0,0,0,0,0,0,0,0,0,0,0,0,0,0,0,0,0,0,0,0,0,0,0,0,0,0,0,0,0,0,0,0,0,0,0,0,0,0,0,0,0,0,0,0,0,0,0,0,0,0,0,0,0,0,0,0,0,0,0,0,0,0,0,0,0,0,0,0,0,0,0,0,0,0,0,0,0,0,0,0,0,0,0,0,0,0,0,0,0,0,0,0,0,0,0,0,0,0,0,0,0,0,0,0,0,0,0,0,0,0,0,0,0,0,0,0,0,0,0,0,0,0,0,0,0,0,0,0,0,0,0,0,0,0,0,0,0,0,0,0,0,0,0,0,0,0,0,0,0,0,0,0,0,0,0,0,0,0,0,
0,0,0,0,0,0,0,0,0,0,0,0,0,0,0,0,0,0,0,0,0,0,0,0,0,0,0,0,0,0,0,0,0,0,0,0,0,0,0,0,0,0,0,0,0,0,0,0,0,0,0,0,0,0,0,0,0,0,0,0,0,0,0,0,0,0,0,0,0,0,0,0,0,0,0,0,0,0,0,0,0,0,0,0,0,0,0,0,0,0,0,0,0,0,0,0,0,0,0,0,0,0,0,0,0,0,0,0,0,0,0,0,0,0,0,0,0,0,0,0,0,0,0,0,0,0,0,0,0,0,0,0,0,0,0,0,0,0,0,0,0,0,0,0,0,0,0,0,0,0,0,0,0,0,0,0,0,0,0,0,0,0,0,0,0,0,0,0,0,0,0,0,0,0,0,0,0,0,0,0,0,0,0,0,0,0,0,0,0,0,0,0,0,0,0,0,0,0,0,0,0,0,0,0,0,0,0,0,0,0,0,0,0,0,0,0,0,0,0,0,0,0,0,0,0,0,0,0,0,0,0,0,0,0,0,0,0,0,0,0,0,0,0,0,0,0,0,0,0,0,0,0,0,0,0,0,
0,0,0,0,0,0,0,0,0,0,0,0,0,0,0,0,0,0,0,0,0,0,0,0,0,0,0,0,0,0,0,0,0,0,0,0,0,0,0,0,0,0,0,0,0,0,0,0,0,0,0,0,0,0,0,0,0,0,0,0,0,0,0,0,0,0,0,0,0,0,0,0,0,0,0,0,0,0,0,0,0,0,0,0,0,0,0,0,0,0,0,0,0,0,0,0,0,0,0,0,0,0,0,0,0,0,0,0,0,0,0,0,0,0,0,0,0,0,0,0,0,0,0,0,0,0,0,0,0,0,0,0,0,0,0,0,0,0,0,0,0,0,0,0,0,0,0,0,0,0,0,0,0,0,0,0,0,0,0,0,0,0,0,0,0,0,0,0,0,0,0,0,0,0,0,0,0,0,0,0,0,0,0,0,0,0,0,0,0,0,0,0,0,0,0,0,0,0,0,0,0,0,0,0,0,0,0,0,0,0,0,0,0,0,0,0,0,0,0,0,0,0,0,0,0,0,0,0,0,0,0,0,0,0,0,0,0,0,0,0,0,0,0,0,0,0,0,0,0,0,0,0,0,0,0,0,
0,0,0,0,0,0,0,0,0,0,0,0,0,0,0,0,0,0,0,0,0,0,0,0,0,0,0,0,0,0,0,0,0,0,0,0,0,0,0,0,0,0,0,0,0,0,0,0,0,0,0,0,0,0,0,0,0,0,0,0,0,0,0,0,0,0,0,0,0,0,0,0,0,0,0,0,0,0,0,0,0,0,0,0,0,0,0,0,0,0,0,0,0,0,0,0,0,0,0,0,0,0,0,0,0,0,0,0,0,0,0,0,0,0,0,0,0,0,0,0,0,0,0,0,0,0,0,0,0,0,0,0,0,0,0,0,0,0,0,0,0,0,0,0,0,0,0,0,0,0,0,0,0,0,0,0,0,0,0,0,0,0,0,0,0,0,0,0,0,0,0,0,0,0,0,0,0,0,0,0,0,0,0,0,0,0,0,0,0,0,0,0,0,0,0,0,0,0,0,0,0,0,0,0,0,0,0,0,0,0,0,0,0,0,0,0,0,0,0,0,0,0,0,0,0,0,0,0,0,0,0,0,0,0,0,0,0,0,0,0,0,0,0,0,0,0,0,0,0,0,0,0,0,0,0,0,
0,0,0,0,0,0,0,0,0,0,0,0,0,0,0,0,0,0,0,0,0,0,0,0,0,0,0,0,0,0,0,0,0,0,0,0,0,0,0,0,0,0,0,0,0,0,0,0,0,0,0,0,0,0,0,0,0,0,0,0,0,0,0,0,0,0,0,0,0,0,0,0,0,0,0,0,0,0,0,0,0,0,0,0,0,0,0,0,0,0,0,0,0,0,0,0,0,0,0,0,0,0,0,0,0,0,0,0,0,0,0,0,0,0,0,0,0,0,0,0,0,0,0,0,0,0,0,0,0,0,0,0,0,0,0,0,0,0,0,0,0,0,0,0,0,0,0,0,0,0,0,0,0,0,0,0,0,0,0,0,0,0,0,0,0,0,0,0,0,0,0,0,0,0,0,0,0,0,0,0,0,0,0,0,0,0,0,0,0,0,0,0,0,0,0,0,0,0,0,0,0,0,0,0,0,0,0,0,0,0,0,0,0,0,0,0,0,0,0,0,0,0,0,0,0,0,0,0,0,0,0,0,0,0,0,0,0,0,0,0,0,0,0,0,0,0,0,0,0,0,0,0,0,0,0,0,
0,0,0,0,0,0,0,0,0,0,0,0,0,0,0,0,0,0,0,0,0,0,0,0,0,0,0,0,0,0,0,0,0,0,0,0,0,0,0,0,0,0,0,0,0,0,0,0,0,0,0,0,0,0,0,0,0,0,0,0,0,0,0,0,0,0,0,0,0,0,0,0,0,0,0,0,0,0,0,0,0,0,0,0,0,0,0,0,0,0,0,0,0,0,0,0,0,0,0,0,0,0,0,0,0,0,0,0,0,0,0,0,0,0,0,0,0,0,0,0,0,0,0,0,0,0,0,0,0,0,0,0,0,0,0,0,0,0,0,0,0,0,0,0,0,0,0,0,0,0,0,0,0,0,0,0,0,0,0,0,0,0,0,0,0,0,0,0,0,0,0,0,0,0,0,0,0,0,0,0,0,0,0,0,0,0,0,0,0,0,0,0,0,0,0,0,0,0,0,0,0,0,0,0,0,0,0,0,0,0,0,0,0,0,0,0,0,0,0,0,0,0,0,0,0,0,0,0,0,0,0,0,0,0,0,0,0,0,0,0,0,0,0,0,0,0,0,0,0,0,0,0,0,0,0,0,
0,0,0,0,0,0,0,0,0,0,0,0,0,0,0,0,0,0,0,0,0,0,0,0,0,0,0,0,0,0,0,0,0,0,0,0,0,0,0,0,0,0,0,0,0,0,0,0,0,0,0,0,0,0,0,0,0,0,0,0,0,0,0,0,0,0,0,0,0,0,0,0,0,0,0,0,0,0,0,0,0,0,0,0,0,0,0,0,0,0,0,0,0,0,0,0,0,0,0,0,0,0,0,0,0,0,0,0,0,0,0,0,0,0,0,0,0,0,0,0,0,0,0,0,0,0,0,0,0,0,0,0,0,0,0,0,0,0,0,0,0,0,0,0,0,0,0,0,0,0,0,0,0,0,0,0,0,0,0,0,0,0,0,0,0,0,0,0,0,0,0,0,0,0,0,0,0,0,0,0,0,0,0,0,0,0,0,0,0,0,0,0,0,0,0,0,0,0,0,0,0,0,0,0,0,0,0,0,0,0,0,0,0,0,0,0,0,0,0,0,0,0,0,0,0,0,0,0,0,0,0,0,0,0,0,0,0,0,0,0,0,0,0,0,0,0,0,0,0,0,0,0,0,0,0,0,
0,0,0,0,0,0,0,0,0,0,0,0,0,0,0,0,0,0,0,0,0,0,0,0,0,0,0,0,0,0,0,0,0,0,0,0,0,0,0,0,0,0,0,0,0,0,0,0,0,0,0,0,0,0,0,0,0,0,0,0,0,0,0,0,0,0,0,0,0,0,0,0,0,0,0,0,0,0,0,0,0,0,0,0,0,0,0,0,0,0,0,0,0,0,0,0,0,0,0,0,0,0,0,0,0,0,0,0,0,0,0,0,0,0,0,0,0,0,0,0,0,0,0,0,0,0,0,0,0,0,0,0,0,0,0,0,0,0,0,0,0,0,0,0,0,0,0,0,0,0,0,0,0,0,0,0,0,0,0,0,0,0,0,0,0,0,0,0,0,0,0,0,0,0,0,0,0,0,0,0,0,0,0,0,0,0,0,0,0,0,0,0,0,0,0,0,0,0,0,0,0,0,0,0,0,0,0,0,0,0,0,0,0,0,0,0,0,0,0,0,0,0,0,0,0,0,0,0,0,0,0,0,0,0,0,0,0,0,0,0,0,0,0,0,0,0,0,0,0,0,0,0,0,0,0,0,
0,0,0,0,0,0,0,0,0,0,0,0,0,0,0,0,0,0,0,0,0,0,0,0,0,0,0,0,0,0,0,0,0,0,0,0,0,0,0,0,0,0,0,0,0,0,0,0,0,0,0,0,0,0,0,0,0,0,0,0,0,0,0,0,0,0,0,0,0,0,0,0,0,0,0,0,0,0,0,0,0,0,0,0,0,0,0,0,0,0,0,0,0,0,0,0,0,0,0,0,0,0,0,0,0,0,0,0,0,0,0,0,0,0,0,0,0,0,0,0,0,0,0,0,0,0,0,0,0,0,0,0,0,0,0,0,0,0,0,0,0,0,0,0,0,0,0,0,0,0,0,0,0,0,0,0,0,0,0,0,0,0,0,0,0,0,0,0,0,0,0,0,0,0,0,0,0,0,0,0,0,0,0,0,0,0,0,0,0,0,0,0,0,0,0,0,0,0,0,0,0,0,0,0,0,0,0,0,0,0,0,0,0,0,0,0,0,0,0,0,0,0,0,0,0,0,0,0,0,0,0,0,0,0,0,0,0,0,0,0,0,0,0,0,0,0,0,0,0,0,0,0,0,0,0,0,
0,0,0,0,0,0,0,0,0,0,0,0,0,0,0,0,0,0,0,0,0,0,0,0,0,0,0,0,0,0,0,0,0,0,0,0,0,0,0,0,0,0,0,0,0,0,0,0,0,0,0,0,0,0,0,0,0,0,0,0,0,0,0,0,0,0,0,0,0,0,0,0,0,0,0,0,0,0,0,0,0,0,0,0,0,0,0,0,0,0,0,0,0,0,0,0,0,0,0,0,0,0,0,0,0,0,0,0,0,0,0,0,0,0,0,0,0,0,0,0,0,0,0,0,0,0,0,0,0,0,0,0,0,0,0,0,0,0,0,0,0,0,0,0,0,0,0,0,0,0,0,0,0,0,0,0,0,0,0,0,0,0,0,0,0,0,0,0,0,0,0,0,0,0,0,0,0,0,0,0,0,0,0,0,0,0,0,0,0,0,0,0,0,0,0,0,0,0,0,0,0,0,0,0,0,0,0,0,0,0,0,0,0,0,0,0,0,0,0,0,0,0,0,0,0,0,0,0,0,0,0,0,0,0,0,0,0,0,0,0,0,0,0,0,0,0,0,0,0,0,0,0,0,0,0,0,
0,0,0,0,0,0,0,0,0,0,0,0,0,0,0,0,0,0,0,0,0,0,0,0,0,0,0,0,0,0,0,0,0,0,0,0,0,0,0,0,0,0,0,0,0,0,0,0,0,0,0,0,0,0,0,0,0,0,0,0,0,0,0,0,0,0,0,0,0,0,0,0,0,0,0,0,0,0,0,0,0,0,0,0,0,0,0,0,0,0,0,0,0,0,0,0,0,0,0,0,0,0,0,0,0,0,0,0,0,0,0,0,0,0,0,0,0,0,0,0,0,0,0,0,0,0,0,0,0,0,0,0,0,0,0,0,0,0,0,0,0,0,0,0,0,0,0,0,0,0,0,0,0,0,0,0,0,0,0,0,0,0,0,0,0,0,0,0,0,0,0,0,0,0,0,0,0,0,0,0,0,0,0,0,0,0,0,0,0,0,0,0,0,0,0,0,0,0,0,0,0,0,0,0,0,0,0,0,0,0,0,0,0,0,0,0,0,0,0,0,0,0,0,0,0,0,0,0,0,0,0,0,0,0,0,0,0,0,0,0,0,0,0,0,0,0,0,0,0,0,0,0,0,0,0,0,
0,0,0,0,0,0,0,0,0,0,0,0,0,0,0,0,0,0,0,0,0,0,0,0,0,0,0,0,0,0,0,0,0,0,0,0,0,0,0,0,0,0,0,0,0,0,0,0,0,0,0,0,0,0,0,0,0,0,0,0,0,0,0,0,0,0,0,0,0,0,0,0,0,0,0,0,0,0,0,0,0,0,0,0,0,0,0,0,0,0,0,0,0,0,0,0,0,0,0,0,0,0,0,0,0,0,0,0,0,0,0,0,0,0,0,0,0,0,0,0,0,0,0,0,0,0,0,0,0,0,0,0,0,0,0,0,0,0,0,0,0,0,0,0,0,0,0,0,0,0,0,0,0,0,0,0,0,0,0,0,0,0,0,0,0,0,0,0,0,0,0,0,0,0,0,0,0,0,0,0,0,0,0,0,0,0,0,0,0,0,0,0,0,0,0,0,0,0,0,0,0,0,0,0,0,0,0,0,0,0,0,0,0,0,0,0,0,0,0,0,0,0,0,0,0,0,0,0,0,0,0,0,0,0,0,0,0,0,0,0,0,0,0,0,0,0,0,0,0,0,0,0,0,0,0,0,
0,0,0,0,0,0,0,0,0,0,0,0,0,0,0,0,0,0,0,0,0,0,0,0,0,0,0,0,0,0,0,0,0,0,0,0,0,0,0,0,0,0,0,0,0,0,0,0,0,0,0,0,0,0,0,0,0,0,0,0,0,0,0,0,0,0,0,0,0,0,0,0,0,0,0,0,0,0,0,0,0,0,0,0,0,0,0,0,0,0,0,0,0,0,0,0,0,0,0,0,0,0,0,0,0,0,0,0,0,0,0,0,0,0,0,0,0,0,0,0,0,0,0,0,0,0,0,0,0,0,0,0,0,0,0,0,0,0,0,0,0,0,0,0,0,0,0,0,0,0,0,0,0,0,0,0,0,0,0,0,0,0,0,0,0,0,0,0,0,0,0,0,0,0,0,0,0,0,0,0,0,0,0,0,0,0,0,0,0,0,0,0,0,0,0,0,0,0,0,0,0,0,0,0,0,0,0,0,0,0,0,0,0,0,0,0,0,0,0,0,0,0,0,0,0,0,0,0,0,0,0,0,0,0,0,0,0,0,0,0,0,0,0,0,0,0,0,0,0,0,0,0,0,0,0,0,
0,0,0,0,0,0,0,0,0,0,0,0,0,0,0,0,0,0,0,0,0,0,0,0,0,0,0,0,0,0,0,0,0,0,0,0,0,0,0,0,0,0,0,0,0,0,0,0,0,0,0,0,0,0,0,0,0,0,0,0,0,0,0,0,0,0,0,0,0,0,0,0,0,0,0,0,0,0,0,0,0,0,0,0,0,0,0,0,0,0,0,0,0,0,0,0,0,0,0,0,0,0,0,0,0,0,0,0,0,0,0,0,0,0,0,0,0,0,0,0,0,0,0,0,0,0,0,0,0,0,0,0,0,0,0,0,0,0,0,0,0,0,0,0,0,0,0,0,0,0,0,0,0,0,0,0,0,0,0,0,0,0,0,0,0,0,0,0,0,0,0,0,0,0,0,0,0,0,0,0,0,0,0,0,0,0,0,0,0,0,0,0,0,0,0,0,0,0,0,0,0,0,0,0,0,0,0,0,0,0,0,0,0,0,0,0,0,0,0,0,0,0,0,0,0,0,0,0,0,0,0,0,0,0,0,0,0,0,0,0,0,0,0,0,0,0,0,0,0,0,0,0,0,0,0,0,
0,0,0,0,0,0,0,0,0,0,0,0,0,0,0,0,0,0,0,0,0,0,0,0,0,0,0,0,0,0,0,0,0,0,0,0,0,0,0,0,0,0,0,0,0,0,0,0,0,0,0,0,0,0,0,0,0,0,0,0,0,0,0,0,0,0,0,0,0,0,0,0,0,0,0,0,0,0,0,0,0,0,0,0,0,0,0,0,0,0,0,0,0,0,0,0,0,0,0,0,0,0,0,0,0,0,0,0,0,0,0,0,0,0,0,0,0,0,0,0,0,0,0,0,0,0,0,0,0,0,0,0,0,0,0,0,0,0,0,0,0,0,0,0,0,0,0,0,0,0,0,0,0,0,0,0,0,0,0,0,0,0,0,0,0,0,0,0,0,0,0,0,0,0,0,0,0,0,0,0,0,0,0,0,0,0,0,0,0,0,0,0,0,0,0,0,0,0,0,0,0,0,0,0,0,0,0,0,0,0,0,0,0,0,0,0,0,0,0,0,0,0,0,0,0,0,0,0,0,0,0,0,0,0,0,0,0,0,0,0,0,0,0,0,0,0,0,0,0,0,0,0,0,0,0,0,
0,0,0,0,0,0,0,0,0,0,0,0,0,0,0,0,0,0,0,0,0,0,0,0,0,0,0,0,0,0,0,0,0,0,0,0,0,0,0,0,0,0,0,0,0,0,0,0,0,0,0,0,0,0,0,0,0,0,0,0,0,0,0,0,0,0,0,0,0,0,0,0,0,0,0,0,0,0,0,0,0,0,0,0,0,0,0,0,0,0,0,0,0,0,0,0,0,0,0,0,0,0,0,0,0,0,0,0,0,0,0,0,0,0,0,0,0,0,0,0,0,0,0,0,0,0,0,0,0,0,0,0,0,0,0,0,0,0,0,0,0,0,0,0,0,0,0,0,0,0,0,0,0,0,0,0,0,0,0,0,0,0,0,0,0,0,0,0,0,0,0,0,0,0,0,0,0,0,0,0,0,0,0,0,0,0,0,0,0,0,0,0,0,0,0,0,0,0,0,0,0,0,0,0,0,0,0,0,0,0,0,0,0,0,0,0,0,0,0,0,0,0,0,0,0,0,0,0,0,0,0,0,0,0,0,0,0,0,0,0,0,0,0,0,0,0,0,0,0,0,0,0,0,0,0,0,
0,0,0,0,0,0,0,0,0,0,0,0,0,0,0,0,0,0,0,0,0,0,0,0,0,0,0,0,0,0,0,0,0,0,0,0,0,0,0,0,0,0,0,0,0,0,0,0,0,0,0,0,0,0,0,0,0,0,0,0,0,0,0,0,0,0,0,0,0,0,0,0,0,0,0,0,0,0,0,0,0,0,0,0,0,0,0,0,0,0,0,0,0,0,0,0,0,0,0,0,0,0,0,0,0,0,0,0,0,0,0,0,0,0,0,0,0,0,0,0,0,0,0,0,0,0,0,0,0,0,0,0,0,0,0,0,0,0,0,0,0,0,0,0,0,0,0,0,0,0,0,0,0,0,0,0,0,0,0,0,0,0,0,0,0,0,0,0,0,0,0,0,0,0,0,0,0,0,0,0,0,0,0,0,0,0,0,0,0,0,0,0,0,0,0,0,0,0,0,0,0,0,0,0,0,0,0,0,0,0,0,0,0,0,0,0,0,0,0,0,0,0,0,0,0,0,0,0,0,0,0,0,0,0,0,0,0,0,0,0,0,0,0,0,0,0,0,0,0,0,0,0,0,0,0,0,
0,0,0,0,0,0,0,0,0,0,0,0,0,0,0,0,0,0,0,0,0,0,0,0,0,0,0,0,0,0,0,0,0,0,0,0,0,0,0,0,0,0,0,0,0,0,0,0,0,0,0,0,0,0,0,0,0,0,0,0,0,0,0,0,0,0,0,0,0,0,0,0,0,0,0,0,0,0,0,0,0,0,0,0,0,0,0,0,0,0,0,0,0,0,0,0,0,0,0,0,0,0,0,0,0,0,0,0,0,0,0,0,0,0,0,0,0,0,0,0,0,0,0,0,0,0,0,0,0,0,0,0,0,0,0,0,0,0,0,0,0,0,0,0,0,0,0,0,0,0,0,0,0,0,0,0,0,0,0,0,0,0,0,0,0,0,0,0,0,0,0,0,0,0,0,0,0,0,0,0,0,0,0,0,0,0,0,0,0,0,0,0,0,0,0,0,0,0,0,0,0,0,0,0,0,0,0,0,0,0,0,0,0,0,0,0,0,0,0,0,0,0,0,0,0,0,0,0,0,0,0,0,0,0,0,0,0,0,0,0,0,0,0,0,0,0,0,0,0,0,0,0,0,0,0,0,
0,0,0,0,0,0,0,0,0,0,0,0,0,0,0,0,0,0,0,0,0,0,0,0,0,0,0,0,0,0,0,0,0,0,0,0,0,0,0,0,0,0,0,0,0,0,0,0,0,0,0,0,0,0,0,0,0,0,0,0,0,0,0,0,0,0,0,0,0,0,0,0,0,0,0,0,0,0,0,0,0,0,0,0,0,0,0,0,0,0,0,0,0,0,0,0,0,0,0,0,0,0,0,0,0,0,0,0,0,0,0,0,0,0,0,0,0,0,0,0,0,0,0,0,0,0,0,0,0,0,0,0,0,0,0,0,0,0,0,0,0,0,0,0,0,0,0,0,0,0,0,0,0,0,0,0,0,0,0,0,0,0,0,0,0,0,0,0,0,0,0,0,0,0,0,0,0,0,0,0,0,0,0,0,0,0,0,0,0,0,0,0,0,0,0,0,0,0,0,0,0,0,0,0,0,0,0,0,0,0,0,0,0,0,0,0,0,0,0,0,0,0,0,0,0,0,0,0,0,0,0,0,0,0,0,0,0,0,0,0,0,0,0,0,0,0,0,0,0,0,0,0,0,0,0,0
</data>
 </layer>
 <layer id="4" name="walls" width="256" height="128">
  <data encoding="csv">
1374,1373,1368,1371,1366,1364,1371,1368,1369,1374,1373,1365,1367,1365,1364,1371,1369,1366,1370,1369,1373,1373,1364,1365,1371,1372,1367,1374,1370,1372,1373,1364,1374,1373,1371,1366,1364,1370,1365,1371,1367,1367,1374,1372,1365,1366,1367,1367,1373,1373,1367,1366,1373,1373,1367,1369,1366,1374,1370,1365,1373,1369,1368,1370,1365,1373,1368,1364,1369,1368,1371,1366,1366,1367,1369,1365,1371,1372,1365,1365,1370,1373,1367,1372,1372,1370,1365,1365,1366,1370,1373,1373,1369,1367,1374,1369,1374,1367,1369,1364,1367,1369,1368,1367,1372,1367,1367,1364,1374,1369,1364,1370,1370,1372,1372,1367,1369,1364,1364,1365,1374,1374,1373,1364,1369,1364,1370,1372,1370,1372,1369,1372,1367,1369,1372,1371,1371,1372,1368,1369,1369,1374,1366,1368,1364,1370,1365,1371,1367,1365,1374,1365,1374,1367,1368,1368,1373,1369,1367,1370,1373,1373,1367,1367,1365,1372,1373,1366,1368,1369,1366,1371,1371,1364,1373,1364,1374,1372,1371,1369,1368,1374,1370,1373,1364,1369,1365,1370,1368,1369,1366,1367,1368,1365,1371,1371,1369,1373,1371,1366,1364,1368,1371,1369,1369,1367,1374,1370,1374,1372,1371,1367,1371,1372,1371,1372,1366,1367,1370,1371,1367,1372,1372,1369,1364,1368,1372,1365,1366,1371,1373,1369,1372,1369,1374,1368,1373,1366,1370,1367,1372,1369,1373,1365,1366,1372,1370,1371,1369,1367,1367,1371,1365,1373,1374,1365,
1150,1151,1346,1347,1586,1587,1588,1586,1587,1588,1154,1155,1150,1151,1150,1151,1154,1155,1196,1197,1198,1199,1346,1347,1152,1153,1196,1197,1198,1199,1152,1153,1196,1197,1198,1199,1152,1153,1152,1153,1148,1149,1589,1590,1591,1196,1197,1198,1199,1196,1197,1198,1199,1589,1590,1591,1148,1149,1589,1590,1591,1196,1197,1198,1199,1148,1149,1586,1587,1588,1154,1155,1200,1201,1202,1203,1148,1149,1152,1153,1583,1584,1585,1589,1590,1591,1580,1581,1582,1580,1581,1582,1583,1584,1585,1150,1151,1346,1347,1586,1587,1588,1580,1581,1582,1152,1153,1589,1590,1591,1200,1201,1202,1203,1150,1151,1586,1587,1588,1148,1149,1580,1581,1582,1150,1151,1148,1149,1346,1347,1196,1197,1198,1199,1580,1581,1582,1589,1590,1591,1148,1149,1580,1581,1582,1150,1151,1583,1584,1585,1580,1581,1582,1152,1153,1154,1155,1346,1347,1152,1153,1346,1347,1152,1153,1154,1155,1152,1153,1583,1584,1585,1586,1587,1588,1580,1581,1582,1346,1347,1346,1347,1200,1201,1202,1203,1583,1584,1585,1200,1201,1202,1203,1150,1151,1148,1149,1346,1347,1200,1201,1202,1203,1583,1584,1585,1346,1347,1589,1590,1591,1583,1584,1585,1586,1587,1588,1589,1590,1591,1580,1581,1582,1154,1155,1148,1149,1152,1153,1196,1197,1198,1199,1589,1590,1591,1196,1197,1198,1199,1580,1581,1582,1580,1581,1582,1200,1201,1202,1203,1580,1581,1582,1346,1347,1374,
1374,1374,1369,1374,1610,1611,1612,1610,1611,1612,1373,1365,1374,1367,1371,1366,1368,1365,1220,1221,1222,1223,1367,1372,1364,1371,1220,1221,1222,1223,1374,1367,1220,1221,1222,1223,1367,1365,1366,1367,1366,1369,1613,1614,1615,1220,1221,1222,1223,1220,1221,1222,1223,1613,1614,1615,1367,1368,1613,1614,1615,1220,1221,1222,1223,1365,1373,1610,1611,1612,1364,1367,1224,1225,1226,1227,1369,1373,1367,1366,1607,1608,1609,1613,1614,1615,1604,1605,1606,1604,1605,1606,1607,1608,1609,1370,1370,1367,1370,1610,1611,1612,1604,1605,1606,1373,1367,1613,1614,1615,1224,1225,1226,1227,1374,1374,1610,1611,1612,1368,1374,1604,1605,1606,1372,1374,1370,1366,1369,1371,1220,1221,1222,1223,1604,1605,1606,1613,1614,1615,1368,1366,1604,1605,1606,1369,1364,1607,1608,1609,1604,1605,1606,1371,1371,1371,1373,1367,1369,1364,1372,1370,1367,1374,1366,1365,1368,1364,1368,1607,1608,1609,1610,1611,1612,1604,1605,1606,1368,1367,1369,1364,1224,1225,1226,1227,1607,1608,1609,1224,1225,1226,1227,1366,1368,1368,1372,1364,1374,1224,1225,1226,1227,1607,1608,1609,1373,1372,1613,1614,1615,1607,1608,1609,1610,1611,1612,1613,1614,1615,1604,1605,1606,1367,1368,1374,1366,1365,1370,1220,1221,1222,1223,1613,1614,1615,1220,1221,1222,1223,1604,1605,1606,1604,1605,1606,1224,1225,1226,1227,1604,1605,1606,1369,1368,1366,
1196,1197,1198,1199,0,0,0,0,0,0,1580,1581,1582,1346,1347,1152,1153,0,0,0,0,0,1150,1151,1154,1155,0,0,0,0,1150,1151,0,0,0,0,1152,1153,1152,1153,1150,1151,0,0,0,0,0,0,0,0,0,0,0,0,0,0,1152,1153,0,0,0,0,0,0,0,1154,1155,0,0,0,1150,1151,0,0,0,0,1152,1153,1148,1149,0,0,0,0,0,0,0,0,0,0,0,0,0,0,0,1196,1197,1198,1199,0,0,0,0,0,0,1154,1155,0,0,0,0,0,0,0,1150,1151,0,0,0,1150,1151,0,0,0,1346,1347,1346,1347,1346,1347,0,0,0,0,0,0,0,0,0,0,1148,1149,0,0,0,1154,1155,0,0,0,0,0,0,1152,1153,1346,1347,1150,1151,1580,1581,1582,1580,1581,1582,1150,1151,1346,1347,0,0,0,0,0,0,0,0,0,1148,1149,1152,1153,0,0,0,0,0,0,0,0,0,0,0,1580,1581,1582,1150,1151,0,0,0,0,0,0,0,0,1346,1347,0,0,0,0,0,0,0,0,0,0,0,0,0,0,0,1152,1153,1200,1201,1202,1203,0,0,0,0,0,0,0,0,0,0,0,0,0,0,0,0,0,0,0,0,0,0,0,0,1346,1347,1366,
1220,1221,1222,1223,1152,1153,0,1346,1347,0,1604,1605,1606,0,0,0,0,1148,1149,0,1152,1153,0,0,0,0,1196,1197,1198,1199,0,0,1148,1149,1150,1151,0,0,0,0,0,0,0,1346,1347,1200,1201,1202,1203,1148,1149,1152,1153,1346,1347,0,0,0,1346,1347,1346,1347,1346,1347,0,0,0,1152,1153,0,0,0,1196,1197,1198,1199,0,0,0,0,1200,1201,1202,1203,1200,1201,1202,1203,1152,1153,1148,1149,1152,1153,0,1220,1221,1222,1223,1152,1153,0,0,0,0,0,0,0,0,0,0,0,0,0,0,0,0,0,0,0,0,0,0,0,0,0,0,0,0,0,1152,1153,1346,1347,1150,1151,1196,1197,1198,1199,0,0,1150,1151,0,0,0,1148,1149,1152,1153,1148,1149,0,0,0,0,0,0,1604,1605,1606,1604,1605,1606,0,0,0,0,0,1152,1153,1152,1153,1200,1201,1202,1203,0,0,0,0,1152,1153,1346,1347,1196,1197,1198,1199,0,1152,1153,1604,1605,1606,0,0,1346,1347,0,0,1200,1201,1202,1203,0,0,1200,1201,1202,1203,1346,1347,1150,1151,1152,1153,0,1150,1151,1152,1153,0,0,1224,1225,1226,1227,1196,1197,1198,1199,1152,1153,1150,1151,0,0,1150,1151,0,1150,1151,1152,1153,1196,1197,1198,1199,0,0,0,1373,1364,1369,
1364,1372,1372,0,0,0,0,0,0,0,0,0,0,1152,1153,1150,1151,0,0,0,0,0,1200,1201,1202,1203,1220,1221,1222,1223,1346,1347,0,0,0,0,1150,1151,1200,1201,1202,1203,0,0,0,1224,1225,1226,1227,0,0,0,0,0,0,1152,1153,0,0,0,0,0,0,0,1150,1151,0,0,0,1346,1347,0,1220,1221,1222,1223,1148,1149,0,0,1224,1225,1226,1227,1224,1225,1226,1227,0,0,0,0,0,0,0,0,0,0,0,0,0,0,0,0,0,0,0,0,0,0,0,0,0,0,0,0,0,0,0,0,1148,1149,0,1200,1201,1202,1203,1346,1347,0,0,0,0,0,0,0,1220,1221,1222,1223,1152,1153,0,0,1150,1151,0,0,0,0,0,0,0,1150,1151,1200,1201,1202,1203,0,0,0,0,0,0,0,1196,1197,1198,1199,0,0,0,0,1224,1225,1226,1227,1196,1197,1198,1199,0,0,0,0,1220,1221,1222,1223,0,0,0,0,0,0,1152,1153,0,0,1148,1149,1224,1225,1226,1227,1150,1151,1224,1225,1226,1227,0,0,0,0,0,0,0,0,0,0,0,0,0,0,0,0,0,1220,1221,1222,1223,0,0,0,0,1152,1153,0,0,0,0,0,0,0,1220,1221,1222,1223,0,0,0,1583,1584,1585,
1346,1347,1154,1155,1152,1153,1152,1153,0,1148,1149,0,0,0,0,0,0,1148,1149,0,1148,1149,1224,1225,1226,1227,0,0,0,0,0,0,0,1148,1149,0,0,0,1224,1225,1226,1227,0,1148,1149,0,0,0,0,1346,1347,1148,1149,1150,1151,0,0,1346,1347,1148,1149,1150,1151,0,0,0,0,0,0,0,0,0,0,0,0,0,0,0,1152,1153,0,0,0,0,0,0,0,0,1152,1153,0,1346,1347,1200,1201,1202,1203,1200,1201,1202,1203,0,0,0,0,0,0,0,0,0,0,0,0,0,1200,1201,1202,1203,1150,1151,0,0,0,1224,1225,1226,1227,0,0,1150,1151,0,0,1148,1149,0,0,0,0,0,0,0,1148,1149,0,0,1152,1153,1196,1197,1198,1199,0,0,0,1224,1225,1226,1227,1152,1153,1346,1347,1346,1347,0,1220,1221,1222,1223,1150,1151,1152,1153,0,0,0,0,1220,1221,1222,1223,0,1148,1149,0,0,0,0,0,0,0,1150,1151,1346,1347,0,0,1150,1151,0,0,0,0,0,0,0,0,0,0,0,0,1152,1153,1148,1149,1150,1151,1150,1151,1148,1149,1200,1201,1202,1203,1152,1153,0,0,0,0,0,1200,1201,1202,1203,0,0,1196,1197,1198,1199,0,1152,1153,0,0,0,0,1152,1153,0,1607,1608,1609,
1369,1366,1373,0,0,0,0,0,0,0,0,1200,1201,1202,1203,1148,1149,0,0,0,0,0,0,0,0,0,1150,1151,0,1346,1347,1150,1151,0,0,1346,1347,0,0,0,0,0,0,0,0,1200,1201,1202,1203,0,0,0,0,0,0,1148,1149,0,0,0,0,0,0,0,1200,1201,1202,1203,0,0,0,1148,1149,1148,1149,1346,1347,0,0,0,1196,1197,1198,1199,1200,1201,1202,1203,0,0,0,0,0,1224,1225,1226,1227,1224,1225,1226,1227,0,0,0,0,0,0,0,0,0,0,0,1346,1347,1224,1225,1226,1227,0,0,1150,1151,0,0,0,0,0,1148,1149,0,0,0,0,0,0,1150,1151,1148,1149,1346,1347,0,0,0,0,0,0,0,1220,1221,1222,1223,0,0,0,0,0,0,0,0,0,0,0,0,0,0,0,0,0,0,0,0,0,0,1150,1151,1150,1151,0,0,0,0,0,0,0,0,1200,1201,1202,1203,1150,1151,0,0,0,0,0,0,0,0,1148,1149,1196,1197,1198,1199,1148,1149,1152,1153,0,0,0,0,0,0,0,0,0,0,0,0,1224,1225,1226,1227,0,0,1152,1153,1152,1153,0,1224,1225,1226,1227,1150,1151,1220,1221,1222,1223,0,0,0,1196,1197,1198,1199,0,0,0,1368,1371,1373,
1148,1149,1346,1347,0,0,1152,1153,0,1346,1347,1224,1225,1226,1227,0,0,1152,1153,0,1346,1347,1346,1347,1346,1347,0,0,0,0,0,0,0,1346,1347,0,0,1196,1197,1198,1199,0,1150,1151,0,1224,1225,1226,1227,0,1196,1197,1198,1199,0,0,0,1148,1149,1346,1347,0,1152,1153,1224,1225,1226,1227,0,0,0,0,0,0,0,0,0,0,1150,1151,1220,1221,1222,1223,1224,1225,1226,1227,1150,1151,1148,1149,0,0,0,0,0,0,0,0,0,0,0,0,0,0,0,0,0,0,1346,1347,0,0,0,0,0,0,1346,1347,0,0,1346,1347,1152,1153,0,0,0,1196,1197,1198,1199,1150,1151,0,0,0,0,0,0,1152,1153,1152,1153,1152,1153,0,0,0,0,0,1200,1201,1202,1203,1152,1153,1150,1151,1200,1201,1202,1203,1150,1151,1346,1347,1346,1347,0,1152,1153,0,0,0,0,0,1150,1151,1346,1347,1148,1149,0,0,1224,1225,1226,1227,0,0,1148,1149,1152,1153,1150,1151,1346,1347,0,0,1220,1221,1222,1223,0,0,0,0,1196,1197,1198,1199,1148,1149,1152,1153,1196,1197,1198,1199,0,0,0,0,1152,1153,0,0,0,0,0,0,0,0,0,0,0,0,0,0,0,1150,1151,0,1220,1221,1222,1223,1152,1153,0,1583,1584,1585,
1368,1371,1366,0,0,0,0,0,0,0,0,0,0,0,0,1148,1149,0,0,0,0,0,0,0,0,0,1148,1149,1148,1149,1148,1149,0,0,0,1152,1153,1220,1221,1222,1223,0,0,0,0,0,0,0,0,0,1220,1221,1222,1223,0,0,0,0,0,0,0,0,0,0,0,0,0,0,0,0,0,0,0,0,0,0,0,0,0,0,0,0,0,0,0,0,0,0,0,0,0,0,0,1346,1347,0,1150,1151,1152,1153,0,0,0,0,0,0,0,0,0,0,0,0,1196,1197,1198,1199,1148,1149,0,0,0,0,0,0,0,0,1148,1149,0,1220,1221,1222,1223,0,0,1346,1347,1346,1347,1150,1151,0,0,0,0,0,0,1346,1347,1148,1149,0,1224,1225,1226,1227,0,0,0,0,1224,1225,1226,1227,0,0,0,0,0,0,0,0,0,1200,1201,1202,1203,0,0,0,0,0,0,0,1152,1153,0,0,0,0,1346,1347,0,0,0,0,0,0,0,0,0,0,0,0,0,0,0,0,0,0,1220,1221,1222,1223,0,0,0,0,1220,1221,1222,1223,1196,1197,1198,1199,0,0,1152,1153,1152,1153,1152,1153,0,1196,1197,1198,1199,1200,1201,1202,1203,0,0,0,0,0,0,0,0,0,0,1607,1608,1609,
1148,1149,1200,1201,1202,1203,1196,1197,1198,1199,1148,1149,0,1150,1151,0,0,1150,1151,1152,1153,0,0,1150,1151,0,0,0,0,0,0,0,1148,1149,0,0,0,0,0,0,0,1196,1197,1198,1199,1148,1149,0,0,0,0,0,0,0,1196,1197,1198,1199,1196,1197,1198,1199,1196,1197,1198,1199,0,0,0,0,0,0,0,0,0,0,0,0,1196,1197,1198,1199,1150,1151,0,0,0,1346,1347,0,1148,1149,0,0,0,0,0,0,0,0,1148,1149,0,0,0,0,0,0,0,0,1152,1153,1220,1221,1222,1223,0,0,1196,1197,1198,1199,1150,1151,0,0,0,0,0,0,0,0,0,1148,1149,0,0,0,0,0,0,0,0,1196,1197,1198,1199,0,0,0,0,0,0,0,0,0,0,1346,1347,0,0,0,0,0,0,1200,1201,1202,1203,0,1152,1153,0,1224,1225,1226,1227,0,1200,1201,1202,1203,1346,1347,0,0,1152,1153,0,0,0,0,0,1200,1201,1202,1203,1346,1347,1150,1151,1346,1347,1200,1201,1202,1203,1148,1149,0,0,0,0,0,1196,1197,1198,1199,0,0,0,0,1220,1221,1222,1223,1346,1347,0,0,0,0,0,0,0,1220,1221,1222,1223,1224,1225,1226,1227,1152,1153,0,1346,1347,0,1200,1201,1202,1203,1371,1370,1366,
1372,1370,1224,1225,1226,1227,1220,1221,1222,1223,0,0,0,0,0,0,0,0,0,0,0,0,0,0,0,1152,1153,1346,1347,1346,1347,0,0,0,0,0,1148,1149,0,0,0,1220,1221,1222,1223,0,0,0,0,0,0,0,0,0,1220,1221,1222,1223,1220,1221,1222,1223,1220,1221,1222,1223,0,0,0,0,0,0,0,0,0,0,0,0,1220,1221,1222,1223,0,0,1152,1153,0,0,0,0,0,0,0,0,0,0,0,0,1346,1347,0,0,0,1346,1347,0,0,0,0,0,0,0,0,0,0,0,1346,1347,1220,1221,1222,1223,0,0,1152,1153,0,1150,1151,0,1152,1153,0,0,0,0,0,1346,1347,1152,1153,1152,1153,1220,1221,1222,1223,1148,1149,1150,1151,1196,1197,1198,1199,1150,1151,0,0,1196,1197,1198,1199,1148,1149,1224,1225,1226,1227,0,0,0,0,0,0,0,0,0,1224,1225,1226,1227,0,0,0,0,0,0,0,1200,1201,1202,1203,1224,1225,1226,1227,0,0,0,0,0,0,1224,1225,1226,1227,0,0,0,1200,1201,1202,1203,1220,1221,1222,1223,0,1152,1153,0,0,0,0,0,0,0,1200,1201,1202,1203,1150,1151,0,0,0,0,0,0,0,0,0,0,0,0,0,0,0,1224,1225,1226,1227,1346,1347,1371,
1152,1153,1370,0,0,0,0,0,0,0,1152,1153,0,1148,1149,1196,1197,1198,1199,0,0,0,0,1150,1151,0,0,0,0,0,0,0,1200,1201,1202,1203,0,0,1346,1347,0,0,0,0,0,1148,1149,0,0,0,0,0,0,0,0,0,0,0,0,0,0,0,0,0,0,0,0,0,0,0,0,0,0,0,0,0,0,0,0,0,0,0,0,0,0,0,0,0,0,1148,1149,0,0,0,0,0,0,0,0,0,0,1346,1347,0,0,0,0,0,0,1148,1149,0,1346,1347,1152,1153,0,0,0,0,0,0,1150,1151,0,0,0,0,0,0,0,0,1150,1151,0,1346,1347,0,0,0,0,0,0,0,0,0,0,0,0,0,0,1220,1221,1222,1223,0,0,1346,1347,1220,1221,1222,1223,0,0,0,0,0,0,1346,1347,0,1196,1197,1198,1199,1148,1149,0,0,0,0,0,1200,1201,1202,1203,1152,1153,1224,1225,1226,1227,0,0,0,0,1200,1201,1202,1203,1148,1149,0,0,0,0,1346,1347,0,1224,1225,1226,1227,0,0,0,0,0,0,0,0,0,1150,1151,1150,1151,0,1224,1225,1226,1227,0,0,1196,1197,1198,1199,0,1200,1201,1202,1203,1196,1197,1198,1199,1148,1149,0,0,0,0,1370,1371,1367,
1374,1373,1196,1197,1198,1199,1148,1149,0,0,0,0,0,0,0,1220,1221,1222,1223,0,1346,1347,0,0,0,1150,1151,1196,1197,1198,1199,0,1224,1225,1226,1227,0,0,0,0,0,0,0,1152,1153,0,0,0,0,0,0,0,0,0,0,0,0,0,0,0,0,0,0,0,0,0,0,0,0,0,0,0,0,0,0,0,1152,1153,0,1152,1153,1150,1151,0,0,1148,1149,0,0,0,0,0,0,0,0,0,0,0,0,1346,1347,0,0,1150,1151,1152,1153,0,0,0,0,0,0,0,0,0,1150,1151,1346,1347,0,0,0,0,1196,1197,1198,1199,1196,1197,1198,1199,0,0,0,0,0,0,1150,1151,0,0,0,0,0,0,1152,1153,0,0,0,0,0,0,0,1152,1153,0,0,0,0,0,0,1200,1201,1202,1203,1152,1153,0,0,0,1220,1221,1222,1223,0,0,0,0,0,1152,1153,1224,1225,1226,1227,0,0,0,0,0,0,0,1152,1153,0,1224,1225,1226,1227,0,0,0,0,1346,1347,0,0,0,0,0,0,0,1196,1197,1198,1199,0,1200,1201,1202,1203,0,0,0,0,0,0,0,0,0,1346,1347,1220,1221,1222,1223,0,1224,1225,1226,1227,1220,1221,1222,1223,0,0,1346,1347,1152,1153,1152,1153,1370,
1150,1151,1220,1221,1222,1223,0,0,1346,1347,0,0,1346,1347,0,0,0,0,0,0,0,0,1346,1347,0,0,0,1220,1221,1222,1223,0,0,0,0,0,0,1346,1347,0,1150,1151,0,0,0,1196,1197,1198,1199,0,0,0,0,0,0,0,0,0,0,0,0,0,0,0,0,0,0,0,0,0,0,0,0,0,0,0,0,0,0,0,0,0,0,0,0,0,0,1150,1151,1148,1149,1346,1347,0,0,0,1346,1347,0,0,0,1150,1151,0,0,0,0,0,0,0,1196,1197,1198,1199,0,0,0,0,0,0,1196,1197,1198,1199,1220,1221,1222,1223,1220,1221,1222,1223,1148,1149,1152,1153,1152,1153,0,0,0,0,0,0,1346,1347,0,0,1150,1151,0,1346,1347,0,0,0,0,1346,1347,1152,1153,1148,1149,1224,1225,1226,1227,0,0,0,0,0,0,0,0,0,0,0,0,0,0,0,0,0,0,0,0,1196,1197,1198,1199,0,1346,1347,0,0,0,0,0,0,0,0,0,0,0,0,0,0,1346,1347,0,0,1148,1149,1220,1221,1222,1223,0,1224,1225,1226,1227,1200,1201,1202,1203,1150,1151,0,1152,1153,0,0,0,0,0,0,0,0,0,0,0,0,0,0,0,1150,1151,0,0,0,0,1364,1370,1372,
1370,1367,1369,0,0,0,1150,1151,0,0,0,0,0,0,0,1150,1151,0,0,1152,1153,0,0,0,1152,1153,0,0,0,0,0,0,0,0,1346,1347,0,0,0,0,0,0,0,1152,1153,1220,1221,1222,1223,0,0,0,0,0,1346,1347,0,0,0,0,0,0,0,1152,1153,0,0,0,0,0,0,0,0,0,0,0,0,1152,1153,1148,1149,0,1196,1197,1198,1199,0,0,0,0,0,0,0,1148,1149,0,0,0,1150,1151,0,0,0,0,0,0,0,0,0,0,1220,1221,1222,1223,1152,1153,0,0,1346,1347,1220,1221,1222,1223,0,0,0,0,0,0,0,0,0,0,0,0,0,0,1148,1149,0,0,0,0,0,0,0,0,0,0,0,0,0,0,1152,1153,0,0,0,0,0,0,0,0,0,0,0,1148,1149,0,0,1346,1347,1148,1149,0,1346,1347,1200,1201,1202,1203,1150,1151,0,1150,1151,1220,1221,1222,1223,0,0,0,1150,1151,0,0,1200,1201,1202,1203,0,0,0,1152,1153,0,0,0,1152,1153,0,0,0,0,0,0,0,0,0,0,0,1224,1225,1226,1227,0,0,0,0,0,0,0,0,1346,1347,0,1346,1347,0,1346,1347,0,1148,1149,0,0,0,1150,1151,1148,1149,1580,1581,1582,
1148,1149,1152,1153,1152,1153,0,0,0,0,1196,1197,1198,1199,0,0,0,0,0,0,0,0,1148,1149,0,0,0,2040,2041,0,1148,1149,0,0,0,0,1346,1347,1152,1153,0,0,0,0,0,0,0,0,0,0,0,1152,1153,0,0,0,1196,1197,1198,1199,1152,1153,0,0,0,1346,1347,0,0,0,0,0,0,0,0,0,0,0,0,0,0,0,1220,1221,1222,1223,1196,1197,1198,1199,0,0,0,0,0,1148,1149,0,0,0,0,0,0,1152,1153,0,1346,1347,0,0,0,0,0,0,0,0,1148,1149,0,0,0,0,0,0,0,1150,1151,1346,1347,0,0,1196,1197,1198,1199,0,0,0,0,0,0,0,1152,1153,0,1196,1197,1198,1199,0,1152,1153,1152,1153,0,0,0,0,0,0,0,1200,1201,1202,1203,1148,1149,0,0,1150,1151,0,0,0,0,0,0,0,1224,1225,1226,1227,0,0,0,0,0,0,0,0,0,0,1150,1151,0,0,0,0,1224,1225,1226,1227,0,0,0,0,0,0,0,0,0,0,0,1150,1151,1200,1201,1202,1203,0,1346,1347,0,0,0,0,0,0,1152,1153,1196,1197,1198,1199,0,0,0,0,0,0,0,0,0,0,0,0,1150,1151,0,0,0,0,0,1604,1605,1606,
1374,1373,1368,0,0,0,0,0,1152,1153,1220,1221,1222,1223,0,0,0,0,0,1150,1151,0,0,0,0,0,0,0,0,0,0,0,1152,1153,0,0,0,0,0,0,1200,1201,1202,1203,1148,1149,1152,1153,0,1152,1153,0,0,0,1150,1151,1220,1221,1222,1223,0,0,0,0,0,0,0,0,0,0,0,0,0,0,0,0,0,0,1148,1149,0,0,0,0,0,0,1220,1221,1222,1223,0,0,0,0,0,0,0,0,1200,1201,1202,1203,0,0,0,0,0,0,1148,1149,1200,1201,1202,1203,0,0,0,0,0,0,0,1148,1149,1152,1153,0,0,0,0,0,0,1220,1221,1222,1223,1346,1347,0,0,0,0,0,0,0,0,1220,1221,1222,1223,0,0,0,0,0,1200,1201,1202,1203,0,1148,1149,1224,1225,1226,1227,0,0,0,0,0,0,0,0,1152,1153,0,0,0,0,0,0,0,1150,1151,1148,1149,0,1200,1201,1202,1203,0,0,0,0,0,0,0,0,0,0,0,0,1196,1197,1198,1199,0,0,0,0,0,0,0,0,1224,1225,1226,1227,0,0,0,0,1196,1197,1198,1199,0,0,0,1220,1221,1222,1223,0,1196,1197,1198,1199,0,1200,1201,1202,1203,0,0,0,0,1148,1149,1148,1149,0,1373,1370,1372,
1154,1155,1200,1201,1202,1203,1346,1347,0,0,0,0,0,0,1196,1197,1198,1199,0,0,0,0,0,1150,1151,1346,1347,0,0,0,0,0,0,0,1196,1197,1198,1199,0,0,1224,1225,1226,1227,0,0,0,0,0,0,0,1148,1149,0,0,0,0,0,0,0,0,1150,1151,1152,1153,0,1148,1149,0,0,0,0,0,0,0,0,0,0,0,0,0,1196,1197,1198,1199,0,0,0,0,0,1148,1149,0,1150,1151,1346,1347,0,1224,1225,1226,1227,0,0,0,1346,1347,0,0,0,1224,1225,1226,1227,1152,1153,0,1200,1201,1202,1203,0,0,0,0,0,0,1346,1347,0,0,0,0,0,0,0,0,1200,1201,1202,1203,0,0,0,0,0,0,0,0,0,0,1150,1151,0,1224,1225,1226,1227,0,0,0,0,0,0,0,1200,1201,1202,1203,0,0,0,0,0,0,0,1152,1153,1152,1153,0,0,0,0,0,0,0,1224,1225,1226,1227,1200,1201,1202,1203,0,0,1200,1201,1202,1203,0,0,1220,1221,1222,1223,0,0,0,0,0,0,1152,1153,0,0,0,0,0,0,1152,1153,1220,1221,1222,1223,0,1148,1149,0,0,0,0,0,1220,1221,1222,1223,0,1224,1225,1226,1227,1346,1347,0,0,0,0,0,0,0,1148,1149,1370,
1364,1374,1224,1225,1226,1227,0,0,1200,1201,1202,1203,0,0,1220,1221,1222,1223,0,0,0,0,0,0,0,0,0,0,0,0,0,0,0,0,1220,1221,1222,1223,1150,1151,0,0,0,0,0,0,0,1148,1149,0,0,0,0,0,0,0,0,0,0,0,0,0,0,0,0,0,0,0,0,0,0,0,0,0,0,0,0,0,0,1346,1347,1220,1221,1222,1223,1150,1151,0,0,0,0,0,0,0,0,0,0,0,0,0,0,0,0,0,0,0,0,0,1148,1149,0,0,0,0,0,0,0,1224,1225,1226,1227,1152,1153,0,0,0,0,0,0,0,0,0,0,0,0,0,0,1224,1225,1226,1227,0,0,0,0,0,0,0,1150,1151,0,0,0,0,0,0,0,0,0,0,0,0,1346,1347,0,1224,1225,1226,1227,0,0,0,0,0,0,0,0,0,0,0,0,0,1346,1347,0,0,0,0,0,0,0,1224,1225,1226,1227,0,0,1224,1225,1226,1227,0,0,0,0,0,0,0,0,0,0,0,0,0,0,0,1346,1347,0,1346,1347,0,0,0,0,0,0,0,0,0,0,0,0,0,0,0,0,0,0,0,0,0,0,0,0,0,1196,1197,1198,1199,0,0,0,1366,1365,1367,
1150,1151,1371,0,0,0,1152,1153,1224,1225,1226,1227,1148,1149,0,0,0,0,0,0,0,0,0,0,0,0,0,0,0,0,0,0,0,0,0,0,0,0,0,0,0,0,0,0,0,0,0,0,0,0,0,0,0,0,0,0,0,0,0,0,0,0,0,0,0,1150,1151,0,0,0,0,0,0,0,0,0,0,0,0,0,0,0,0,0,0,0,0,0,0,0,0,0,0,0,0,0,0,0,0,0,0,0,0,0,0,0,0,0,0,0,1200,1201,1202,1203,1148,1149,0,0,0,0,0,0,0,0,0,0,0,0,0,0,0,0,0,0,0,0,0,0,0,0,0,0,0,0,0,0,0,0,0,0,0,1200,1201,1202,1203,0,0,0,0,0,0,0,0,0,0,0,0,0,0,0,0,0,0,0,0,0,0,0,0,0,0,0,0,0,0,0,0,0,0,1346,1347,0,0,0,0,0,0,0,0,0,0,0,0,0,0,0,0,0,0,0,0,0,0,0,0,0,0,0,0,0,0,0,0,0,0,0,0,0,0,0,0,0,0,0,0,0,0,0,1148,1149,1200,1201,1202,1203,1346,1347,1220,1221,1222,1223,1148,1149,0,1589,1590,1591,
1372,1372,1150,1151,1346,1347,0,0,0,0,0,0,0,0,0,1196,1197,1198,1199,0,0,0,0,0,0,0,0,0,0,0,0,0,0,0,0,0,0,0,0,0,0,0,0,0,0,0,0,0,0,0,0,0,0,0,0,0,0,0,0,0,0,0,0,0,0,0,0,0,0,0,0,0,0,0,0,0,0,0,0,0,0,0,0,0,0,0,0,0,0,0,0,0,0,0,0,0,0,0,0,0,0,0,0,0,0,0,0,0,0,0,1224,1225,1226,1227,0,0,0,0,0,0,0,0,0,0,0,0,0,0,0,0,0,0,0,0,0,0,0,0,0,0,0,0,0,0,0,0,0,0,0,0,0,1224,1225,1226,1227,0,0,0,0,0,0,0,0,0,0,0,0,0,0,0,0,0,0,0,0,0,0,0,0,0,0,0,0,0,0,0,0,0,0,0,0,0,0,0,0,0,0,0,0,0,0,0,0,0,0,0,0,0,0,0,0,0,0,0,0,0,0,0,0,0,0,0,0,0,0,0,0,0,0,0,0,0,0,0,0,0,0,0,0,0,1224,1225,1226,1227,0,0,0,0,0,0,0,0,0,1613,1614,1615,
1154,1155,1370,0,0,0,0,1196,1197,1198,1199,1196,1197,1198,1199,1220,1221,1222,1223,0,0,0,0,0,0,0,0,0,0,0,0,0,0,0,0,0,0,0,0,0,0,0,0,0,0,0,0,0,0,0,0,0,0,0,0,0,0,0,0,0,0,0,0,0,0,0,0,0,0,0,0,0,0,0,0,0,0,0,0,0,0,0,0,0,0,0,0,0,0,0,0,0,0,0,0,0,0,0,0,0,0,0,0,0,0,0,0,0,0,0,0,0,0,0,0,0,0,0,0,0,0,0,0,0,0,0,0,0,0,0,0,0,0,0,0,0,0,0,0,0,0,0,0,0,0,0,0,0,0,0,0,0,0,0,0,0,0,0,0,0,0,0,0,0,0,0,0,0,0,0,0,0,0,0,0,0,0,0,0,0,0,0,0,0,1388,1388,1388,0,0,0,0,0,0,0,0,0,0,0,0,0,0,0,0,0,0,0,0,0,0,0,0,0,0,0,0,0,0,0,0,0,0,0,0,0,0,0,0,0,0,0,0,0,0,0,0,0,0,0,0,0,0,0,0,0,1200,1201,1202,1203,1150,1151,1150,1151,0,1372,1372,1369,
1371,1372,1200,1201,1202,1203,0,1220,1221,1222,1223,1220,1221,1222,1223,0,0,0,0,0,0,0,0,0,0,0,0,0,0,0,0,0,0,0,0,0,0,0,0,0,0,0,0,0,0,0,0,0,0,0,0,0,0,0,0,0,0,0,0,0,0,0,0,0,0,0,0,0,0,0,0,0,0,0,0,0,0,0,0,0,0,0,0,0,0,0,0,0,0,0,0,0,0,0,0,0,0,0,0,0,0,0,0,0,0,0,0,0,0,0,0,0,0,0,0,0,0,0,0,0,0,0,0,0,0,0,0,0,0,0,0,0,0,0,0,0,0,0,0,0,0,0,0,0,0,0,0,0,0,0,0,0,0,0,0,0,0,0,0,0,0,0,0,0,0,0,0,0,0,0,0,0,0,0,0,0,0,0,0,0,0,0,0,0,1388,1388,1388,0,0,0,0,0,0,0,0,0,0,0,0,0,0,0,0,0,0,0,0,0,0,0,0,0,0,0,0,0,0,0,0,0,0,0,0,0,0,0,0,0,0,0,0,0,0,0,0,0,0,0,0,1148,1149,0,1148,1149,1224,1225,1226,1227,0,0,0,0,0,1586,1587,1588,
1346,1347,1224,1225,1226,1227,0,0,0,0,0,0,0,0,0,0,0,0,0,0,0,0,0,0,0,0,0,0,0,0,0,0,0,0,0,0,0,0,0,0,0,0,0,0,0,0,0,0,0,0,0,0,0,0,0,0,0,0,0,0,0,0,0,0,0,0,0,0,0,0,0,0,0,0,0,0,0,0,0,0,0,0,0,0,0,0,0,0,0,0,0,0,0,0,0,0,0,0,0,0,0,0,0,0,0,0,0,0,0,0,0,0,0,0,0,0,0,0,0,0,0,0,0,0,0,0,0,0,0,0,0,0,0,0,0,0,0,0,0,0,0,0,0,0,0,0,0,0,0,0,0,0,0,0,0,0,0,0,0,0,0,0,0,0,0,0,0,0,0,0,0,0,0,0,0,0,0,0,0,0,0,0,0,0,1388,1388,1388,0,0,0,0,0,0,0,0,0,0,0,0,0,0,0,0,0,0,0,0,0,0,0,0,0,0,0,0,0,0,0,0,0,0,0,0,0,0,0,0,0,0,0,0,0,0,0,0,0,0,0,0,0,0,0,0,0,0,0,0,0,1152,1153,1148,1149,0,1610,1611,1612,
1367,1374,1371,0,0,0,1150,1151,1152,1153,0,1148,1149,1346,1347,1346,1347,0,1150,1151,0,0,0,0,0,0,0,0,0,0,0,0,0,0,0,0,0,0,0,0,0,0,0,0,0,0,0,0,0,0,0,0,0,0,0,0,0,0,0,0,0,0,0,0,0,0,0,0,0,0,0,0,0,0,0,0,0,0,0,0,0,0,0,0,0,0,0,1346,1347,0,0,0,1148,1149,0,0,0,0,0,0,0,0,0,1346,1347,0,0,0,0,0,0,0,0,0,0,0,0,0,0,0,0,0,0,0,0,0,0,0,0,0,0,0,0,0,0,0,0,0,0,0,0,0,0,0,0,0,0,0,0,0,0,0,0,0,0,0,0,0,0,0,0,0,0,0,0,0,0,0,0,0,0,0,0,0,0,0,0,0,0,0,0,0,0,0,0,0,0,0,0,0,0,0,0,0,0,0,0,0,0,0,0,0,0,0,0,0,0,0,0,0,0,0,0,0,0,0,2040,2041,0,0,0,0,0,0,0,0,0,0,0,0,0,0,0,0,0,0,1148,1149,1152,1153,1346,1347,1150,1151,1148,1149,0,0,0,0,0,0,0,1369,1371,1370,
1589,1590,1591,1152,1153,0,0,0,0,0,0,0,0,0,0,0,0,0,0,0,0,0,0,0,0,0,0,0,0,0,0,0,0,0,0,0,0,0,0,0,0,0,0,0,0,0,0,0,0,0,0,0,0,0,0,0,0,0,0,0,0,0,0,0,0,0,0,0,0,0,0,0,0,0,0,0,0,0,0,0,0,0,0,0,0,0,0,0,0,0,0,0,0,0,0,0,0,0,0,0,0,0,0,0,0,0,0,0,0,0,0,0,0,0,0,0,0,0,0,0,0,0,0,0,0,0,0,0,0,0,0,0,0,0,0,0,0,0,0,0,0,0,0,0,0,0,0,0,0,0,0,0,0,0,0,0,0,0,0,0,0,0,0,1148,1149,0,0,0,0,0,0,0,0,0,0,0,0,0,0,0,0,0,0,0,0,0,0,0,0,0,0,0,0,0,0,0,0,0,0,0,0,0,0,0,0,0,0,0,0,0,0,0,0,0,0,0,0,0,0,0,0,0,0,0,0,0,0,0,0,0,0,0,0,0,0,0,0,0,0,0,0,0,0,0,0,0,1196,1197,1198,1199,1152,1153,0,1583,1584,1585,
1613,1614,1615,0,0,0,1346,1347,1346,1347,1200,1201,1202,1203,0,0,0,0,0,0,0,0,0,0,0,0,0,0,0,0,0,0,2040,2041,0,0,0,0,0,0,0,0,0,0,0,0,0,0,0,0,0,0,0,0,0,0,0,0,0,0,0,0,0,0,0,0,0,0,0,0,0,0,0,0,0,0,0,0,0,0,0,0,0,0,0,0,0,0,0,0,0,0,0,0,0,0,0,0,0,0,0,0,0,0,0,0,0,0,0,0,0,0,0,0,0,0,0,0,0,0,0,0,0,0,0,0,0,0,0,0,0,0,0,0,0,0,0,0,0,0,0,0,0,0,0,0,0,0,0,0,0,0,0,0,0,0,0,0,0,0,0,0,0,0,0,0,0,0,0,0,0,0,0,0,0,0,0,0,0,0,0,0,0,0,0,0,0,0,0,0,0,0,0,0,0,0,0,0,0,0,0,0,0,0,0,0,0,0,0,0,0,0,0,0,0,0,0,0,0,0,0,0,0,0,0,0,0,0,0,0,0,0,0,0,0,0,0,0,1150,1151,1346,1347,1150,1151,0,0,1220,1221,1222,1223,0,0,0,1607,1608,1609,
1374,1366,1370,1152,1153,0,0,0,0,0,1224,1225,1226,1227,0,1152,1153,0,0,0,0,0,0,0,0,0,0,0,0,0,0,0,0,0,0,0,0,0,0,0,0,0,1148,1149,0,0,0,0,0,0,0,0,0,0,0,0,0,0,0,0,0,0,0,0,0,0,0,0,0,0,0,0,0,0,0,0,0,0,0,0,0,0,0,0,0,0,0,0,0,0,0,0,0,0,0,0,0,0,0,0,0,0,0,0,0,0,0,0,0,0,0,0,0,0,0,0,0,0,0,0,0,0,0,0,0,0,0,0,2040,2041,0,0,0,0,0,0,0,0,0,0,0,0,0,0,0,0,0,0,0,0,0,0,0,0,0,0,1346,1347,0,0,0,0,0,0,0,0,0,0,0,0,0,0,0,0,0,0,0,0,0,0,0,0,0,0,0,0,0,0,0,0,0,0,0,0,0,0,0,0,2040,2041,0,0,0,0,0,0,0,0,0,0,0,0,0,0,0,0,0,0,0,0,0,0,1346,1347,0,0,0,0,0,0,0,0,0,0,0,0,0,0,0,0,0,0,0,0,1150,1151,0,0,0,0,1150,1151,0,1368,1364,1370,
1589,1590,1591,0,0,1148,1149,1150,1151,0,0,0,0,0,0,0,0,0,0,0,0,0,0,0,0,0,0,0,0,0,0,0,0,0,0,0,0,0,0,0,0,0,0,0,0,0,0,0,0,0,0,0,0,0,0,0,0,0,0,0,0,0,0,0,0,0,0,0,0,0,0,0,0,0,0,0,0,0,0,0,1346,1347,0,0,0,0,0,0,0,0,0,0,0,0,0,0,0,0,0,0,0,1346,1347,0,0,0,0,0,0,0,0,0,0,0,0,0,0,1346,1347,0,0,0,0,0,0,0,0,0,0,0,0,0,0,0,0,0,0,0,0,0,0,0,0,0,0,0,2040,2041,0,0,0,0,0,0,0,0,0,0,0,0,0,0,0,0,0,0,0,0,0,0,0,0,0,0,0,0,0,0,0,1346,1347,0,1346,1347,0,0,0,0,0,0,0,0,0,0,1346,1347,0,0,0,0,0,0,0,0,0,0,0,0,0,0,0,0,0,0,0,0,0,0,2040,2041,0,0,0,0,0,0,0,0,1346,1347,0,0,0,0,0,0,0,1196,1197,1198,1199,1148,1149,0,0,0,1150,1151,1148,1149,0,0,0,1148,1149,1372,
1613,1614,1615,1152,1153,0,0,0,0,1200,1201,1202,1203,0,0,0,1346,1347,0,0,0,0,0,0,0,0,0,0,0,0,0,0,0,0,0,0,0,0,0,0,0,0,0,0,0,0,0,0,0,0,0,0,0,0,0,0,0,0,0,0,0,0,0,0,0,0,0,0,0,0,0,0,0,0,0,0,0,0,0,0,0,0,0,0,0,0,0,0,0,0,0,0,0,0,0,0,0,0,0,0,0,0,0,0,0,0,0,0,0,0,0,0,0,0,0,0,1388,1388,1388,2040,2041,0,0,0,0,0,0,0,0,0,0,0,0,0,0,0,0,0,0,0,0,0,0,0,0,0,0,0,0,0,0,0,0,0,0,0,0,0,0,0,0,0,0,0,0,0,0,0,0,0,0,0,0,0,0,0,0,0,0,0,0,0,0,0,0,0,0,0,0,0,2040,2041,0,0,0,0,0,0,0,0,0,0,0,0,0,0,0,0,0,0,0,0,0,0,0,0,0,0,0,0,0,0,0,0,0,0,0,0,0,0,0,0,0,0,0,0,0,1220,1221,1222,1223,0,0,0,0,0,0,0,0,0,1346,1347,0,1374,1371,1365,
1368,1370,1367,0,0,1200,1201,1202,1203,1224,1225,1226,1227,0,0,0,0,0,0,0,0,0,0,0,0,0,0,0,0,0,0,0,2040,2041,0,0,0,0,0,0,0,0,0,0,0,0,0,0,0,0,0,0,0,0,0,0,0,0,0,0,0,0,0,0,0,0,0,0,0,0,0,0,0,0,0,0,0,0,0,0,0,0,0,0,0,0,0,0,0,0,0,0,0,0,0,0,0,0,0,0,0,0,0,0,0,0,0,0,0,0,0,0,0,0,0,0,1388,1388,1388,0,0,0,0,0,0,0,0,0,0,0,0,0,0,0,0,0,0,0,0,0,0,0,0,0,0,0,0,0,0,0,0,0,0,0,0,0,0,0,0,0,0,0,0,0,0,0,0,0,0,0,0,0,0,0,0,0,0,0,0,0,0,0,0,0,0,0,0,0,0,0,0,0,0,0,0,0,0,0,0,0,0,0,0,0,0,0,0,0,0,0,0,0,0,0,0,0,0,0,0,0,0,0,0,0,0,0,0,0,0,0,0,0,0,0,0,0,0,0,0,0,0,1152,1153,0,0,0,1152,1153,1148,1149,0,0,0,1152,1153,1369,
1583,1584,1585,0,0,1224,1225,1226,1227,0,0,0,0,0,0,0,0,0,0,0,0,0,0,0,0,0,0,0,0,0,0,0,0,0,0,0,0,0,0,0,0,0,0,0,0,0,0,0,0,0,0,0,0,0,0,0,0,0,0,0,0,0,0,0,0,0,0,0,0,1388,1388,1388,0,0,0,0,0,0,0,0,0,0,0,0,0,0,0,0,0,0,0,0,0,0,0,0,0,0,0,0,0,0,0,0,0,0,0,0,0,0,0,0,0,0,0,0,1388,1388,1388,0,0,0,0,0,0,0,0,0,0,0,0,0,0,0,0,0,0,0,0,0,0,0,0,0,0,0,0,0,0,0,0,0,0,0,0,0,0,0,0,0,0,2040,2041,0,0,0,0,0,0,0,0,0,0,0,0,0,0,0,0,0,0,0,0,0,0,0,0,0,0,0,0,0,0,0,0,0,0,0,0,0,0,0,0,0,0,0,0,0,1148,1149,0,0,0,0,0,0,0,0,0,0,0,0,0,0,0,0,0,0,0,0,0,0,0,0,0,0,0,0,1150,1151,0,0,0,0,0,0,0,0,0,0,1148,1149,0,1364,1364,1368,
1607,1608,1609,1346,1347,0,0,0,0,0,0,0,0,0,0,0,0,0,0,0,0,0,0,0,0,0,0,0,0,0,0,0,0,0,0,0,0,0,0,0,0,0,0,0,0,0,0,0,0,0,0,0,0,0,0,0,0,0,0,0,0,0,0,0,0,0,0,0,0,1388,1388,1388,0,0,0,0,0,0,0,0,0,0,0,0,0,0,0,0,0,0,0,0,0,0,0,0,0,0,0,0,0,0,0,0,0,0,0,0,0,0,0,0,0,0,0,0,0,0,0,0,0,0,0,0,0,0,0,0,0,0,0,0,0,0,0,0,0,0,0,0,0,0,0,0,0,0,0,0,0,0,0,0,0,0,0,0,0,0,0,0,0,0,0,0,0,0,0,0,0,0,0,0,0,0,0,0,0,0,0,0,0,0,0,0,0,0,0,0,0,0,0,0,0,0,0,0,0,0,0,1346,1347,0,0,0,0,0,0,0,0,0,0,0,0,0,0,0,0,0,0,0,0,0,0,0,0,0,0,0,0,0,0,0,0,0,0,0,0,0,0,0,0,1346,1347,1346,1347,0,0,1346,1347,0,0,0,0,1583,1584,1585,
1371,1374,1368,0,0,0,0,1200,1201,1202,1203,0,0,0,0,0,0,0,0,0,0,0,0,0,0,0,0,0,0,0,0,0,0,0,0,0,0,2040,2041,0,0,0,0,0,0,0,0,0,0,0,0,0,0,0,0,0,0,0,0,0,0,0,0,0,0,0,0,0,0,1388,1388,1388,0,0,0,0,0,0,0,0,0,0,0,0,0,0,0,0,0,0,0,0,0,0,0,0,0,0,0,0,0,0,0,0,0,0,0,0,0,0,0,0,0,0,0,0,0,0,0,0,0,0,0,0,0,0,0,0,0,0,0,0,0,0,0,0,0,0,0,0,0,0,0,0,0,0,0,0,0,0,0,0,0,0,0,0,0,0,0,0,0,0,0,0,0,0,0,0,0,0,0,0,0,0,0,0,0,0,0,0,0,0,0,0,0,0,0,0,0,0,0,0,0,2040,2041,0,0,0,0,0,0,0,0,0,0,0,0,0,0,0,0,0,0,0,0,0,0,0,0,0,0,0,0,0,0,0,0,0,0,0,0,0,0,0,0,0,1152,1153,1150,1151,0,0,0,0,0,1150,1151,0,0,0,1152,1153,0,1607,1608,1609,
1196,1197,1198,1199,1152,1153,0,1224,1225,1226,1227,0,0,0,0,0,1200,1201,1202,1203,0,0,0,0,0,0,0,0,0,0,0,0,0,0,0,0,0,0,0,0,0,0,0,0,0,0,0,0,0,0,0,0,0,0,0,0,0,0,0,0,0,0,0,0,0,0,0,0,0,0,0,0,0,2040,2041,0,0,0,0,0,0,0,0,0,0,0,0,0,0,0,0,0,0,0,0,0,0,0,0,0,0,0,0,0,0,0,0,0,0,0,0,0,0,0,0,0,0,0,0,0,0,0,0,0,0,0,0,0,0,0,0,0,0,0,0,0,0,0,0,0,0,0,0,0,0,0,0,0,0,0,0,0,0,0,0,0,0,0,0,0,0,0,0,0,0,0,0,0,0,0,0,0,0,0,0,0,0,0,0,0,0,0,0,0,0,0,0,0,0,0,0,0,0,0,0,0,0,0,0,0,0,0,0,0,0,0,0,0,0,0,0,0,0,0,0,0,0,0,0,0,0,0,0,0,0,0,0,0,0,0,0,0,0,0,0,0,0,0,0,0,1150,1151,0,1148,1149,0,0,1152,1153,0,0,0,0,1372,1364,1373,
1220,1221,1222,1223,0,0,0,0,0,0,0,0,0,0,0,0,1224,1225,1226,1227,0,0,0,0,0,0,0,0,0,0,0,0,0,0,0,0,0,0,0,0,0,0,0,0,0,0,0,0,0,0,0,0,0,0,0,0,0,0,0,0,0,0,0,0,0,0,0,0,0,0,0,0,0,0,0,0,0,0,0,0,0,0,0,0,0,0,0,0,0,0,0,0,0,0,0,0,0,0,0,0,0,0,0,0,0,0,0,0,0,0,0,0,0,0,0,0,0,0,0,0,0,0,0,0,0,0,0,0,0,0,0,0,0,0,0,0,0,0,0,0,0,0,0,0,0,0,0,0,0,0,0,0,0,0,0,0,0,0,0,0,0,0,0,0,0,0,0,0,0,0,0,0,0,0,0,0,0,0,0,0,0,0,0,0,0,0,0,0,0,0,0,0,0,0,0,0,0,0,0,0,0,0,0,0,0,0,0,0,0,0,0,0,0,0,0,0,0,0,0,0,0,0,0,0,0,0,0,0,0,0,0,0,0,0,0,0,0,0,0,0,0,0,0,0,0,1148,1149,0,0,1346,1347,1346,1347,1583,1584,1585,
1365,1369,1374,0,0,0,0,0,0,0,0,0,0,0,0,0,0,0,0,0,0,0,0,0,0,0,0,0,0,0,0,0,0,0,0,0,0,0,0,0,0,0,0,0,0,0,0,0,0,0,0,0,0,0,0,0,0,0,0,0,0,0,0,0,0,0,0,0,0,0,1346,1347,0,0,0,0,0,0,0,0,1346,1347,0,0,0,0,0,0,0,0,0,0,0,0,0,0,0,0,0,0,0,0,0,0,0,0,0,0,0,0,0,0,0,0,0,0,0,0,0,0,1148,1149,0,0,0,2040,2041,0,0,0,0,0,0,0,0,0,0,0,0,0,0,0,0,0,0,0,0,0,0,0,0,0,0,0,0,0,0,0,0,0,0,0,0,0,0,0,0,0,0,0,0,0,0,0,0,0,0,0,0,0,0,0,0,0,0,0,0,0,0,0,0,0,0,0,0,0,0,0,0,0,0,0,0,0,0,0,0,0,0,0,0,0,0,0,0,0,0,0,0,0,0,0,0,0,0,0,0,0,0,0,0,0,0,0,0,0,0,0,0,0,0,0,0,1148,1149,0,0,1346,1347,0,0,0,0,1607,1608,1609,
1583,1584,1585,1346,1347,0,0,0,0,0,0,0,0,0,0,0,1196,1197,1198,1199,0,0,0,0,0,0,0,0,0,0,0,0,0,0,0,0,0,0,0,0,0,0,0,0,0,0,0,0,0,0,0,0,0,0,0,0,0,0,0,0,0,0,0,0,0,0,0,0,0,0,0,0,0,0,0,0,0,0,0,0,0,0,0,0,0,0,0,0,0,0,0,0,0,0,0,0,0,0,0,0,0,0,0,0,0,0,0,0,0,0,0,0,0,0,0,0,0,0,0,0,0,0,0,0,0,0,0,0,0,0,0,0,0,2040,2041,0,0,0,0,0,0,0,1346,1347,0,0,0,0,0,0,0,0,0,0,0,0,0,0,0,0,0,0,0,0,0,0,0,0,0,0,0,0,0,0,0,0,0,0,0,0,0,0,0,0,0,0,0,0,0,0,0,0,0,0,0,0,0,0,0,0,0,0,0,0,0,0,0,0,0,0,0,0,0,0,0,1346,1347,0,0,0,0,0,0,0,0,0,0,0,0,0,0,0,0,0,0,0,0,0,0,0,0,0,0,0,0,0,0,0,0,1150,1151,1148,1149,1369,1371,1371,
1607,1608,1609,0,0,0,0,0,0,0,0,0,0,0,0,0,1220,1221,1222,1223,0,0,0,0,0,0,0,0,0,0,0,0,0,0,0,0,0,0,0,0,0,0,0,0,0,0,0,0,0,0,0,0,0,0,0,0,0,0,0,0,0,0,0,0,0,0,0,0,0,0,0,0,0,0,0,0,0,0,0,0,0,0,0,0,0,0,0,0,0,0,0,0,0,0,0,0,0,0,0,0,0,0,0,0,0,0,0,0,0,0,0,0,0,0,0,0,0,0,0,0,0,0,0,0,0,0,0,0,0,0,0,0,0,0,0,0,0,0,0,0,0,0,0,0,0,0,0,0,0,0,0,0,0,0,0,0,0,0,0,0,0,0,0,0,0,0,0,0,0,0,0,2040,2041,0,0,0,0,0,0,0,0,0,0,0,0,0,0,0,0,0,0,0,0,0,0,0,0,0,0,0,0,0,0,0,0,0,0,0,0,0,0,0,0,0,0,0,0,0,0,0,0,0,0,0,0,0,0,0,0,0,0,0,0,0,0,0,0,0,0,0,0,0,0,1152,1153,1346,1347,1148,1149,0,0,0,0,1586,1587,1588,
1365,1370,1374,1150,1151,0,0,0,0,0,0,0,0,0,0,0,0,0,0,0,0,0,0,0,0,0,0,0,0,0,0,0,0,0,0,0,0,0,0,0,0,0,0,0,0,0,0,0,0,0,0,0,0,0,0,0,0,0,0,0,0,0,0,0,0,0,0,0,0,0,0,0,0,0,0,0,0,0,0,0,0,0,0,0,0,0,0,0,0,0,0,0,0,0,0,0,0,0,0,0,0,0,0,0,0,0,0,0,0,0,0,0,0,0,0,0,0,0,0,0,0,0,0,0,0,0,0,0,0,0,0,0,0,0,0,0,2040,2041,0,0,0,0,0,0,0,0,0,0,0,0,0,0,0,0,0,0,0,0,0,0,0,0,0,0,0,0,0,0,2040,2041,0,0,0,0,0,0,0,0,0,0,0,0,0,0,0,0,0,0,0,0,0,0,0,0,0,0,0,0,0,0,0,0,0,0,0,0,0,0,0,0,0,0,0,0,0,0,0,0,0,0,0,1346,1347,0,0,0,0,0,0,0,0,0,0,0,0,0,0,1200,1201,1202,1203,0,0,0,0,0,0,0,0,1152,1153,1152,1153,1610,1611,1612,
1589,1590,1591,0,0,0,0,0,0,0,0,0,0,0,0,0,0,0,0,0,0,0,0,0,0,0,0,0,0,0,0,0,0,0,0,0,0,0,0,0,0,0,0,0,0,0,0,0,0,0,0,0,0,0,0,0,0,0,0,0,0,0,0,0,0,0,0,0,0,0,0,0,0,0,0,0,0,0,0,0,0,0,0,0,0,0,0,0,0,0,0,0,0,0,0,0,0,0,0,0,0,0,0,0,0,0,0,0,0,0,0,0,0,0,0,0,0,0,0,0,0,0,0,0,0,0,0,0,0,0,0,0,0,0,0,0,0,0,0,0,0,0,0,0,0,0,0,0,0,0,0,0,0,0,0,0,0,0,0,0,0,0,0,0,0,0,0,0,0,0,0,0,0,0,0,0,0,0,0,0,0,0,0,0,0,0,0,0,0,0,0,0,0,0,0,0,0,0,0,0,0,0,0,0,0,0,0,0,0,0,0,0,0,0,0,0,0,0,0,0,0,0,0,0,0,0,0,0,0,0,0,0,0,0,0,0,0,1224,1225,1226,1227,0,1200,1201,1202,1203,1150,1151,0,0,0,0,0,1368,1373,1371,
1613,1614,1615,0,0,0,0,0,0,0,0,0,0,0,0,0,0,0,0,0,0,0,0,0,0,0,0,0,0,0,0,0,0,0,0,0,1346,1347,0,0,2040,2041,0,0,0,0,0,0,0,0,0,0,0,0,0,0,0,0,0,0,0,0,0,0,0,0,0,0,0,0,0,0,0,0,0,0,0,0,0,0,0,0,0,0,0,0,0,0,0,0,0,0,0,0,0,0,0,0,0,0,0,0,0,0,0,0,0,0,0,0,0,0,0,0,0,1388,1388,1388,0,0,0,0,0,0,0,0,0,0,0,0,0,0,0,0,0,0,0,0,0,0,0,1148,1149,0,0,0,0,0,0,0,0,0,0,0,0,0,0,0,0,0,0,0,0,0,0,0,0,0,0,0,0,0,0,0,0,0,0,0,0,0,0,0,0,0,0,0,0,0,0,0,0,0,2040,2041,0,0,0,0,0,0,0,0,0,0,0,0,0,0,0,0,0,0,0,0,0,0,0,0,0,0,0,0,0,0,0,0,0,0,0,0,0,0,0,0,0,0,0,0,0,0,0,0,1224,1225,1226,1227,0,0,0,1196,1197,1198,1199,1152,1153,1368,
1372,1369,1365,0,0,0,0,0,0,0,0,0,0,0,0,0,0,0,0,0,0,0,0,0,0,0,0,0,0,0,0,0,0,0,0,0,0,0,0,0,0,0,0,0,0,0,0,0,0,0,0,0,0,0,0,0,0,0,0,0,0,0,0,0,0,0,0,0,0,0,0,0,0,1148,1149,0,0,0,0,0,0,0,0,0,0,0,0,0,0,0,0,0,0,0,0,0,0,0,0,0,0,0,0,0,0,0,0,0,0,0,0,0,0,0,0,1388,1388,1388,0,0,0,0,0,0,0,0,0,0,0,0,0,0,0,0,0,0,0,0,0,0,0,0,0,0,0,0,0,0,0,0,0,0,0,0,0,0,0,0,0,0,0,0,0,0,0,0,0,0,0,0,0,0,0,0,0,0,0,0,0,0,0,0,0,0,0,0,0,0,0,0,0,0,0,0,0,0,0,0,0,0,0,0,0,0,0,0,0,0,0,0,0,0,0,0,0,0,0,0,0,0,0,0,0,0,0,0,0,0,0,0,0,0,0,0,0,0,0,0,0,1148,1149,0,0,0,0,0,1148,1149,0,1220,1221,1222,1223,1370,1367,1367,
1196,1197,1198,1199,0,0,0,0,0,0,0,0,0,0,0,0,0,0,0,0,0,0,0,0,0,0,0,0,0,0,0,0,0,0,0,0,0,0,0,0,0,0,0,0,0,0,0,0,0,0,0,0,0,0,0,0,0,0,0,0,0,1148,1149,0,0,0,0,0,0,0,0,0,0,0,0,0,0,0,0,0,0,0,0,0,0,0,0,0,0,0,0,0,0,0,0,0,0,0,0,0,0,0,0,0,0,0,0,0,0,0,0,0,0,0,0,1388,1388,1388,0,0,0,0,0,0,0,0,0,0,0,0,0,0,0,0,0,0,0,0,0,0,0,0,0,0,0,0,0,0,0,0,0,0,0,0,0,0,0,0,0,0,0,0,0,0,0,0,0,0,0,0,0,0,0,0,0,0,0,0,0,0,0,0,0,0,0,0,0,0,0,0,0,0,0,0,0,0,0,0,0,0,0,0,0,0,0,0,0,0,0,0,0,0,0,0,0,0,0,0,0,0,0,0,0,0,0,0,0,0,0,0,0,0,0,0,0,0,0,1148,1149,0,0,0,0,1148,1149,0,0,0,0,0,0,0,0,1154,1155,1365,
1220,1221,1222,1223,0,0,0,0,0,0,0,0,0,0,0,0,0,0,0,0,0,0,0,0,0,0,0,0,0,0,0,0,0,0,0,0,0,0,0,0,0,0,0,0,0,0,0,0,0,0,0,0,0,0,0,0,0,0,0,0,0,0,0,0,0,0,0,0,0,0,0,0,0,0,0,0,0,0,0,0,0,0,0,0,0,0,0,0,0,0,0,0,0,0,0,0,0,0,0,0,0,0,0,0,0,0,0,0,0,0,0,0,0,0,0,0,0,0,0,0,0,0,0,0,0,0,0,0,0,0,0,0,0,0,0,0,0,0,0,2040,2041,0,0,0,0,0,0,0,0,0,0,0,0,0,0,0,0,0,0,0,0,0,0,0,0,0,0,0,0,0,0,0,0,0,0,0,0,0,0,0,0,0,0,0,0,0,0,0,0,0,0,0,0,0,0,0,0,0,0,0,0,0,0,0,0,0,0,0,0,0,0,0,0,0,0,0,0,0,0,0,0,0,0,0,0,0,0,1346,1347,0,0,0,0,0,0,0,0,0,0,0,0,1148,1149,0,0,1200,1201,1202,1203,1196,1197,1198,1199,1364,1371,1365,
1366,1370,1370,0,0,0,0,0,0,0,0,0,0,0,0,0,0,0,0,0,0,0,0,0,0,0,0,0,0,0,0,0,0,0,0,0,0,0,0,0,0,0,0,0,0,0,0,0,0,0,0,0,0,0,0,0,0,0,0,0,0,0,0,0,0,0,0,0,0,0,0,0,0,0,0,0,0,0,0,0,0,0,0,0,0,0,0,0,0,0,0,0,0,0,0,0,0,0,0,0,0,0,0,0,0,0,0,0,0,0,0,0,0,0,0,0,0,0,0,0,0,0,0,0,0,0,0,0,0,0,0,0,0,0,0,0,0,0,0,0,0,0,0,0,0,0,0,0,0,0,0,0,0,0,0,0,0,0,0,0,0,0,0,0,0,0,0,0,0,0,0,0,0,0,0,0,0,0,0,0,0,0,0,0,0,0,0,0,0,1148,1149,0,0,0,0,0,0,0,0,0,0,0,0,0,0,0,0,0,0,0,0,0,0,0,0,0,0,0,0,0,0,0,0,0,0,0,0,0,0,0,0,0,0,0,0,0,1148,1149,0,1346,1347,0,0,1148,1149,1224,1225,1226,1227,1220,1221,1222,1223,1580,1581,1582,
1586,1587,1588,0,0,0,0,0,0,0,0,0,0,0,0,0,0,0,0,0,0,0,0,0,0,0,0,0,0,0,0,0,0,0,0,0,0,0,0,0,0,0,0,0,0,0,0,0,0,0,0,0,0,0,0,0,0,0,0,0,0,0,0,0,0,0,0,0,0,0,0,0,0,0,0,0,0,0,0,0,0,0,0,0,0,0,0,0,0,0,0,0,0,0,0,0,0,0,0,0,0,0,0,0,0,0,0,0,0,0,0,0,0,0,0,0,0,0,0,0,0,0,0,0,0,0,0,0,0,0,0,0,0,0,0,0,0,0,0,0,0,0,0,0,0,0,0,0,0,0,0,0,0,0,0,0,0,0,0,0,0,0,0,0,0,0,0,0,0,0,0,0,0,0,0,0,0,0,0,0,0,0,0,0,0,0,0,0,0,0,0,0,0,0,0,0,0,0,0,0,0,0,0,0,0,0,0,0,0,0,0,0,0,0,0,0,0,0,0,0,0,0,0,0,0,0,0,0,0,0,0,0,0,0,0,0,0,0,0,0,0,1148,1149,0,0,0,0,0,0,0,0,0,0,1604,1605,1606,
1610,1611,1612,0,0,0,0,0,0,0,0,0,0,0,0,0,0,0,0,0,0,0,0,0,0,0,0,0,0,0,0,0,0,0,0,0,0,0,0,0,0,0,0,0,0,0,0,0,0,0,0,0,0,0,0,0,0,0,0,0,0,0,0,0,0,0,0,0,0,0,0,0,0,0,0,0,0,0,0,0,0,0,0,0,0,0,0,0,0,0,0,0,0,0,0,0,0,0,0,0,0,0,0,0,0,0,0,0,0,0,0,0,0,0,0,0,0,0,0,0,0,0,0,0,0,0,0,0,0,0,0,0,0,0,0,0,0,0,0,0,0,0,0,0,0,0,0,0,0,0,0,0,0,0,0,0,0,0,0,0,0,0,0,0,0,0,0,0,0,0,0,0,0,0,0,0,0,0,0,0,0,0,0,0,0,0,0,0,0,0,0,0,0,0,0,0,0,0,0,0,0,0,0,0,0,0,0,0,0,0,0,0,0,0,0,0,0,0,0,0,0,0,0,0,0,0,0,0,0,0,0,0,0,0,0,0,0,1346,1347,0,0,0,0,0,0,1200,1201,1202,1203,0,0,0,0,1367,1366,1372,
1374,1369,1373,0,0,0,0,0,0,0,0,0,0,0,0,0,0,0,0,0,0,0,0,0,0,0,0,0,0,0,0,0,0,0,0,0,0,0,0,0,0,0,0,0,0,0,0,0,0,0,0,0,0,0,0,0,0,0,0,0,0,0,0,0,0,0,0,0,1148,1149,0,0,0,0,0,0,0,0,0,0,0,0,0,0,0,0,0,0,0,0,0,0,0,0,0,0,0,0,0,0,0,0,0,0,0,0,0,0,0,0,0,0,0,0,0,0,0,0,0,0,0,0,0,0,0,0,0,0,1346,1347,0,0,0,0,0,0,0,0,0,0,0,0,0,1388,1388,1388,0,0,0,0,0,0,0,0,0,0,0,0,0,0,0,0,0,0,0,0,0,0,0,0,0,0,0,0,0,0,0,0,0,0,0,0,0,0,0,0,0,0,0,0,0,0,0,0,0,0,0,0,0,0,0,0,0,0,0,0,0,0,0,0,0,0,0,0,0,0,0,0,0,1346,1347,0,0,0,0,0,0,0,0,0,0,0,0,0,0,0,0,0,0,1152,1153,0,1152,1153,0,1224,1225,1226,1227,0,0,0,0,1580,1581,1582,
1200,1201,1202,1203,0,0,0,0,0,0,0,0,0,0,0,0,0,0,0,0,0,0,0,0,0,0,0,0,0,0,0,0,0,0,0,0,0,0,0,0,0,0,0,0,0,0,0,0,0,0,0,0,0,0,0,0,0,0,0,0,0,0,0,0,0,0,0,0,0,0,0,0,0,0,0,0,0,0,0,0,0,0,0,0,0,0,0,0,0,0,0,0,0,0,0,0,0,0,0,0,0,0,0,0,0,0,0,0,0,0,0,0,0,0,0,0,0,0,0,0,0,0,0,0,0,0,0,0,0,0,0,0,0,0,0,0,0,0,0,0,0,0,0,1388,1388,1388,0,0,0,0,0,0,0,0,0,0,0,0,0,0,0,2040,2041,0,0,0,0,0,0,0,0,0,0,0,0,0,0,0,0,0,0,0,0,0,0,0,0,0,0,0,0,0,0,0,0,0,0,0,0,0,0,0,0,0,0,0,0,0,0,0,0,0,2040,2041,0,0,0,0,0,0,0,0,0,0,0,0,0,0,0,0,0,0,0,0,0,0,0,1152,1153,0,0,0,0,0,0,0,0,0,0,0,0,0,0,1604,1605,1606,
1224,1225,1226,1227,0,0,0,0,0,0,0,0,0,0,0,0,0,0,0,0,0,0,0,0,0,0,0,0,0,0,0,0,0,0,0,0,0,0,0,0,0,0,0,0,0,0,0,0,0,0,0,0,0,0,0,0,0,0,0,0,0,0,0,0,0,0,0,0,0,0,0,0,0,0,0,0,0,0,0,0,0,0,0,0,0,0,0,0,0,0,0,0,0,0,0,0,0,0,0,0,0,0,0,0,0,0,0,0,0,0,0,0,0,0,0,0,0,0,0,0,0,0,0,0,0,0,0,0,0,0,0,0,0,0,1148,1149,0,0,0,0,0,0,0,1388,1388,1388,0,0,0,0,0,0,0,0,0,0,2040,2041,0,0,0,0,0,0,0,0,0,0,0,0,0,0,0,0,0,0,0,0,0,0,0,0,0,0,0,0,0,0,0,0,0,0,0,0,0,0,0,0,0,0,0,0,0,0,0,0,0,0,0,0,0,0,0,0,0,0,0,0,0,0,0,0,0,0,0,0,0,0,0,0,0,0,0,0,0,0,0,0,0,0,1200,1201,1202,1203,1200,1201,1202,1203,1150,1151,0,0,0,1374,1371,1370,
1366,1371,1373,0,0,0,0,0,0,0,0,0,0,0,0,1200,1201,1202,1203,0,0,0,0,0,0,0,0,0,0,0,0,0,0,0,0,0,0,0,0,0,0,0,0,0,0,0,0,0,0,0,0,0,0,0,0,0,0,0,0,0,0,0,0,0,0,0,0,0,0,0,0,0,0,0,0,0,0,0,0,0,0,0,0,0,0,0,0,0,0,2040,2041,0,0,0,0,0,0,0,0,0,0,0,0,0,0,0,0,0,0,0,0,0,0,0,0,0,0,0,0,0,0,0,0,0,0,0,0,0,0,0,0,0,0,0,0,0,0,0,0,0,0,0,0,0,0,0,0,0,0,0,0,0,0,0,0,0,0,0,0,0,0,0,0,0,0,0,0,0,0,0,0,0,0,0,0,0,0,0,0,0,0,0,0,0,0,0,0,0,0,0,0,0,0,0,0,0,0,0,0,0,0,0,0,0,0,0,0,0,0,0,0,0,0,0,0,0,0,0,0,0,0,0,0,0,0,0,0,0,0,0,0,0,0,0,0,0,0,0,1150,1151,1224,1225,1226,1227,1224,1225,1226,1227,0,0,0,0,0,1346,1347,1368,
1152,1153,1589,1590,1591,0,0,0,0,0,0,0,0,0,0,1224,1225,1226,1227,0,0,0,0,0,0,0,0,0,0,0,0,0,0,0,0,0,0,0,0,0,0,0,0,0,0,0,0,0,0,0,0,0,0,0,0,0,0,0,0,0,0,0,0,0,0,0,0,0,0,0,0,0,0,0,0,0,0,0,0,0,0,0,0,0,0,0,0,0,0,0,0,0,0,0,0,0,0,0,0,0,0,0,0,0,0,0,0,0,0,0,0,0,0,0,0,0,0,0,0,0,0,0,0,0,0,0,0,0,0,0,0,0,0,0,0,0,0,0,0,0,0,0,0,0,0,0,0,0,0,0,0,0,0,0,0,1346,1347,0,0,2040,2041,0,0,0,0,0,0,0,0,0,0,0,0,0,0,0,0,0,0,0,0,0,0,0,0,0,0,0,0,0,0,0,0,1388,1388,1388,0,0,0,0,0,0,0,0,0,0,0,0,0,0,0,0,0,0,0,0,0,0,0,0,0,0,0,0,0,0,0,0,0,0,0,0,0,0,0,0,0,0,0,0,0,0,0,0,0,0,0,0,1200,1201,1202,1203,0,1370,1374,1365,
1369,1367,1613,1614,1615,1152,1153,0,0,0,0,0,0,1148,1149,0,0,0,0,0,0,0,0,0,0,0,0,0,0,0,0,0,0,0,0,0,0,0,0,0,0,0,0,0,0,0,0,0,0,0,0,0,0,0,0,0,0,0,0,0,0,0,0,0,0,0,0,0,0,0,0,0,0,0,0,0,0,0,0,0,0,0,0,0,0,0,0,0,0,0,0,0,0,0,0,0,0,0,0,0,0,0,0,0,0,0,0,0,0,0,0,0,0,0,0,0,0,2040,2041,0,0,0,0,0,0,0,0,0,0,0,0,0,0,0,0,0,0,0,0,0,0,0,0,0,0,0,0,0,0,0,0,0,0,0,0,0,0,0,0,0,0,0,0,0,0,0,0,0,0,0,0,0,0,0,0,0,0,0,0,0,0,0,0,0,0,0,0,0,0,0,0,0,0,1388,1388,1388,0,0,0,0,0,0,0,0,0,0,0,0,0,0,0,0,0,0,0,0,0,0,0,0,0,0,0,0,0,0,0,0,0,0,0,0,0,0,0,0,0,0,1150,1151,0,1150,1151,0,1152,1153,1152,1153,1224,1225,1226,1227,0,1154,1155,1373,
1150,1151,1369,0,0,0,0,1200,1201,1202,1203,0,0,0,0,0,1346,1347,0,0,0,0,0,0,0,0,0,0,0,0,0,0,0,0,0,0,0,0,0,0,0,0,0,0,0,0,0,0,0,0,0,0,0,0,0,0,0,0,0,0,0,0,0,0,0,0,0,0,0,0,0,0,0,0,0,0,0,0,0,0,0,0,0,0,0,0,0,0,0,0,0,0,2040,2041,0,0,0,0,0,0,0,0,0,0,0,0,0,0,0,0,0,0,0,0,0,0,0,0,0,0,0,0,0,0,0,0,0,0,0,0,0,0,0,0,0,0,0,0,0,0,0,0,0,0,0,0,0,0,0,0,0,0,0,0,0,0,0,0,0,0,0,0,0,0,0,0,0,0,0,0,0,0,0,0,0,0,0,0,0,0,0,0,0,0,0,0,0,0,0,0,0,0,0,1388,1388,1388,0,0,0,0,0,0,0,0,0,0,0,0,0,0,0,0,0,0,0,0,0,0,0,0,0,0,0,0,0,0,0,0,0,0,0,0,0,0,0,0,0,0,0,0,0,0,0,0,0,0,0,0,0,0,0,0,0,1372,1370,1370,
1374,1366,1200,1201,1202,1203,0,1224,1225,1226,1227,1196,1197,1198,1199,0,0,0,0,0,0,0,0,0,0,0,0,0,0,0,0,0,0,0,0,0,0,0,0,0,0,0,0,0,0,0,0,0,0,0,0,0,0,0,0,0,0,0,0,1148,1149,0,0,0,0,0,0,0,0,0,0,0,0,0,0,0,0,0,1148,1149,0,0,0,0,0,0,0,0,0,0,0,0,0,0,0,0,0,0,0,0,0,0,0,0,0,0,0,0,0,0,0,0,0,0,0,0,0,0,0,0,0,0,0,0,0,0,0,0,0,0,0,0,0,0,0,0,0,0,0,0,0,0,0,0,0,0,0,0,0,0,0,0,0,0,0,0,0,0,0,0,0,0,0,0,0,0,0,2040,2041,0,0,0,0,0,0,0,0,0,0,0,0,0,0,0,0,0,0,0,0,0,0,0,0,0,0,0,0,0,0,0,0,0,0,0,0,0,0,0,0,0,0,0,0,1346,1347,0,0,0,0,0,1148,1149,0,0,0,0,0,0,0,0,0,0,0,0,0,0,0,0,1152,1153,1150,1151,0,1150,1151,0,1200,1201,1202,1203,1150,1151,0,1152,1153,1370,
1148,1149,1224,1225,1226,1227,0,0,0,0,0,1220,1221,1222,1223,0,1200,1201,1202,1203,0,0,0,0,0,0,0,0,0,0,0,0,0,0,0,0,0,0,0,0,0,0,0,0,0,0,0,0,0,0,0,0,0,0,0,0,0,0,0,0,0,0,0,0,0,0,0,0,0,0,0,0,0,0,0,0,0,0,0,0,0,0,0,0,0,0,0,0,0,0,0,0,0,0,2040,2041,0,0,0,0,0,0,0,0,0,0,0,0,0,0,0,0,0,0,0,0,0,0,0,0,0,0,0,0,0,0,0,0,0,0,0,0,0,0,0,2040,2041,0,0,0,0,0,0,0,0,0,0,0,0,0,0,0,0,0,1346,1347,0,0,0,0,0,0,0,0,0,0,0,0,0,0,0,0,0,0,0,0,0,0,0,0,0,0,0,0,0,0,0,0,0,0,0,0,0,0,0,0,0,0,0,0,0,0,0,0,0,0,0,0,0,0,0,0,0,0,0,0,0,0,0,0,0,0,0,0,0,0,0,0,0,0,0,0,0,0,0,0,0,0,0,0,0,0,0,0,0,0,1224,1225,1226,1227,0,0,0,1366,1371,1366,
1365,1368,1368,0,0,0,1148,1149,1152,1153,0,0,0,0,0,0,1224,1225,1226,1227,0,0,0,0,0,0,0,0,0,0,0,0,0,0,0,0,0,0,0,0,0,0,0,0,0,0,0,0,0,0,0,0,0,0,0,0,0,0,0,0,0,0,0,0,0,0,0,0,0,0,0,0,0,0,0,0,0,0,0,0,0,0,0,1346,1347,0,0,0,0,0,0,0,0,0,0,0,0,0,0,0,0,0,0,0,0,0,0,0,0,1346,1347,0,0,0,0,0,0,0,0,0,0,0,0,0,0,0,0,0,0,0,0,0,0,0,0,0,0,2040,2041,0,0,0,0,0,0,0,0,0,0,0,0,0,0,0,0,0,0,0,0,0,0,0,0,0,0,0,0,0,0,0,0,0,0,0,0,0,0,0,0,0,0,0,0,0,0,0,0,0,0,0,0,0,0,0,0,0,0,0,0,0,0,0,0,0,0,0,0,0,0,0,0,0,0,0,0,0,0,0,0,0,0,0,0,0,0,0,0,0,0,0,0,0,0,0,0,0,0,0,0,0,0,1200,1201,1202,1203,0,0,0,0,0,0,0,0,1154,1155,1368,
1148,1149,1154,1155,1346,1347,0,0,0,0,0,1150,1151,0,1148,1149,0,0,0,0,0,0,0,0,1148,1149,0,0,0,0,0,0,0,0,0,0,0,0,0,0,0,0,0,1148,1149,0,0,0,0,0,0,0,0,0,0,0,0,0,0,0,0,0,0,0,0,0,0,0,0,0,0,0,0,0,0,0,0,0,0,0,0,0,0,0,0,0,0,0,0,0,0,0,0,0,0,0,0,0,0,0,0,0,0,0,0,0,0,0,0,0,0,0,0,0,0,0,0,0,0,0,0,0,0,0,0,0,0,0,0,0,0,0,0,0,0,0,0,0,0,0,0,0,0,0,2040,2041,0,0,0,0,0,0,1148,1149,0,0,0,0,0,0,0,0,0,0,0,0,0,0,0,0,0,0,0,0,0,0,0,0,0,0,0,0,0,0,0,0,0,0,0,0,0,0,0,0,0,0,0,0,0,0,0,0,0,0,0,0,0,0,0,0,0,0,0,0,0,0,0,0,0,0,0,0,0,0,0,0,0,0,0,0,0,0,0,0,0,0,1150,1151,0,1346,1347,1224,1225,1226,1227,1346,1347,1200,1201,1202,1203,0,0,1372,1370,1373,
1364,1370,1373,0,0,0,0,1346,1347,1148,1149,0,0,0,0,0,1152,1153,0,0,0,0,0,0,0,0,0,0,0,0,0,0,0,0,0,0,0,0,0,0,0,0,0,0,0,0,0,0,0,0,0,0,0,0,0,0,1346,1347,0,0,0,0,0,0,0,0,0,0,0,0,0,0,0,0,0,0,0,0,0,0,0,0,0,0,0,0,0,0,0,0,0,0,0,0,0,0,0,0,0,0,0,0,0,0,0,0,0,0,0,0,0,0,0,0,0,0,0,0,0,0,0,0,0,0,0,0,0,0,0,0,0,0,0,0,0,0,0,0,0,0,0,0,0,0,0,0,0,0,0,0,2040,2041,0,0,0,0,0,0,0,0,0,0,0,0,0,0,0,0,0,0,0,0,0,0,0,0,0,0,0,0,0,0,0,0,0,0,0,0,0,0,0,0,0,0,0,0,0,0,0,0,0,0,0,0,0,0,0,0,0,0,0,0,0,0,0,0,0,0,0,0,0,0,0,0,0,0,0,0,0,0,0,2040,2041,0,0,0,0,0,0,0,0,0,0,0,0,0,0,1224,1225,1226,1227,0,0,1154,1155,1368,
1152,1153,1154,1155,1152,1153,0,0,0,0,0,0,0,1152,1153,0,0,0,0,0,0,0,0,0,0,0,0,0,0,0,0,0,0,0,0,0,0,0,0,0,0,0,0,0,0,0,0,0,0,0,0,0,0,0,0,0,0,0,0,0,0,0,0,0,0,0,0,0,1148,1149,0,2040,2041,0,0,0,0,0,0,0,0,0,0,0,0,0,0,0,0,0,0,0,0,0,0,1148,1149,0,0,0,0,0,0,0,0,0,0,0,0,0,0,0,0,0,0,0,0,0,0,0,0,0,0,0,0,0,0,0,0,0,0,0,0,0,0,0,0,0,0,0,0,0,0,0,0,0,0,0,2040,2041,0,0,0,0,0,0,0,0,0,0,0,0,0,0,0,0,0,0,0,0,0,0,0,0,0,0,0,0,0,0,0,0,0,0,0,0,0,0,0,0,0,0,0,0,0,0,0,0,0,0,0,0,0,0,0,0,0,0,0,0,2040,2041,0,0,0,0,0,0,0,0,0,0,0,0,0,0,0,0,0,0,0,0,0,0,0,0,0,0,1196,1197,1198,1199,1152,1153,1346,1347,0,0,0,0,0,0,0,1367,1370,1365,
1369,1365,1364,0,0,0,1200,1201,1202,1203,1150,1151,0,0,0,1148,1149,0,0,0,0,0,0,0,0,0,0,0,0,0,0,0,0,0,0,0,0,0,0,0,0,0,0,0,0,0,0,0,0,0,0,0,0,0,0,0,1768,1804,1804,1804,1773,1804,1804,1804,1804,1804,1773,1804,1804,1804,1804,1804,1804,1804,1804,1804,1804,1804,1804,1804,1804,1769,0,0,0,0,0,0,0,0,0,0,0,0,0,0,0,0,0,0,0,0,0,0,0,0,0,0,0,0,0,0,0,0,0,0,0,0,0,0,0,0,0,0,0,0,0,0,0,0,0,0,0,0,0,0,0,0,0,0,0,0,0,0,0,0,0,0,0,0,0,0,0,0,0,0,0,0,0,0,0,0,1346,1347,0,0,0,0,0,0,0,0,0,0,0,0,0,0,0,0,0,0,0,0,0,0,0,0,0,0,0,0,0,0,0,0,0,0,0,0,0,0,0,0,1768,1804,1804,1804,1804,1773,1804,1804,1804,1804,1769,0,0,0,0,0,0,0,0,0,0,0,0,0,0,0,0,0,0,0,0,0,0,0,1220,1221,1222,1223,0,0,0,0,0,0,0,0,0,0,0,1148,1149,1367,
1150,1151,1152,1153,1152,1153,1224,1225,1226,1227,0,0,0,1150,1151,0,0,1196,1197,1198,1199,0,0,0,0,0,0,0,0,0,0,0,0,0,0,0,0,0,0,0,0,0,0,0,0,0,0,0,0,0,0,0,0,0,0,0,1771,0,0,0,1771,0,0,0,0,0,1771,0,0,0,0,0,0,0,0,0,0,0,0,0,0,1771,0,0,0,0,0,0,0,0,0,0,0,0,0,0,0,0,0,0,0,0,0,0,0,0,0,0,0,0,0,0,0,0,0,0,0,0,0,0,0,0,0,0,0,0,0,0,0,0,0,0,0,0,0,0,0,0,0,0,0,0,1148,1149,0,2040,2041,0,0,0,0,0,0,0,0,0,0,0,0,0,0,0,0,0,0,0,0,0,0,0,0,0,0,0,0,0,0,0,0,0,0,0,0,0,0,0,0,0,0,0,0,0,0,0,0,0,0,0,0,0,0,0,0,0,1771,0,0,0,0,1771,0,0,0,0,1771,0,0,0,0,0,0,0,0,0,0,0,0,0,0,0,0,0,0,0,0,0,0,0,0,0,0,0,0,0,1346,1347,1196,1197,1198,1199,1148,1149,0,1374,1371,1366,
1365,1372,1370,0,0,0,0,0,0,0,0,0,0,0,0,0,0,1220,1221,1222,1223,1770,1804,1804,1804,1804,1804,1769,0,0,0,0,0,0,0,0,0,1768,1804,1804,1804,1804,1804,1804,1804,1804,1804,1769,0,0,0,0,0,0,0,0,1771,2307,2308,2309,1771,1892,1893,1894,0,0,1771,0,2040,2041,0,0,1388,1388,1388,0,0,0,0,0,0,1771,0,0,0,0,0,0,0,0,0,0,0,0,0,0,0,0,0,0,0,0,0,0,0,0,0,0,0,0,0,0,0,0,0,0,0,0,0,0,0,0,0,0,0,0,0,0,0,0,0,0,0,0,0,0,0,0,0,2040,2041,0,0,0,0,0,0,0,0,0,0,0,0,0,0,0,0,0,0,1148,1149,0,0,0,0,0,0,0,0,0,0,0,0,0,0,0,0,0,0,0,1346,1347,0,0,0,0,0,0,0,0,0,0,0,0,0,0,0,0,0,0,0,0,1346,1347,1771,0,0,0,0,1771,0,0,0,0,1771,0,0,0,0,0,0,0,0,0,0,0,0,0,0,0,0,0,0,0,0,1152,1153,0,0,1148,1149,0,0,0,0,0,1220,1221,1222,1223,0,0,0,1580,1581,1582,
1586,1587,1588,1152,1153,1152,1153,1148,1149,0,1152,1153,1196,1197,1198,1199,0,0,0,0,0,0,0,0,0,0,0,1771,0,0,0,0,0,0,0,0,0,1771,0,0,0,0,0,0,0,0,0,1771,0,0,0,0,0,0,0,0,1771,2340,2341,2342,1771,1925,1926,1927,0,0,1771,0,0,0,0,0,1388,1388,1388,0,0,0,0,0,0,1771,0,0,0,0,0,0,0,0,0,0,0,0,0,0,0,0,0,0,0,0,0,0,0,0,0,0,0,0,0,0,0,0,0,0,0,0,0,0,0,0,0,0,0,0,0,0,0,0,0,0,0,0,0,0,0,0,0,0,0,0,0,0,0,0,0,0,0,0,0,0,0,0,0,0,0,0,0,0,0,0,0,0,0,0,0,0,0,0,0,0,0,0,0,0,0,0,0,0,0,0,0,0,0,0,0,0,0,0,0,0,0,0,0,0,0,0,0,0,0,0,0,0,1771,0,0,0,0,1771,0,0,0,0,1771,0,0,0,1346,1347,0,0,0,0,0,0,0,0,0,0,0,0,0,0,0,0,0,0,0,0,0,1200,1201,1202,1203,0,0,0,0,0,1152,1153,0,1604,1605,1606,
1610,1611,1612,0,0,0,0,0,0,0,0,0,1220,1221,1222,1223,0,0,0,0,0,0,0,0,0,0,0,1771,0,0,0,0,0,0,0,0,0,1771,0,0,0,0,0,0,0,0,0,1771,0,0,0,0,0,0,0,0,1771,0,0,0,1771,0,0,0,0,0,1771,0,0,0,0,0,1388,1388,1388,0,0,0,0,0,0,1771,0,0,0,0,0,0,0,0,0,0,0,0,0,0,0,0,0,0,0,0,0,0,0,0,0,0,0,0,0,0,0,0,1346,1347,0,0,0,0,0,0,0,0,0,0,0,0,0,0,0,0,0,0,0,0,0,0,0,0,0,0,0,0,0,0,0,0,0,0,0,0,0,0,0,0,0,0,0,0,0,0,0,0,0,0,0,0,0,0,0,0,1148,1149,0,0,0,0,0,0,0,0,0,0,0,0,0,0,0,0,0,0,0,0,0,0,0,0,0,0,0,0,0,0,1771,0,0,0,0,1771,0,0,0,0,1771,0,0,0,0,0,0,0,0,0,0,0,0,0,0,0,0,0,0,0,0,0,0,1196,1197,1198,1199,1224,1225,1226,1227,0,0,1148,1149,0,0,0,0,1372,1367,1369,
1373,1366,1371,0,1152,1153,1148,1149,1200,1201,1202,1203,0,0,0,0,1148,1149,0,0,0,0,0,0,0,0,0,1771,0,0,0,0,0,0,0,0,0,1771,0,0,0,0,0,0,0,0,0,1771,0,0,0,0,0,0,0,0,1771,0,0,0,1771,0,0,0,0,0,1771,0,2040,2041,0,0,0,0,0,0,0,0,0,0,0,1771,0,0,0,0,0,0,0,0,0,0,0,0,0,0,0,0,0,0,0,1346,1347,0,0,0,0,0,0,0,0,0,0,0,0,0,0,1346,1347,0,0,0,0,0,0,0,0,0,0,0,0,0,0,0,0,0,0,0,0,0,0,0,0,0,0,0,0,0,0,0,0,0,0,0,0,0,0,0,0,0,0,0,0,0,0,0,0,1346,1347,0,0,0,0,0,0,0,0,0,0,0,0,0,0,0,0,0,0,0,0,0,0,0,0,0,0,0,0,0,0,0,0,0,0,0,1771,0,0,0,0,1771,0,0,0,0,1771,0,0,0,0,0,0,0,0,0,0,0,0,0,0,0,0,0,0,0,0,0,0,1220,1221,1222,1223,0,0,0,0,1346,1347,0,0,1148,1149,0,0,1152,1153,1366,
1196,1197,1198,1199,0,0,0,0,1224,1225,1226,1227,0,0,0,0,0,0,0,0,0,2307,2308,2309,0,0,0,1771,0,0,0,0,0,0,0,0,0,1771,0,0,0,1684,1685,1686,0,0,0,1771,0,0,0,0,0,0,0,0,1771,0,0,0,1771,0,0,0,0,0,1771,0,0,0,0,0,0,0,0,0,0,0,0,0,0,1771,0,0,0,0,0,0,0,0,0,0,0,0,0,0,0,0,0,0,0,0,0,0,0,0,0,0,0,0,0,0,0,0,0,0,0,0,0,0,0,0,0,0,0,0,0,0,0,0,0,0,0,0,0,0,0,0,0,0,0,0,0,0,0,0,0,0,0,0,0,0,0,0,0,0,0,0,0,0,0,0,0,0,0,0,0,0,0,0,0,0,0,0,0,0,0,0,0,0,0,0,0,0,0,0,0,0,0,0,0,0,0,0,0,0,0,0,0,0,0,0,0,0,1771,0,0,0,0,1771,0,0,0,0,1771,0,0,0,0,0,0,0,0,0,2040,2041,0,0,0,0,0,0,0,0,0,0,0,0,0,0,0,1200,1201,1202,1203,0,0,1152,1153,0,0,1152,1153,1367,1366,1366,
1220,1221,1222,1223,1196,1197,1198,1199,0,0,0,0,0,0,0,0,1150,1151,0,0,0,2340,2341,2342,0,0,0,1771,0,0,0,0,0,0,0,0,0,1771,0,0,0,1717,1718,1719,0,0,0,1771,0,0,0,0,0,0,0,0,1771,0,0,0,1771,0,0,0,0,0,1771,0,0,0,0,0,0,0,0,0,1661,1662,1663,1664,0,1771,0,0,0,0,0,0,0,0,0,0,0,0,0,2040,2041,0,1768,1804,1804,1804,1804,1804,1804,1804,1769,0,0,0,0,0,0,0,0,0,0,0,0,0,0,0,0,0,0,0,0,0,0,0,0,0,0,0,0,0,0,0,0,0,0,0,0,0,0,0,0,0,0,0,0,0,0,0,0,0,0,0,0,0,0,0,0,0,0,0,0,0,0,0,0,0,0,0,0,0,0,0,0,0,0,0,0,0,0,0,0,0,0,0,0,0,0,0,0,0,0,0,0,1665,1666,1667,1668,0,1771,0,1770,1804,1804,1805,1804,1804,1803,0,1771,0,0,0,0,0,0,0,0,0,0,0,0,0,0,0,0,0,0,0,0,0,0,1148,1149,0,0,1224,1225,1226,1227,0,0,0,0,1150,1151,0,0,1586,1587,1588,
1368,1369,1365,0,1220,1221,1222,1223,0,0,0,0,0,0,0,0,0,0,0,0,0,0,0,0,0,0,0,1771,0,0,0,0,0,0,0,0,0,1771,0,0,0,0,0,0,0,0,0,1771,0,0,0,0,0,0,0,0,1771,0,1770,1804,1805,1804,1804,1803,0,1770,1802,0,0,0,0,0,0,0,0,0,1694,1695,1696,1697,0,1771,0,0,0,0,0,0,0,0,0,0,0,0,0,0,0,0,1771,0,0,0,0,0,0,0,1771,0,0,0,0,0,0,0,0,0,0,0,0,0,0,0,0,0,0,0,0,0,0,0,0,0,0,0,0,0,0,0,0,0,0,0,0,0,0,0,0,0,0,0,0,0,0,0,0,0,0,0,0,0,0,0,0,0,0,0,0,0,0,0,0,0,0,0,0,0,0,0,0,0,0,0,0,0,0,0,0,0,0,0,0,0,0,0,0,0,0,0,0,1698,1699,1700,1701,0,1771,0,0,0,0,0,0,0,0,0,1771,1902,1936,1936,1936,1936,1901,0,0,0,0,0,0,0,0,0,0,0,0,0,0,0,0,0,0,1150,1151,0,0,0,0,1346,1347,0,0,0,0,1150,1151,1610,1611,1612,
1580,1581,1582,0,0,0,0,0,1152,1153,0,0,0,0,0,0,0,1200,1201,1202,1203,0,0,0,0,0,1770,1802,0,0,0,0,0,0,0,0,0,1801,1804,1803,0,0,0,0,0,0,0,1771,0,0,0,0,0,0,0,0,1771,0,0,0,0,0,0,0,0,0,0,0,0,0,0,0,0,0,0,0,0,0,0,0,0,1771,2040,2041,0,0,0,0,0,0,0,0,0,0,0,0,0,0,1771,0,0,0,0,0,0,0,1771,0,0,0,0,0,0,0,0,0,0,0,0,0,0,0,0,0,0,0,0,0,0,0,0,0,0,0,0,0,0,0,0,0,0,0,0,0,0,0,0,0,0,0,0,0,0,0,0,0,0,0,0,0,0,0,0,0,0,0,0,0,0,0,0,0,0,1768,1804,1804,1804,1804,1804,1804,1804,1804,1769,0,0,0,0,0,0,0,0,0,0,0,0,0,0,0,0,0,0,0,0,0,1771,0,0,0,0,0,0,0,0,0,1771,0,0,0,0,0,1903,0,0,0,0,0,0,0,0,0,0,0,0,0,0,0,0,0,0,0,0,0,0,1346,1347,0,0,1346,1347,1150,1151,0,0,1372,1370,1368,
1604,1605,1606,1346,1347,1346,1347,0,0,0,0,0,1152,1153,0,1148,1149,1224,1225,1226,1227,0,0,0,0,0,0,0,0,0,0,0,0,0,0,0,0,0,0,0,0,0,0,0,0,0,0,1771,0,0,0,0,0,0,0,0,1801,1804,1804,1804,1804,1804,1804,1804,1804,1804,1804,1804,1804,1804,1804,1804,1804,1804,1804,1804,1803,0,1770,1804,1804,1802,0,0,0,0,0,0,0,0,0,0,0,0,0,0,0,0,1771,0,0,2307,2308,2309,0,0,1771,0,0,0,0,0,0,0,0,0,0,0,0,0,0,0,0,0,0,0,1665,1666,1667,1668,0,0,0,0,0,0,0,0,0,0,0,0,0,0,0,0,0,0,0,0,0,0,0,0,0,0,0,0,0,0,0,0,0,0,0,0,0,0,0,0,0,0,0,1771,0,0,0,0,0,0,0,0,1771,0,0,0,0,0,1148,1149,0,0,0,1346,1347,0,0,0,0,0,0,0,0,0,1801,1804,1803,0,1770,1804,1804,1804,1804,1804,1802,0,1892,1893,1894,0,1903,0,0,0,0,0,0,0,0,2040,2041,0,0,0,0,1200,1201,1202,1203,1152,1153,1148,1149,0,0,1150,1151,0,0,0,0,1152,1153,1586,1587,1588,
1372,1368,1370,0,0,0,0,0,0,0,0,0,0,0,0,0,0,0,0,0,0,0,0,0,0,0,0,0,0,0,0,0,0,0,0,0,0,0,0,0,0,0,0,0,0,0,0,1771,0,0,0,0,0,0,0,0,0,0,0,0,0,0,0,0,0,0,0,0,0,0,0,0,0,0,0,0,1364,0,0,0,0,0,0,0,0,0,0,0,0,0,0,0,0,0,0,0,0,0,1771,0,0,2340,2341,2342,0,0,1771,0,0,0,0,0,0,0,0,0,0,0,0,0,0,0,0,0,0,0,1698,1699,1700,1701,0,0,0,0,0,0,0,0,0,0,0,0,0,0,0,0,0,0,0,0,0,0,0,0,0,0,0,0,0,0,0,0,0,0,0,0,0,0,0,0,0,0,0,1771,0,0,0,0,0,0,0,0,1771,0,0,0,0,0,0,0,0,0,0,0,0,0,0,0,0,0,0,0,0,0,0,0,0,0,0,0,0,0,0,0,1903,0,1925,1926,1927,0,1903,0,0,0,0,0,0,0,0,0,0,2040,2041,0,0,1224,1225,1226,1227,0,0,0,0,0,0,0,0,0,1148,1149,0,0,0,1610,1611,1612,
1586,1587,1588,0,1196,1197,1198,1199,1148,1149,0,0,1200,1201,1202,1203,0,1150,1151,0,0,0,0,0,0,0,0,0,0,0,0,0,0,0,0,0,0,0,0,0,0,0,0,0,0,0,1770,1802,0,0,2040,2041,0,0,1768,1804,1804,1804,1804,1804,1804,1804,1804,1804,1769,0,0,0,0,0,0,0,0,0,0,0,0,0,0,0,0,0,0,0,0,0,0,0,0,0,0,0,0,0,0,0,0,0,1771,0,0,0,0,0,0,0,1771,0,0,0,0,0,0,0,0,1346,1347,0,0,0,2181,2182,2183,2184,0,0,0,0,0,0,0,0,0,0,0,0,0,0,0,0,0,0,0,0,0,0,0,1148,1149,0,0,0,0,0,0,0,0,0,0,0,0,0,0,0,0,2040,2041,0,0,0,0,0,0,1771,0,0,1665,1666,1667,1668,0,0,1771,0,0,0,0,0,0,0,0,0,0,0,0,0,0,0,0,0,0,0,0,0,0,0,0,0,0,0,0,0,0,0,1903,0,0,0,0,0,1903,0,0,0,0,0,0,0,0,0,0,0,0,0,0,0,0,0,0,1196,1197,1198,1199,1346,1347,1148,1149,0,0,0,0,1148,1149,1373,1369,1374,
1610,1611,1612,0,1220,1221,1222,1223,0,0,1148,1149,1224,1225,1226,1227,0,0,0,0,0,0,0,0,0,0,0,0,0,0,0,0,0,0,0,0,0,0,0,0,0,0,0,0,0,0,0,0,0,0,0,0,0,0,1771,0,0,0,0,0,0,0,0,0,1771,0,0,0,0,0,0,0,0,0,0,0,0,0,0,0,0,0,0,0,0,0,0,0,0,0,0,0,0,0,0,0,0,0,1771,0,0,0,0,0,0,0,1771,0,0,0,0,0,0,0,0,0,0,0,0,0,2214,2215,2216,2217,0,0,0,0,0,0,0,0,2307,2308,2309,0,0,0,0,0,0,0,0,0,0,0,0,0,1834,1870,1870,1870,1870,1870,1835,0,0,0,0,0,0,0,0,0,0,0,0,0,0,0,0,0,0,1771,0,0,1698,1699,1700,1701,0,0,1771,0,0,0,0,0,0,0,0,0,0,0,0,0,0,0,0,0,0,0,0,0,0,0,0,0,0,0,0,0,0,0,1903,0,0,0,0,0,1903,0,0,0,0,0,0,0,0,0,0,0,0,0,0,0,0,0,0,1220,1221,1222,1223,0,0,0,0,1346,1347,1152,1153,0,0,1154,1155,1369,
1372,1374,1369,0,0,0,0,0,1152,1153,0,0,0,0,0,0,0,0,0,0,0,0,0,0,0,0,0,0,0,0,1900,1936,1936,1935,0,0,1936,0,0,0,0,0,0,0,0,0,0,0,0,0,0,0,0,0,1771,0,0,0,0,0,0,0,0,0,1771,0,0,0,0,0,0,0,0,0,0,0,0,0,0,0,0,0,0,0,0,0,0,0,0,0,0,0,0,0,0,0,0,0,1771,0,0,0,0,0,0,0,1771,0,0,0,0,0,0,0,0,0,0,0,0,0,2247,2248,2249,2250,0,0,0,0,0,0,0,0,2340,2341,2342,0,0,0,0,0,0,0,0,0,0,0,0,0,1837,0,0,0,0,0,1837,0,0,0,0,0,0,0,0,0,0,0,0,0,0,0,0,0,0,1771,0,0,0,0,0,0,0,0,1771,0,0,0,0,0,0,0,0,0,0,0,0,0,0,0,0,0,0,0,0,0,0,0,0,0,0,0,0,0,0,0,0,0,1902,1936,1936,1936,1934,0,0,0,0,0,0,0,1346,1347,0,0,0,0,0,0,0,0,0,0,0,0,0,1152,1153,1150,1151,0,0,0,0,0,0,1369,1370,1373,
1200,1201,1202,1203,1148,1149,0,0,0,0,0,0,0,0,0,0,0,0,0,0,0,0,0,0,0,0,0,0,0,0,1903,0,0,0,0,0,0,1902,1936,1936,1901,0,0,0,0,0,0,0,0,0,0,0,0,0,1771,0,0,0,0,0,0,0,0,0,1771,0,0,0,0,0,0,0,0,0,0,0,0,0,1148,1149,0,0,0,0,0,0,0,0,0,0,0,0,0,0,0,0,0,0,1801,1804,1804,1804,1804,1803,0,0,0,0,0,0,0,0,0,0,0,0,0,0,0,0,0,0,0,0,0,0,0,0,0,0,0,0,0,0,0,0,0,0,0,0,0,0,0,0,0,0,0,0,1837,0,0,0,0,0,1837,0,0,0,0,0,0,0,0,0,1346,1347,0,0,0,0,0,0,0,1771,0,0,0,0,0,0,0,0,0,0,0,0,0,0,0,0,0,0,0,0,0,0,0,0,0,0,0,0,0,0,0,0,0,0,0,0,0,0,0,0,0,0,0,0,0,0,0,0,0,0,0,0,0,0,0,0,0,0,0,0,0,0,0,0,1346,1347,1152,1153,0,0,0,0,0,0,0,1346,1347,1152,1153,1148,1149,1365,
1224,1225,1226,1227,0,0,1346,1347,0,0,0,0,0,0,0,0,0,0,0,0,0,0,0,0,0,0,0,0,0,0,1903,0,0,0,0,0,0,0,0,0,1903,0,0,0,0,0,0,0,0,0,0,0,0,0,1771,0,0,0,2307,2308,2309,0,0,0,1771,0,0,0,0,0,0,0,0,0,0,0,0,0,0,0,0,0,0,0,0,0,0,0,0,0,0,0,0,0,0,0,0,0,0,0,0,0,0,0,0,0,0,0,0,0,0,0,0,0,0,0,0,0,0,0,0,0,0,0,0,0,0,0,0,0,0,0,0,0,0,0,0,0,0,0,0,0,1148,1149,0,0,0,0,1837,0,1855,1856,1857,0,1837,0,0,0,0,0,0,0,0,0,0,0,0,0,0,0,0,0,0,1771,0,0,0,0,0,0,1804,0,0,0,0,0,0,0,0,0,0,0,0,0,0,0,0,0,0,0,0,0,0,0,0,0,0,0,0,0,0,0,0,0,0,0,0,0,0,0,0,0,0,0,0,0,0,0,0,0,0,0,0,0,0,0,1150,1151,0,0,0,0,1200,1201,1202,1203,1148,1149,0,0,0,0,0,1365,1371,1364,
1365,1374,1365,0,0,0,0,0,0,0,0,0,0,0,0,0,0,0,0,0,0,0,0,0,0,0,0,0,0,0,1903,0,0,0,0,0,0,0,0,0,1903,0,0,0,0,0,0,0,0,0,0,0,0,0,0,0,0,0,2340,2341,2342,0,0,0,1771,0,0,0,0,0,0,0,0,0,0,0,0,0,0,0,0,0,0,0,0,0,0,0,0,0,0,0,0,0,0,0,0,0,0,0,0,0,0,0,0,0,0,0,0,0,0,0,0,0,0,0,0,0,0,0,0,0,0,0,0,0,0,0,0,0,0,0,0,0,0,0,1346,1347,0,0,0,0,0,0,0,0,0,0,1837,0,1888,1889,1890,0,1837,0,0,0,0,2040,2041,0,0,0,0,0,0,0,0,0,0,0,0,1801,1804,1804,1804,1804,1803,0,0,0,0,0,0,0,0,0,0,0,0,0,0,0,0,0,0,0,0,0,0,0,0,0,0,0,0,0,0,0,0,0,0,0,0,0,0,0,0,0,0,0,0,0,0,0,0,1768,1804,1804,1804,1804,1804,1804,1804,1769,0,0,1196,1197,1198,1199,1224,1225,1226,1227,0,0,1196,1197,1198,1199,0,1152,1153,1374,
1152,1153,1368,0,0,0,0,0,0,0,0,0,0,0,0,0,0,0,0,1836,1870,1869,0,0,1836,1870,1835,0,0,0,1903,0,0,0,2307,2308,2309,0,0,0,1903,0,0,0,0,0,0,0,0,0,0,0,0,0,0,0,0,0,0,0,0,0,0,0,1771,0,0,0,0,0,0,0,0,0,0,0,0,0,0,0,0,0,0,0,1665,1666,1667,1668,0,0,0,0,0,0,0,0,0,0,0,0,0,0,0,0,0,0,0,0,0,0,0,0,0,0,0,0,0,0,0,0,0,0,0,0,0,0,0,0,0,0,0,0,0,0,0,0,0,0,0,0,1346,1347,0,0,0,0,0,0,1837,0,0,0,0,0,1837,0,0,0,0,0,0,0,0,0,0,0,0,0,0,0,0,0,0,0,0,0,0,0,0,0,0,0,0,0,0,0,0,0,0,0,0,0,0,0,0,0,0,0,0,0,0,0,0,0,0,0,0,0,0,0,0,0,0,1346,1347,0,0,0,0,0,0,0,0,0,0,0,0,1771,0,0,0,0,0,0,0,1771,1150,1151,1220,1221,1222,1223,0,0,0,0,1148,1149,1220,1221,1222,1223,0,0,0,0,
1366,0,0,0,0,0,0,0,0,0,0,0,0,0,0,1148,1149,0,1148,1149,0,0,0,0,0,0,1837,0,0,0,1903,0,0,0,2340,2341,2342,0,0,0,1903,0,0,0,0,0,0,0,0,0,0,0,0,0,0,0,0,0,0,0,0,0,0,0,1771,2040,2041,0,0,0,0,0,1900,1936,1936,1936,1936,1936,1936,1936,1936,1936,1901,0,1698,1699,1700,1701,0,0,0,0,0,0,0,0,0,0,0,0,0,0,0,0,0,0,0,0,0,0,0,0,0,0,0,0,0,0,0,0,0,0,0,0,0,0,0,0,0,0,0,0,0,0,0,0,0,0,0,0,0,0,0,0,0,0,0,0,1837,0,0,0,0,0,1837,0,0,0,0,0,0,0,0,0,0,0,0,0,0,0,0,0,0,0,0,0,0,0,0,0,0,0,0,0,0,0,0,0,0,0,0,0,0,0,0,0,0,0,0,0,0,0,0,0,0,0,0,0,0,0,0,0,0,0,0,0,0,0,0,0,0,0,0,0,0,0,0,1771,0,0,0,0,0,0,0,1771,0,0,0,0,0,0,1150,1151,0,0,0,0,0,0,0,0,0,0,0,0,
0,0,0,0,0,0,0,0,0,0,0,0,0,0,0,0,0,0,0,0,0,0,0,0,0,0,1837,0,0,0,1903,0,0,0,0,0,0,0,0,0,1903,0,0,0,0,0,0,0,0,0,0,0,0,0,0,0,0,0,0,0,0,0,0,0,1771,0,0,0,0,0,0,0,1903,0,0,0,0,0,0,0,0,0,1903,0,0,0,0,0,0,0,0,0,0,0,0,0,0,0,0,0,0,0,0,0,0,0,1834,1870,1869,0,0,1836,1870,1870,1835,0,0,0,0,0,0,0,0,0,0,0,0,0,0,0,0,0,0,0,0,0,0,0,0,0,0,0,0,0,0,0,0,0,1867,1870,1869,0,0,1836,1868,0,0,0,0,1892,1893,1894,0,0,0,0,0,0,0,0,0,0,0,0,0,0,0,0,0,0,0,0,0,0,0,0,0,0,1950,1951,1952,1953,0,0,0,0,0,0,0,0,0,0,0,0,0,0,0,0,0,0,0,0,0,0,0,0,0,0,0,0,0,0,0,0,0,0,0,1771,0,0,1892,1893,1894,0,0,1771,0,0,1148,1149,0,0,0,0,1152,1153,1346,1347,0,0,0,0,0,0,0,0,
0,0,0,0,0,0,0,0,0,0,0,0,1200,1201,1202,1203,1148,1149,1150,1151,0,1950,1951,1952,1953,0,1837,0,0,0,1903,0,0,0,0,0,0,0,0,0,1903,0,0,0,0,0,0,0,0,0,0,0,0,0,0,0,0,0,0,0,0,0,0,0,1771,0,0,0,0,0,0,0,1903,0,0,0,0,0,0,0,0,0,1903,0,0,0,0,0,0,0,0,0,0,0,0,0,0,0,0,0,0,0,0,0,0,0,1837,0,0,0,0,0,0,0,1837,0,0,0,0,0,0,0,0,0,0,0,0,0,0,0,0,0,0,0,0,0,0,0,0,0,0,0,0,0,0,0,1148,1149,0,0,0,0,0,0,0,0,0,0,0,1925,1926,1927,0,0,0,0,0,0,0,0,0,0,0,0,0,0,0,0,0,0,0,0,0,0,0,0,0,0,2049,2050,2051,2052,0,0,0,0,1900,1936,1936,1936,1936,1935,0,0,0,0,0,0,0,0,0,0,0,0,0,0,0,0,0,0,0,0,0,0,0,0,0,1771,0,0,1925,1926,1927,0,0,1771,0,0,0,0,0,1150,1151,0,0,0,0,0,0,0,0,0,0,0,0,0,
0,0,0,0,0,0,0,0,1148,1149,1150,1151,1224,1225,1226,1227,0,0,0,0,0,2049,2050,2051,2052,0,1837,0,0,0,1903,0,0,0,0,0,0,0,0,0,1903,0,0,0,0,0,0,0,0,0,0,0,0,0,0,0,0,0,0,0,1770,1804,1804,1804,1802,0,0,0,0,0,0,0,1903,0,0,0,0,0,0,0,0,0,1903,0,0,0,0,0,0,0,0,0,0,0,0,0,0,0,0,0,0,0,0,0,0,0,1837,0,0,0,0,0,0,0,1837,1148,1149,0,0,0,0,0,0,0,0,0,0,0,0,0,0,0,0,0,0,0,0,0,0,0,0,1665,1666,1667,1668,0,0,0,0,0,0,0,0,0,0,0,0,0,0,0,0,0,0,0,0,0,1346,1347,0,0,0,0,0,0,0,0,0,0,0,0,0,0,0,0,0,0,0,0,2082,2083,2084,2085,0,0,0,0,1903,0,0,0,0,0,0,1903,0,0,0,0,0,0,0,0,0,0,0,0,0,0,0,0,0,0,0,0,0,0,0,1771,0,0,0,0,0,0,0,1771,0,0,1152,1153,0,0,0,0,0,0,0,0,0,0,0,0,0,0,0,0,
0,0,0,0,0,0,1346,1347,0,0,0,0,0,0,0,0,0,0,0,0,0,2082,2083,2084,2085,0,1837,0,0,0,1903,0,0,0,0,0,0,0,0,0,1903,1950,1951,1952,1953,0,0,0,0,0,0,0,0,0,0,0,0,0,0,0,0,0,0,0,0,0,0,0,0,0,0,0,1903,0,0,0,1684,1685,1686,0,0,0,1903,0,0,0,0,0,0,0,0,0,0,0,0,0,0,0,0,0,0,0,0,0,0,0,1837,0,0,2307,2308,2309,0,0,1837,0,0,0,0,0,0,0,0,0,0,0,0,0,0,0,0,0,0,0,0,0,0,0,0,0,0,1698,1699,1700,1701,0,0,0,0,0,0,0,0,0,0,0,0,0,0,0,0,0,2040,2041,0,0,0,0,0,0,0,0,0,0,0,0,0,0,0,0,0,0,0,0,0,0,0,0,0,0,0,0,0,0,0,0,1903,0,1661,1662,1663,1664,0,1903,0,0,0,0,0,0,0,0,0,0,0,0,0,0,0,0,0,0,0,0,0,0,0,1771,0,0,0,0,0,0,0,1771,0,0,0,0,0,0,0,0,0,0,0,0,0,0,0,0,0,1364,1372,1374,
1365,1368,1368,0,0,0,0,0,1150,1151,0,0,1148,1149,0,0,1196,1197,1198,1199,0,0,0,0,0,0,1837,0,0,0,1933,1936,1936,1936,1936,1936,1936,1936,1936,1936,1934,2049,2050,2051,2052,0,0,0,0,0,0,0,0,0,0,0,0,0,0,0,0,0,0,0,0,0,0,0,0,0,0,0,1903,0,0,0,1717,1718,1719,0,0,0,1903,0,0,0,0,0,0,0,0,0,0,0,0,0,0,0,0,0,0,1836,1870,1870,1835,0,1837,0,0,2340,2341,2342,0,0,1837,0,0,0,0,0,0,0,0,0,0,0,0,0,2426,0,0,0,0,0,0,0,0,0,0,0,0,0,0,0,0,0,0,0,0,1768,1804,1804,1804,1804,1804,1769,0,0,0,0,0,0,0,0,0,0,0,0,0,0,0,0,0,0,0,0,0,0,0,0,0,0,0,0,0,0,0,0,0,0,0,0,0,0,0,0,1903,0,1694,1695,1696,1697,0,1903,0,0,0,0,0,0,0,0,0,0,0,0,0,0,0,0,0,0,0,0,0,0,0,1771,0,0,0,0,0,0,0,1771,0,0,0,0,0,0,0,0,0,0,0,0,0,0,0,0,0,1152,1153,1371,
1586,1587,1588,1152,1153,1346,1347,0,0,0,1148,1149,0,0,1150,1151,1220,1221,1222,1223,0,0,0,0,0,0,1837,0,0,0,0,0,0,0,0,0,0,0,0,0,0,2082,2083,2084,2085,0,0,0,0,0,0,0,0,0,0,0,0,0,0,0,0,0,0,0,0,0,0,0,0,0,0,0,1903,0,0,0,0,0,0,0,0,0,1903,0,0,0,0,0,0,0,0,0,0,0,0,0,0,0,0,0,0,0,0,0,1837,0,1837,0,0,0,0,0,0,0,1837,0,0,0,0,0,0,0,0,0,0,0,0,0,0,0,0,0,0,0,0,0,0,0,0,0,0,0,0,0,0,0,0,0,0,1771,0,0,0,0,0,1771,0,0,0,0,0,0,0,0,0,0,0,0,0,0,0,0,0,0,0,0,0,0,0,0,0,0,0,0,0,0,0,0,0,0,0,0,0,0,0,0,1903,0,0,0,0,0,0,1903,0,0,0,1900,1936,1936,1936,1936,1936,1936,1935,0,0,0,0,0,0,0,0,0,0,0,0,1801,1804,1804,1804,1803,0,0,1770,1802,0,0,0,0,0,0,0,0,0,0,0,0,0,0,0,1150,1151,1368,1369,1365,
1610,1611,1612,0,0,0,0,0,0,0,0,0,0,0,0,0,0,0,0,1836,1870,1870,1870,1870,1870,1870,1868,0,0,0,0,0,0,0,0,0,0,0,0,0,0,0,0,0,0,0,0,0,0,0,0,0,0,0,0,0,0,0,0,0,0,0,0,0,0,0,0,0,0,0,0,0,1903,0,0,0,0,0,0,0,0,0,1903,0,0,0,0,0,0,0,0,0,0,0,0,0,0,0,0,0,0,0,0,0,1837,0,1837,0,0,0,0,0,0,0,1837,1687,1688,1689,0,0,0,0,0,0,0,0,0,0,0,0,0,0,0,0,0,0,0,0,0,0,0,0,0,0,0,0,0,0,0,1771,0,1892,1893,1894,0,1771,0,0,0,0,0,0,0,0,0,0,0,0,0,0,0,0,0,0,0,0,0,0,0,0,0,0,0,0,0,0,0,0,0,0,0,0,0,0,0,0,1903,0,0,0,0,0,0,1903,0,0,0,1903,0,0,0,0,0,0,0,0,1903,0,0,0,0,0,0,0,0,0,0,0,0,0,0,0,0,0,0,0,0,0,0,0,0,0,0,0,0,0,0,0,0,0,0,0,0,1580,1581,1582,
1372,1364,1366,0,1346,1347,1196,1197,1198,1199,1346,1347,1150,1151,0,1196,1197,1198,1199,0,0,0,0,0,0,0,0,0,0,0,0,0,0,0,0,0,0,0,0,0,0,0,0,0,0,0,0,0,0,0,0,0,0,0,0,0,0,0,0,0,0,0,0,0,0,0,0,0,0,0,0,0,1903,0,0,0,0,0,0,0,0,0,1903,0,0,0,0,0,0,0,0,0,0,0,0,0,0,0,0,0,0,0,0,0,1837,0,1837,0,0,0,0,0,0,0,1837,1720,1721,1722,0,0,0,0,0,0,0,0,0,0,0,0,0,0,0,0,0,0,0,0,0,0,0,0,0,0,0,0,0,0,0,1771,0,1925,1926,1927,0,1771,0,0,0,0,0,0,0,0,0,0,0,0,0,0,0,0,0,0,0,0,0,0,0,1950,1951,1952,1953,0,0,0,0,0,0,0,0,0,0,0,0,0,1933,1936,1936,1936,1936,1936,1936,1934,0,0,0,1903,0,0,0,0,0,0,0,0,1903,0,0,0,0,0,0,0,0,0,0,0,0,0,0,0,0,0,0,0,0,0,0,0,0,0,0,0,0,0,1346,1347,0,1200,1201,1202,1203,1604,1605,1606,
1196,1197,1198,1199,0,0,1220,1221,1222,1223,0,0,0,0,0,1220,1221,1222,1223,0,0,0,0,0,0,0,0,0,0,0,0,0,0,0,0,0,2040,2041,0,0,0,0,0,0,0,0,0,0,0,0,0,0,0,0,0,2040,2041,0,0,0,0,0,0,0,0,0,0,0,0,0,0,0,1903,0,0,0,0,0,0,0,0,0,1903,0,0,0,0,0,0,0,0,0,0,0,0,1834,1869,0,1950,1951,1952,1953,0,0,1837,0,1867,1870,1870,1870,1870,1870,1870,1870,1868,0,0,0,0,0,0,0,0,0,0,0,0,0,0,0,0,0,0,0,0,0,0,0,0,0,0,0,0,0,0,0,0,0,0,1771,0,0,0,0,0,1771,0,0,0,0,0,0,0,0,0,0,0,0,0,0,0,0,0,0,0,0,0,0,0,2049,2050,2051,2052,0,0,0,0,0,0,0,0,0,0,0,0,0,0,0,0,0,0,0,0,0,0,0,0,1903,0,0,0,0,0,0,0,0,1903,0,0,0,0,0,0,0,0,0,0,0,0,0,0,0,0,0,0,0,0,0,0,0,0,0,0,0,1346,1347,0,0,0,1224,1225,1226,1227,1368,1366,1369,
1220,1221,1222,1223,1148,1149,0,0,0,0,1346,1347,1148,1149,0,0,0,0,0,0,0,0,0,0,0,0,0,0,0,0,0,0,0,0,0,0,0,0,0,0,0,0,0,0,0,0,0,0,0,0,0,0,0,1834,1870,1870,1870,1870,1870,1869,0,0,0,0,0,0,0,0,0,0,0,0,1933,1935,0,0,1902,1936,1936,1936,1936,1936,1934,0,0,0,0,0,0,0,0,0,0,0,0,1837,0,0,2049,2050,2051,2052,0,0,1837,0,0,0,0,0,0,0,0,0,0,0,0,0,0,0,0,0,0,0,0,0,0,0,0,0,0,0,0,0,0,0,0,0,0,0,0,0,0,0,0,0,0,0,0,1771,0,0,0,0,0,1771,0,0,0,0,0,0,0,0,0,0,0,0,0,0,0,0,0,0,0,0,0,0,0,2082,2083,2084,2085,0,0,0,0,0,0,0,0,1148,1149,0,0,0,0,0,0,0,0,0,0,0,0,0,0,1903,0,0,1950,1951,1952,1953,0,0,1903,0,0,0,0,0,0,0,0,0,0,0,0,0,0,0,0,0,0,0,0,0,0,0,0,0,0,0,0,0,1152,1153,0,0,0,0,0,1148,1149,1365,
1365,1367,1373,0,0,0,1152,1153,0,0,0,0,0,0,0,0,0,1148,1149,0,0,0,0,0,0,0,0,0,0,0,0,0,0,0,0,0,0,0,0,0,0,0,0,0,0,0,0,0,0,0,0,0,0,1837,0,0,0,0,0,0,0,0,0,0,0,0,0,0,0,0,0,0,0,0,0,0,0,0,0,0,0,0,0,0,0,0,0,0,0,0,0,0,0,0,0,1837,0,0,2082,2083,2084,2085,0,0,1837,0,0,0,0,0,0,0,0,0,0,0,0,0,0,0,0,0,0,0,0,0,0,0,0,0,0,0,0,0,0,0,0,0,0,0,0,0,0,0,0,0,0,0,0,1771,0,0,1770,1804,1804,1802,0,0,0,0,0,0,0,0,0,0,0,0,0,0,0,0,0,0,0,0,0,0,0,0,0,0,0,0,0,0,0,0,0,0,0,0,0,0,0,0,0,0,0,0,0,0,0,0,0,0,0,1903,0,0,2049,2050,2051,2052,0,0,1903,0,0,0,0,0,0,0,0,0,0,0,0,0,0,0,0,0,0,0,0,0,0,1150,1151,0,0,1346,1347,0,0,0,1196,1197,1198,1199,0,1368,1366,1364,
1580,1581,1582,1150,1151,0,0,0,1150,1151,1196,1197,1198,1199,0,0,0,0,0,0,0,0,0,0,0,0,0,0,0,0,0,0,0,0,0,0,0,0,0,0,0,0,0,0,0,0,0,0,0,0,0,0,0,1837,0,0,0,0,0,0,0,0,0,1837,0,0,0,0,0,0,0,0,0,0,0,0,0,0,0,0,0,0,0,0,0,0,0,0,0,0,0,0,0,0,0,1837,0,0,0,0,0,0,0,0,1837,0,0,0,0,0,0,0,0,0,0,0,0,0,0,0,0,0,0,0,0,0,0,0,0,0,0,0,0,0,0,0,0,0,0,0,0,0,0,0,0,0,0,0,0,0,0,0,0,0,0,0,0,0,0,0,0,0,0,0,0,0,0,0,0,0,0,0,0,0,0,0,0,0,0,0,0,0,0,0,0,0,0,0,0,0,0,0,0,0,0,0,0,0,0,0,0,0,0,0,0,0,0,1903,0,0,2082,2083,2084,2085,0,0,1903,0,0,0,0,0,0,0,0,0,0,0,0,0,0,0,0,0,0,0,0,0,0,0,0,1148,1149,0,0,1152,1153,0,1220,1221,1222,1223,0,1583,1584,1585,
1604,1605,1606,0,0,1150,1151,0,0,0,1220,1221,1222,1223,0,0,0,0,1196,1197,1198,1199,0,0,0,0,0,0,2040,2041,0,1768,1804,1804,1804,1804,1804,1804,1804,1769,0,0,0,0,0,0,0,0,0,0,0,0,0,1837,0,0,0,0,0,0,0,0,0,1837,0,0,0,0,0,0,0,0,0,0,0,0,0,0,0,0,0,0,0,0,0,0,0,0,0,0,0,0,0,0,0,1837,0,0,0,0,0,0,0,0,1837,0,0,0,0,0,0,0,0,0,0,0,0,0,0,0,0,0,0,0,0,0,0,0,0,0,0,0,0,0,0,0,0,0,0,0,0,0,0,0,0,0,0,0,0,0,0,0,0,0,0,0,0,0,0,0,0,0,0,0,0,0,0,0,0,0,0,0,0,1900,1936,1936,1936,1936,1936,1936,1936,1901,0,0,0,0,0,0,0,0,0,0,0,0,0,0,0,0,0,0,0,0,0,0,0,0,0,1903,0,0,0,0,0,0,0,0,1903,0,0,0,0,0,0,0,0,0,0,1834,1870,1870,1870,1870,1869,0,0,1836,1870,1835,1152,1153,0,0,0,1152,1153,0,0,0,0,0,0,0,0,1607,1608,1609,
1368,1369,1367,0,0,0,0,1150,1151,0,0,0,0,0,1200,1201,1202,1203,1220,1221,1222,1223,0,0,0,0,0,0,0,0,0,1771,0,0,0,0,0,0,0,1771,0,0,0,0,0,0,0,0,0,0,0,0,0,1837,0,0,0,1687,1688,1689,0,0,0,1837,0,0,0,0,0,0,0,0,0,0,0,0,0,0,0,0,0,0,0,0,0,0,0,0,0,0,0,0,0,0,0,1837,0,0,0,0,0,0,0,0,1837,0,0,0,0,0,0,0,0,0,0,0,0,0,0,0,0,0,0,0,0,0,0,0,0,0,1346,1347,0,0,0,0,0,0,0,0,0,0,0,0,0,0,0,0,0,0,0,0,0,0,0,0,0,0,0,0,0,0,0,0,0,0,0,0,0,0,0,0,0,1903,0,0,0,0,0,0,0,1903,0,0,0,0,0,0,0,0,0,0,0,0,0,0,0,0,0,0,0,0,0,0,0,0,0,1903,0,0,0,0,0,0,0,0,1903,0,0,0,0,0,0,0,0,0,0,1837,0,0,0,0,0,0,0,0,0,1837,0,0,1346,1347,0,0,0,0,1152,1153,1200,1201,1202,1203,0,1368,1364,1370,
1150,1151,1148,1149,0,1346,1347,0,0,0,1196,1197,1198,1199,1224,1225,1226,1227,0,0,0,0,0,0,0,0,0,0,0,0,0,1771,0,0,0,0,0,0,0,1771,0,0,0,0,0,0,0,0,0,0,0,0,0,1837,0,0,0,1720,1721,1722,0,0,0,1837,0,0,0,0,0,0,0,0,0,0,0,0,0,0,0,0,0,0,0,0,0,0,0,0,0,0,0,0,0,0,0,1867,1870,1870,1870,1870,1870,1870,1870,1870,1868,0,0,0,0,0,0,0,1346,1347,0,0,0,0,0,0,0,0,0,0,0,0,0,1768,1804,1804,1804,1804,1804,1803,0,0,0,0,0,0,0,0,0,0,0,0,0,0,0,0,0,0,0,0,0,0,0,0,0,0,0,0,0,0,0,0,0,0,0,2040,2041,0,0,1903,0,0,0,0,0,0,0,1903,0,0,0,0,0,0,0,0,0,0,0,0,0,0,0,0,0,0,0,0,0,0,0,0,0,1903,0,0,0,0,0,0,0,0,1903,0,0,0,0,0,0,0,0,0,0,1837,0,0,0,0,0,0,0,0,0,1837,0,0,0,0,0,0,0,0,0,0,1224,1225,1226,1227,0,1346,1347,1370,
1368,1367,1371,0,0,0,0,0,1152,1153,1220,1221,1222,1223,0,0,0,0,0,0,0,0,0,0,0,0,0,0,0,0,0,1771,0,0,1892,1893,1894,0,0,1771,0,0,0,0,0,0,0,0,0,0,0,0,0,1837,0,0,0,0,0,0,0,0,0,1837,0,0,0,0,0,0,0,0,0,0,0,0,0,0,0,0,0,0,0,0,0,0,0,0,0,0,0,0,0,0,0,0,0,0,0,0,0,0,0,0,0,0,0,0,0,0,0,0,0,0,0,0,0,0,0,0,0,0,0,0,0,0,0,1771,0,0,0,0,0,0,0,1771,0,0,0,0,0,0,0,0,0,0,0,0,0,0,0,0,0,0,0,0,0,0,0,0,0,0,0,0,0,0,0,0,0,0,0,0,0,1903,0,0,1687,1688,1689,0,0,1903,0,0,0,0,0,0,0,0,0,0,0,0,0,0,0,0,0,0,1148,1149,0,0,0,0,0,1933,1936,1936,1936,1936,1936,1936,1936,1936,1934,0,0,0,0,0,0,0,0,0,0,1837,0,0,0,0,0,0,0,0,0,1200,1201,1202,1203,0,1200,1201,1202,1203,0,0,0,0,0,0,0,1368,1371,1374,
1580,1581,1582,0,1346,1347,1148,1149,0,0,0,0,0,0,1196,1197,1198,1199,0,0,0,0,0,0,0,0,0,0,0,0,0,1771,0,0,1925,1926,1927,0,0,1771,0,0,0,0,0,0,0,0,0,0,0,0,0,1837,0,0,0,0,0,0,0,0,0,1837,0,0,0,0,0,0,0,0,0,0,0,0,0,0,0,0,0,0,0,0,0,0,0,0,0,0,0,0,0,1768,1804,1804,1804,1804,1804,1804,1804,1804,1769,0,0,0,0,0,0,0,0,0,0,0,0,0,0,0,0,2040,2041,0,0,0,0,0,0,1771,0,0,0,0,0,0,0,1771,0,0,0,0,0,0,0,0,0,0,0,0,0,0,0,0,0,0,0,0,0,0,0,0,0,0,0,0,0,0,0,0,0,0,0,0,0,1903,0,0,1720,1721,1722,0,0,1903,0,0,0,0,0,0,0,0,0,0,0,0,0,0,0,0,0,0,0,0,0,0,0,0,0,0,0,0,0,0,0,0,0,0,0,0,0,0,0,0,0,0,0,0,0,1837,0,0,0,1687,1688,1689,0,0,0,1224,1225,1226,1227,0,1224,1225,1226,1227,1196,1197,1198,1199,0,0,0,1150,1151,1369,
1604,1605,1606,0,0,0,0,0,1200,1201,1202,1203,0,0,1220,1221,1222,1223,0,0,0,0,0,0,0,0,0,0,0,0,0,1771,0,0,0,0,0,0,0,1771,0,0,0,0,0,0,0,0,0,0,0,0,0,1837,0,0,0,0,0,0,0,0,0,1837,0,0,0,0,0,0,0,0,0,0,0,0,0,0,0,0,0,0,0,0,0,0,0,0,0,0,0,0,0,1771,0,0,0,0,0,0,0,0,1771,0,0,0,0,0,0,0,0,0,0,0,0,0,0,0,0,0,0,0,0,0,0,0,0,1771,0,0,2307,2308,2309,0,0,1771,0,0,0,0,0,0,0,0,0,0,0,0,0,0,0,0,0,0,0,0,0,0,0,0,0,0,0,1836,1870,1870,1870,1835,0,0,0,0,0,1903,0,0,0,0,0,0,0,1903,0,0,0,0,0,0,0,0,0,0,0,0,0,0,0,0,0,0,0,0,0,0,0,0,0,0,0,0,0,0,0,0,0,0,0,0,0,1148,1149,0,0,0,0,0,0,1837,0,0,0,1720,1721,1722,0,0,0,0,0,0,0,0,0,0,0,0,1220,1221,1222,1223,0,0,0,1366,1366,1367,
1364,1374,1371,1346,1347,0,0,0,1224,1225,1226,1227,1148,1149,0,0,0,0,0,0,0,0,0,0,0,0,0,0,0,0,0,1771,0,0,0,0,0,0,0,1771,0,0,0,0,0,0,0,0,0,0,0,0,0,1837,0,0,0,0,0,0,0,0,0,1837,0,2040,2041,0,0,0,0,0,0,0,0,0,0,0,0,0,0,0,0,0,0,0,0,0,0,0,0,0,0,1771,0,0,0,0,0,0,0,0,1771,0,0,0,0,0,0,0,0,0,0,0,0,0,0,0,0,0,0,0,1346,1347,0,0,0,1771,0,0,2340,2341,2342,0,0,1771,0,0,0,0,0,0,0,0,0,0,0,0,0,0,0,0,0,0,0,0,0,0,0,0,0,1837,0,0,0,0,0,1837,0,0,0,0,0,1903,0,0,0,0,0,0,0,1903,0,0,0,0,0,0,0,0,0,0,0,0,0,0,0,0,0,1148,1149,0,0,0,0,0,0,0,0,0,0,0,0,0,0,0,0,0,0,0,0,0,0,0,0,0,0,1837,0,0,0,0,0,0,0,0,0,0,1148,1149,0,0,0,1152,1153,0,0,0,0,0,1346,1347,0,1148,1149,1374,
1586,1587,1588,0,0,1346,1347,0,0,0,0,0,0,0,0,0,1200,1201,1202,1203,0,0,0,0,0,0,0,0,0,0,0,1771,0,0,0,0,0,0,0,1771,0,0,0,0,0,0,0,0,0,0,0,0,0,1867,1870,1870,1870,1870,1870,1870,1870,1870,1870,1868,0,0,0,0,0,0,0,0,0,0,1834,1870,1870,1870,1869,0,0,1836,1870,1870,1835,0,0,0,0,0,0,0,0,1771,0,0,1661,1662,1663,1664,0,0,1771,0,0,0,0,0,0,0,0,0,0,0,0,0,0,0,0,0,0,0,0,0,0,0,0,1771,0,0,0,0,0,0,0,1771,0,0,0,0,0,0,0,0,0,0,0,0,0,0,0,0,0,0,0,0,0,0,0,0,0,1837,0,1684,1685,1686,0,1837,0,0,0,0,0,1903,0,0,0,0,0,0,0,1903,0,0,0,0,0,0,0,0,0,0,0,0,0,0,0,0,0,0,0,0,0,0,0,0,0,0,0,0,0,0,0,0,0,0,0,0,0,0,0,0,0,0,0,0,0,1837,0,0,0,0,0,0,0,0,0,0,0,0,0,1150,1151,0,0,1196,1197,1198,1199,0,0,0,0,1365,1372,1366,
1610,1611,1612,1150,1151,0,0,1346,1347,1346,1347,1152,1153,0,0,0,1224,1225,1226,1227,0,0,0,0,0,0,0,0,0,0,0,1801,1804,1804,1803,0,0,1770,1804,1802,0,0,0,0,0,0,0,0,0,0,0,0,0,0,0,0,0,0,0,0,0,0,0,0,0,0,0,0,0,0,0,0,0,0,1837,0,0,0,0,0,0,0,0,0,1837,1346,1347,0,0,0,0,0,0,1771,0,0,1694,1695,1696,1697,0,0,1771,0,0,2040,2041,0,0,0,0,0,1346,1347,0,0,0,0,0,0,0,0,0,0,1346,1347,0,1771,0,0,0,0,0,0,0,1771,0,0,0,0,0,0,0,0,0,0,0,0,0,0,0,1834,1870,1870,1870,1870,1870,1870,1870,1870,1835,1837,0,1717,1718,1719,0,1837,0,0,0,0,0,1933,1936,1936,1935,0,0,1902,1936,1934,0,2040,2041,0,0,0,0,0,0,0,0,0,0,0,0,0,0,0,0,0,0,0,0,0,0,0,0,0,0,0,0,0,0,0,0,0,0,0,0,0,0,0,0,0,0,1837,0,0,0,0,0,0,0,0,1152,1153,0,0,0,0,0,1346,1347,1220,1221,1222,1223,1148,1149,1346,1347,1580,1581,1582,
1366,1370,1373,0,0,1148,1149,0,0,0,0,0,0,1152,1153,0,0,0,0,0,0,0,0,0,0,1148,1149,0,0,0,0,0,0,0,0,0,0,0,0,0,0,0,0,0,0,0,0,0,0,0,0,0,0,0,0,0,0,0,0,0,0,0,0,0,0,0,0,0,0,0,0,0,0,0,1837,0,0,0,0,0,0,0,0,0,1837,0,0,0,2040,2041,0,0,0,1771,0,0,0,0,0,0,0,0,1771,0,0,0,0,0,0,0,0,0,0,0,0,0,0,0,0,1346,1347,0,0,0,0,0,0,1771,0,0,0,0,0,0,0,1771,0,0,0,0,0,0,0,0,0,0,0,0,0,0,0,0,0,0,0,0,0,0,0,0,1837,1837,0,0,0,0,0,1837,0,0,0,0,0,0,0,0,0,0,0,0,0,0,0,0,0,0,0,0,0,0,0,0,0,0,0,0,0,0,0,0,0,0,0,0,0,0,0,0,0,0,0,0,0,0,0,0,0,0,0,0,0,0,0,0,0,0,0,1837,0,0,0,0,0,0,0,0,0,0,0,0,0,0,0,0,0,0,0,0,0,0,0,0,0,1604,1605,1606,
1200,1201,1202,1203,0,0,0,1152,1153,1200,1201,1202,1203,0,0,0,1200,1201,1202,1203,0,0,0,0,0,0,0,0,0,0,0,0,0,0,0,0,0,0,0,0,0,0,0,0,0,0,0,0,0,0,0,0,0,0,0,0,0,0,0,0,0,0,0,0,0,0,0,0,0,0,0,0,0,0,1837,0,0,0,0,0,0,0,0,0,1837,0,0,0,0,0,0,0,0,1771,0,0,0,0,0,0,0,0,1771,0,0,0,0,0,0,0,0,0,0,0,0,0,0,0,0,0,0,0,0,0,0,0,0,1801,1804,1804,1804,1804,1804,1804,1804,1802,0,0,0,0,1346,1347,0,0,0,0,0,0,0,0,0,1837,0,0,0,0,0,0,0,0,1837,1837,0,0,0,0,0,1837,0,0,0,0,0,0,0,0,0,0,0,0,0,0,0,0,0,0,0,0,0,0,0,0,0,0,0,0,0,0,0,0,0,0,0,0,0,0,0,0,0,0,0,0,0,0,0,0,0,0,0,0,0,0,0,0,0,0,0,1867,1870,1870,1870,1870,1870,1870,1870,1870,1869,1200,1201,1202,1203,1148,1149,0,1346,1347,1150,1151,1152,1153,1346,1347,0,1372,1370,1369,
1224,1225,1226,1227,1150,1151,0,0,0,1224,1225,1226,1227,0,0,0,1224,1225,1226,1227,0,0,0,0,0,0,0,0,0,0,0,0,0,0,0,0,0,0,0,0,0,0,0,0,0,0,0,0,0,0,0,0,0,0,0,0,0,0,0,0,0,0,0,0,0,0,0,0,0,0,0,0,0,0,1837,0,0,0,2307,2308,2309,0,0,0,1837,0,0,0,0,0,0,0,0,1771,0,0,0,0,0,0,0,0,1771,0,0,0,0,0,0,0,0,0,0,0,0,0,0,0,0,0,0,0,0,0,0,1148,1149,0,0,0,0,0,0,0,0,0,0,0,0,0,0,0,0,0,0,0,0,0,0,0,0,1837,0,0,1665,1666,1667,1668,0,0,1837,1867,1870,1870,1870,1870,1870,1868,0,0,2040,2041,0,0,0,0,0,0,0,0,0,0,0,0,0,0,0,0,0,0,0,0,0,0,0,0,0,0,0,0,0,0,0,0,0,0,0,0,0,0,0,0,0,0,0,0,0,0,0,0,0,0,0,0,0,0,0,0,0,0,0,0,0,0,0,0,0,1224,1225,1226,1227,0,0,0,0,0,0,0,0,0,0,0,0,1580,1581,1582,
1367,1366,1364,0,0,0,1152,1153,0,0,0,0,0,1150,1151,0,0,0,0,0,0,0,0,0,0,0,0,0,0,0,0,0,0,0,0,0,0,0,0,0,0,0,0,0,0,0,0,0,0,0,0,0,0,0,0,0,0,0,0,0,0,0,0,0,0,0,0,0,0,0,0,0,0,0,1837,0,0,0,2340,2341,2342,0,0,0,1837,0,0,0,0,0,0,0,0,1801,1804,1804,1804,1803,0,0,1770,1804,1802,0,0,0,0,0,0,0,0,0,0,0,0,0,0,0,0,0,0,0,0,0,0,0,0,0,0,0,0,0,0,0,0,0,0,0,0,0,0,0,0,0,0,0,0,0,0,0,0,1837,0,0,1698,1699,1700,1701,0,0,1837,0,0,0,0,0,0,0,0,0,0,0,0,0,0,0,0,0,0,0,0,0,0,0,0,0,0,0,0,0,0,0,0,0,0,0,0,0,0,0,0,0,0,0,0,0,0,0,0,0,0,0,0,1148,1149,0,0,0,0,0,0,0,0,0,0,0,0,0,0,0,0,0,0,0,0,1150,1151,0,0,0,0,0,0,0,1196,1197,1198,1199,0,1200,1201,1202,1203,1604,1605,1606,
1150,1151,1150,1151,1346,1347,0,0,1148,1149,0,1346,1347,0,0,0,0,0,0,0,0,0,0,0,0,0,0,0,0,0,0,0,0,0,0,0,0,0,0,0,0,0,0,0,0,0,0,0,0,0,0,0,0,1148,1149,0,0,0,0,0,0,0,0,0,0,0,0,0,0,0,0,0,0,0,1837,0,0,0,0,0,0,0,0,0,1837,0,0,2040,2041,0,0,0,0,0,0,0,0,0,0,0,0,0,0,0,0,0,0,0,0,0,0,0,0,0,0,0,0,0,0,0,0,0,0,0,0,0,0,0,0,0,0,0,0,0,0,0,0,0,0,0,0,0,0,0,0,0,0,0,0,0,0,1837,0,0,0,0,0,0,0,0,1837,0,0,0,0,0,0,0,0,0,0,0,0,0,0,0,0,0,0,0,0,0,0,0,0,0,0,0,0,0,1148,1149,0,0,0,0,0,0,0,0,0,0,0,0,0,0,0,0,0,0,0,0,0,0,0,0,0,0,0,0,0,0,0,0,0,0,0,1346,1347,0,0,0,0,0,0,0,0,1200,1201,1202,1203,1150,1151,0,1220,1221,1222,1223,0,1224,1225,1226,1227,1371,1364,1364,
1367,1366,1369,0,0,0,1152,1153,0,0,0,0,0,1200,1201,1202,1203,0,0,0,0,0,0,0,0,0,0,0,0,0,0,0,0,0,0,0,0,0,0,0,0,0,0,0,0,0,0,0,0,0,0,0,0,0,0,0,0,0,0,0,0,0,0,0,0,0,0,0,0,0,0,0,1148,1149,1837,0,0,0,0,0,0,0,0,0,1837,0,0,0,0,0,0,0,0,0,0,0,0,0,0,0,0,0,0,0,0,0,0,0,0,0,0,0,0,0,0,0,0,0,1148,1149,0,0,0,0,0,0,0,0,0,0,0,0,0,0,2040,2041,0,0,0,0,0,0,0,0,0,0,0,0,0,0,0,1837,0,0,0,0,0,0,0,0,1837,0,0,0,0,0,0,0,0,0,0,0,0,0,0,1196,1197,1198,1199,0,0,0,0,0,1200,1201,1202,1203,0,0,0,0,0,0,0,0,0,0,0,0,0,0,0,0,0,0,0,0,0,0,0,0,0,0,0,0,0,0,0,0,0,0,0,0,0,0,0,0,0,0,0,0,0,0,0,0,0,1224,1225,1226,1227,0,0,0,0,0,0,0,0,0,0,0,0,1589,1590,1591,
1196,1197,1198,1199,1148,1149,0,0,1196,1197,1198,1199,0,1224,1225,1226,1227,0,1200,1201,1202,1203,0,0,0,0,0,0,0,0,0,0,0,0,0,0,0,0,0,0,0,0,0,0,0,0,0,0,1148,1149,0,0,0,1346,1347,0,0,0,0,0,0,0,0,0,0,0,0,0,1196,1197,1198,1199,0,0,1837,0,0,0,0,0,0,0,0,0,1837,0,0,0,0,0,0,0,0,0,0,0,0,0,0,0,0,0,0,0,0,0,0,0,0,1200,1201,1202,1203,0,0,0,0,0,0,0,0,0,0,0,1148,1149,1148,1149,1152,1153,0,0,0,0,0,0,0,0,0,1200,1201,1202,1203,1346,1347,1150,1151,0,1152,1153,0,1837,0,1148,1149,0,0,1346,1347,0,1837,0,0,0,0,0,1346,1347,0,1150,1151,0,0,0,0,1220,1221,1222,1223,0,0,0,0,0,1224,1225,1226,1227,0,0,1196,1197,1198,1199,0,0,0,0,0,0,0,1148,1149,0,1148,1149,0,0,0,0,0,0,0,0,1346,1347,0,0,0,0,1346,1347,0,0,1148,1149,0,0,0,0,0,0,1150,1151,0,0,0,0,0,0,0,1152,1153,0,0,1148,1149,0,0,1150,1151,1150,1151,1613,1614,1615,
1220,1221,1222,1223,0,0,0,0,1220,1221,1222,1223,0,0,0,0,0,0,1224,1225,1226,1227,0,0,0,1346,1347,0,0,0,0,0,0,0,0,0,0,0,0,0,1200,1201,1202,1203,0,0,0,0,0,0,1150,1151,0,0,0,0,0,0,0,0,0,0,1196,1197,1198,1199,0,0,1220,1221,1222,1223,0,0,1837,0,0,1346,1347,0,0,0,0,0,1837,0,0,0,0,0,0,0,0,0,0,0,0,0,0,0,0,0,0,0,0,0,0,0,0,1224,1225,1226,1227,1200,1201,1202,1203,0,1152,1153,1150,1151,0,0,0,0,0,0,0,0,0,0,0,0,0,0,0,0,0,1224,1225,1226,1227,0,0,0,0,0,0,0,0,1867,1870,1870,1870,1869,0,0,1836,1870,1868,0,0,0,0,0,0,0,0,0,0,1200,1201,1202,1203,0,0,0,0,1346,1347,0,0,0,0,0,0,0,1150,1151,1220,1221,1222,1223,1346,1347,0,0,0,0,0,0,0,0,0,0,1148,1149,0,0,0,0,0,0,0,0,0,0,0,0,0,0,0,0,0,0,1148,1149,0,0,1346,1347,0,0,0,0,0,1152,1153,1346,1347,0,0,1150,1151,0,0,1150,1151,0,0,0,0,1373,1372,1367,
1365,1364,1370,0,0,0,1152,1153,0,0,0,0,1148,1149,1150,1151,1346,1347,0,0,0,0,0,0,0,0,0,1148,1149,1346,1347,0,0,0,0,0,0,0,0,0,1224,1225,1226,1227,0,1152,1153,0,0,0,0,0,0,0,0,1152,1153,0,0,0,0,0,1220,1221,1222,1223,0,0,0,0,0,0,0,0,1867,1870,1870,1870,1869,1150,1151,1836,1870,1870,1868,0,0,0,0,0,0,0,0,0,0,0,0,0,0,0,0,0,0,0,0,0,0,0,0,0,0,0,0,1224,1225,1226,1227,0,0,0,0,0,0,0,1196,1197,1198,1199,0,0,0,0,0,0,0,0,0,0,0,0,0,0,0,0,0,1150,1151,1150,1151,1152,1153,0,0,1200,1201,1202,1203,1150,1151,0,0,1152,1153,1196,1197,1198,1199,1148,1149,0,0,1224,1225,1226,1227,1200,1201,1202,1203,0,0,1196,1197,1198,1199,0,0,0,0,0,0,0,0,0,0,0,1346,1347,1200,1201,1202,1203,0,1150,1151,0,0,0,1196,1197,1198,1199,0,0,0,1196,1197,1198,1199,0,0,0,1152,1153,0,0,0,0,1148,1149,0,0,0,0,0,0,0,0,0,0,0,1150,1151,0,0,0,0,0,0,1152,1153,1148,1149,1586,1587,1588,
1152,1153,1200,1201,1202,1203,0,0,1346,1347,1152,1153,0,0,0,0,0,0,0,0,0,0,0,0,0,0,0,0,0,0,0,0,0,0,0,0,0,0,0,0,0,0,0,0,0,0,0,1148,1149,1346,1347,1196,1197,1198,1199,0,0,0,1196,1197,1198,1199,0,0,0,0,0,1150,1151,1196,1197,1198,1199,1200,1201,1202,1203,0,0,0,0,1200,1201,1202,1203,0,0,0,0,0,0,0,0,0,0,0,0,0,0,0,0,0,0,0,0,0,0,0,0,0,0,0,0,0,0,0,0,0,0,0,0,0,0,0,1220,1221,1222,1223,0,0,0,0,0,0,0,0,0,0,0,0,0,0,0,0,0,0,0,0,0,0,0,0,0,1224,1225,1226,1227,0,0,0,0,0,0,1220,1221,1222,1223,0,0,0,0,0,0,0,0,1224,1225,1226,1227,1150,1151,1220,1221,1222,1223,0,0,0,0,0,0,1346,1347,0,0,0,0,0,1224,1225,1226,1227,0,0,0,0,0,0,1220,1221,1222,1223,1152,1153,0,1220,1221,1222,1223,1148,1149,0,0,0,0,1346,1347,0,0,0,1196,1197,1198,1199,1152,1153,0,0,0,0,0,0,0,1148,1149,1150,1151,0,0,0,0,0,0,1610,1611,1612,
1370,1371,1224,1225,1226,1227,1152,1153,0,0,0,0,0,1200,1201,1202,1203,0,1152,1153,0,0,0,0,0,0,1150,1151,1200,1201,1202,1203,0,0,0,0,0,0,0,0,0,0,0,1200,1201,1202,1203,0,0,0,0,1220,1221,1222,1223,0,0,0,1220,1221,1222,1223,0,0,0,0,0,0,0,1220,1221,1222,1223,1224,1225,1226,1227,1150,1151,1152,1153,1224,1225,1226,1227,1150,1151,0,0,0,0,0,0,0,0,1152,1153,0,0,0,0,0,0,0,0,0,0,0,0,0,0,0,0,0,1346,1347,0,1196,1197,1198,1199,0,0,0,0,0,0,0,0,0,0,0,0,0,0,0,0,0,0,0,0,0,0,0,1346,1347,1152,1153,1152,1153,0,1346,1347,0,0,0,0,1196,1197,1198,1199,0,0,0,0,0,0,1152,1153,0,0,1196,1197,1198,1199,0,0,0,0,0,0,0,0,0,0,0,0,0,0,0,0,0,0,0,1200,1201,1202,1203,0,0,0,0,0,0,0,0,0,0,0,0,0,0,0,0,0,0,0,0,0,0,0,1148,1149,0,0,0,0,0,1346,1347,1220,1221,1222,1223,0,0,1346,1347,1152,1153,1152,1153,0,0,0,0,0,1152,1153,1346,1347,1150,1151,1367,1365,1368,
1150,1151,1373,0,0,0,0,0,0,1152,1153,1152,1153,1224,1225,1226,1227,0,0,0,0,0,0,0,0,0,0,0,1224,1225,1226,1227,0,0,0,0,0,0,0,0,0,0,0,1224,1225,1226,1227,1200,1201,1202,1203,0,0,0,0,0,1152,1153,0,0,0,0,1200,1201,1202,1203,0,0,0,0,0,0,0,0,0,0,0,0,0,0,0,0,0,0,0,0,0,1196,1197,1198,1199,1200,1201,1202,1203,0,0,0,0,0,0,0,0,0,0,0,0,0,0,0,1346,1347,0,0,0,0,0,1220,1221,1222,1223,1200,1201,1202,1203,0,1346,1347,1150,1151,0,0,0,0,0,0,0,0,0,0,0,0,0,0,0,0,0,0,0,0,0,0,0,1196,1197,1198,1199,1220,1221,1222,1223,1196,1197,1198,1199,1150,1151,0,0,0,0,1220,1221,1222,1223,1152,1153,1148,1149,1200,1201,1202,1203,0,1150,1151,1196,1197,1198,1199,1152,1153,1148,1149,1224,1225,1226,1227,0,1200,1201,1202,1203,1148,1149,1150,1151,0,0,1148,1149,1148,1149,0,1148,1149,1346,1347,0,1152,1153,0,0,0,0,1346,1347,0,0,0,0,0,0,0,1148,1149,0,0,0,0,0,0,0,1148,1149,1150,1151,0,0,0,0,0,0,1150,1151,1367,
1366,1371,1152,1153,1196,1197,1198,1199,0,0,0,0,0,0,0,0,0,0,1148,1149,0,0,0,0,0,0,0,0,0,0,0,0,0,0,0,0,0,0,1200,1201,1202,1203,0,0,0,0,0,1224,1225,1226,1227,0,0,1148,1149,0,0,0,1148,1149,0,0,1224,1225,1226,1227,1152,1153,0,1346,1347,1148,1149,1150,1151,0,0,0,0,1150,1151,0,1150,1151,1152,1153,0,1220,1221,1222,1223,1224,1225,1226,1227,0,0,1150,1151,0,0,0,0,0,0,0,0,0,0,0,0,0,0,0,0,0,0,0,0,0,0,1224,1225,1226,1227,0,0,0,0,0,0,0,0,0,0,0,0,0,0,0,0,0,0,0,0,0,0,1150,1151,0,1150,1151,0,1220,1221,1222,1223,0,0,0,0,1220,1221,1222,1223,0,0,1148,1149,1150,1151,0,0,0,0,0,0,0,0,1224,1225,1226,1227,0,0,0,1220,1221,1222,1223,0,0,0,0,0,0,0,0,0,1224,1225,1226,1227,0,0,0,0,1150,1151,0,0,0,0,0,0,0,0,0,0,0,0,1200,1201,1202,1203,0,0,0,1346,1347,0,1152,1153,0,0,0,0,0,1152,1153,0,1148,1149,0,0,0,0,1148,1149,0,1152,1153,0,1371,1374,1371,
1150,1151,1369,0,1220,1221,1222,1223,0,1148,1149,0,1346,1347,1150,1151,1152,1153,0,0,0,0,0,0,0,0,0,0,0,0,0,0,0,0,0,0,0,0,1224,1225,1226,1227,0,1152,1153,0,0,0,0,0,0,1152,1153,0,0,0,1346,1347,0,0,1150,1151,0,0,0,0,0,0,0,0,0,0,0,0,0,1150,1151,1148,1149,0,0,0,0,0,0,0,0,0,0,0,0,0,0,0,0,1150,1151,0,0,1152,1153,1148,1149,0,0,0,0,0,0,0,1200,1201,1202,1203,1148,1149,1152,1153,1150,1151,0,0,0,0,0,1148,1149,1152,1153,0,0,0,0,0,0,0,0,0,0,0,0,0,0,0,0,0,0,0,0,0,0,0,0,0,0,0,0,0,0,1152,1153,0,0,0,0,1150,1151,0,0,0,0,1148,1149,0,1150,1151,1148,1149,0,0,0,0,0,0,0,0,0,0,0,0,1196,1197,1198,1199,0,1148,1149,0,0,0,0,0,0,1196,1197,1198,1199,0,0,1148,1149,0,0,1346,1347,0,1200,1201,1202,1203,0,1224,1225,1226,1227,0,1150,1151,0,0,0,0,0,1148,1149,1346,1347,0,0,0,0,0,0,0,1152,1153,0,0,0,0,0,0,0,1154,1155,1371,
1370,1369,1346,1347,0,0,0,0,0,0,0,0,0,0,0,0,0,0,1148,1149,0,0,0,0,0,0,0,0,0,0,0,0,0,0,0,0,0,0,0,0,0,0,0,0,0,1148,1149,1150,1151,1150,1151,0,0,1148,1149,0,0,0,1346,1347,0,0,1346,1347,1152,1153,0,1196,1197,1198,1199,0,0,0,0,0,0,0,0,0,1196,1197,1198,1199,1150,1151,1148,1149,0,1152,1153,1346,1347,0,0,0,0,0,0,0,0,0,0,0,0,0,0,0,0,0,1224,1225,1226,1227,0,0,0,0,0,0,1200,1201,1202,1203,0,0,0,0,0,0,0,0,0,0,0,0,0,0,0,0,0,0,0,0,0,0,0,1148,1149,0,0,1150,1151,1196,1197,1198,1199,0,0,0,0,0,1152,1153,0,0,0,0,0,0,0,0,0,0,0,0,0,0,0,1150,1151,0,1196,1197,1198,1199,1152,1153,0,0,1220,1221,1222,1223,0,0,0,1150,1151,0,1150,1151,0,1220,1221,1222,1223,0,0,0,0,1152,1153,0,0,0,1224,1225,1226,1227,0,0,0,0,0,0,0,0,1152,1153,1346,1347,0,0,0,0,0,1196,1197,1198,1199,1152,1153,0,0,0,0,1196,1197,1198,1199,1148,1149,1369,1370,1370,
1150,1151,1368,0,0,0,1196,1197,1198,1199,1200,1201,1202,1203,1196,1197,1198,1199,0,0,0,0,0,0,0,0,0,0,0,0,0,0,0,0,0,0,0,0,0,0,0,1196,1197,1198,1199,0,0,0,0,0,0,0,0,0,0,1150,1151,0,0,0,1152,1153,0,0,0,0,0,1220,1221,1222,1223,1148,1149,1346,1347,0,1148,1149,1346,1347,1220,1221,1222,1223,0,0,0,0,0,0,0,0,0,1200,1201,1202,1203,1346,1347,1196,1197,1198,1199,1152,1153,0,0,0,0,0,0,0,0,0,1346,1347,1200,1201,1202,1203,1224,1225,1226,1227,0,0,1150,1151,1346,1347,0,0,0,0,0,0,0,0,0,0,0,0,0,0,0,0,0,0,0,1150,1151,0,0,1220,1221,1222,1223,1346,1347,1148,1149,0,0,0,0,1152,1153,1346,1347,1200,1201,1202,1203,0,0,0,0,0,0,0,0,0,1220,1221,1222,1223,0,0,1150,1151,0,0,0,0,1148,1149,0,0,0,0,0,0,0,0,0,0,0,0,0,0,0,0,0,0,0,0,0,0,0,0,1152,1153,0,0,0,0,0,0,0,0,0,0,1150,1151,0,1150,1151,1220,1221,1222,1223,0,0,0,1346,1347,0,1220,1221,1222,1223,0,0,1580,1581,1582,
1364,1364,1150,1151,1346,1347,1220,1221,1222,1223,1224,1225,1226,1227,1220,1221,1222,1223,1152,1153,0,0,0,0,0,0,0,0,0,0,0,0,0,0,0,1346,1347,0,0,0,0,1220,1221,1222,1223,1152,1153,0,0,0,1200,1201,1202,1203,0,0,0,1346,1347,0,0,0,1148,1149,0,1152,1153,0,0,0,0,0,0,0,0,0,0,0,0,0,0,0,0,0,1148,1149,1148,1149,1150,1151,1150,1151,0,1224,1225,1226,1227,0,0,1220,1221,1222,1223,0,0,0,0,0,0,1148,1149,1150,1151,0,0,0,1224,1225,1226,1227,0,0,0,0,1152,1153,0,0,0,0,0,0,0,0,0,0,0,0,0,0,0,0,0,0,0,0,0,1346,1347,0,0,1148,1149,0,0,0,0,0,0,0,0,1346,1347,1346,1347,0,0,0,0,1224,1225,1226,1227,0,0,0,0,0,0,0,0,0,0,0,0,0,1346,1347,0,0,0,1346,1347,0,0,0,1346,1347,1150,1151,0,1196,1197,1198,1199,0,0,0,0,0,0,0,1150,1151,1346,1347,0,1346,1347,0,0,0,0,0,0,0,0,0,0,0,0,0,0,0,0,0,0,0,0,0,0,0,0,0,0,0,0,0,0,0,0,1148,1149,1604,1605,1606,
1152,1153,1366,0,0,0,0,0,0,0,0,0,0,0,0,0,0,0,0,0,0,0,0,0,0,0,0,0,0,0,0,0,0,1150,1151,0,0,1200,1201,1202,1203,0,0,0,0,0,0,1346,1347,0,1224,1225,1226,1227,1152,1153,0,0,0,1346,1347,0,0,0,0,0,0,0,1150,1151,0,0,0,0,0,0,0,1152,1153,0,1196,1197,1198,1199,0,0,0,0,0,0,0,0,0,0,0,0,0,1150,1151,0,0,0,0,0,1152,1153,0,0,0,0,0,0,0,1148,1149,0,0,0,0,0,0,0,0,0,0,0,0,1346,1347,0,0,0,0,0,0,0,0,0,0,0,0,0,0,0,0,0,0,0,0,1152,1153,0,0,1152,1153,1148,1149,1346,1347,0,0,0,0,0,0,0,0,1346,1347,0,0,0,0,0,0,0,0,0,0,0,0,0,0,0,1346,1347,0,0,0,1152,1153,0,0,1148,1149,0,0,0,0,0,0,1220,1221,1222,1223,0,0,0,0,0,0,0,0,0,0,0,0,0,0,1196,1197,1198,1199,0,0,0,0,0,0,0,0,0,0,1150,1151,0,1346,1347,0,1152,1153,0,0,1148,1149,0,0,1152,1153,1346,1347,0,0,1372,1374,1365,
1365,1367,1148,1149,1346,1347,1152,1153,0,0,1196,1197,1198,1199,1346,1347,1200,1201,1202,1203,0,0,0,0,0,0,0,0,0,0,0,0,0,0,0,1150,1151,1224,1225,1226,1227,0,1346,1347,1346,1347,0,0,0,0,0,0,0,0,0,0,1150,1151,0,0,0,1196,1197,1198,1199,1152,1153,0,0,0,0,0,0,0,0,0,0,0,0,0,1220,1221,1222,1223,1346,1347,1346,1347,0,0,1346,1347,1196,1197,1198,1199,0,0,0,1200,1201,1202,1203,0,0,0,0,0,0,0,1152,1153,0,0,0,0,1346,1347,0,0,1150,1151,0,0,0,1346,1347,0,0,0,0,0,0,0,0,0,0,0,0,0,0,0,0,0,0,0,0,0,0,0,0,1148,1149,0,0,0,0,0,0,1196,1197,1198,1199,0,1346,1347,0,0,0,1346,1347,0,0,0,0,0,0,0,0,0,0,0,1346,1347,0,0,0,1148,1149,0,0,0,0,0,0,1152,1153,0,1346,1347,0,0,0,0,0,0,0,0,0,0,0,0,0,0,1148,1149,1148,1149,0,1220,1221,1222,1223,0,0,0,0,0,0,0,0,0,0,0,0,0,0,0,0,0,0,0,0,0,0,0,0,0,0,0,0,1148,1149,1589,1590,1591,
1346,1347,1373,0,0,0,0,0,1346,1347,1220,1221,1222,1223,0,0,1224,1225,1226,1227,0,0,0,0,0,0,0,0,0,0,0,0,1148,1149,0,0,0,0,0,0,0,0,0,0,0,0,0,1150,1151,0,1148,1149,1346,1347,0,0,0,0,0,0,0,1220,1221,1222,1223,0,0,1148,1149,1148,1149,0,0,0,0,1150,1151,1346,1347,0,0,0,0,0,0,0,0,0,1152,1153,0,0,1220,1221,1222,1223,1148,1149,0,1224,1225,1226,1227,0,1150,1151,1346,1347,1152,1153,0,0,1200,1201,1202,1203,0,0,1148,1149,0,0,1152,1153,0,0,0,1196,1197,1198,1199,0,0,0,0,0,0,0,0,0,0,0,0,0,0,0,0,0,1346,1347,0,0,0,1150,1151,0,1150,1151,0,1220,1221,1222,1223,0,0,0,1148,1149,0,0,0,0,0,0,0,0,0,0,0,0,0,0,0,0,1346,1347,0,0,0,1200,1201,1202,1203,1148,1149,0,0,0,0,0,1152,1153,1346,1347,0,0,0,0,0,0,0,0,0,0,0,0,0,0,0,0,0,0,0,0,0,0,0,0,0,0,0,1150,1151,1346,1347,1150,1151,1200,1201,1202,1203,0,1152,1153,1346,1347,1148,1149,1148,1149,0,0,0,1613,1614,1615,
1368,1369,1583,1584,1585,0,1148,1149,0,0,0,0,0,0,1346,1347,0,0,0,0,0,0,0,0,0,0,1200,1201,1202,1203,0,0,0,0,0,1200,1201,1202,1203,1148,1149,1346,1347,0,1152,1153,0,0,0,0,0,0,0,0,1148,1149,1346,1347,0,1346,1347,0,0,0,0,0,0,0,0,0,0,0,0,0,0,0,0,0,0,1196,1197,1198,1199,0,1150,1151,1150,1151,0,0,1150,1151,0,0,0,0,0,0,0,0,0,0,0,0,0,0,0,0,0,0,1148,1149,1224,1225,1226,1227,1148,1149,0,0,1148,1149,0,0,0,1148,1149,1220,1221,1222,1223,0,0,0,0,0,0,0,0,0,0,0,0,0,0,0,0,0,0,0,1346,1347,0,0,0,0,0,0,0,0,0,0,0,1152,1153,0,0,0,1150,1151,0,1196,1197,1198,1199,0,0,0,0,0,0,0,0,0,0,0,0,1150,1151,1224,1225,1226,1227,0,0,1148,1149,1152,1153,0,0,0,0,0,0,0,0,0,0,0,0,0,0,0,0,1152,1153,0,1152,1153,1196,1197,1198,1199,0,0,0,0,0,0,0,0,0,0,0,0,0,1224,1225,1226,1227,0,0,0,0,0,0,0,0,0,0,0,0,1374,1374,1372,
1346,1347,1607,1608,1609,0,0,0,1346,1347,1148,1149,1148,1149,0,0,1150,1151,1150,1151,0,0,2040,2041,0,0,1224,1225,1226,1227,1148,1149,1152,1153,0,1224,1225,1226,1227,0,0,0,0,0,0,0,0,0,1346,1347,1148,1149,1150,1151,0,0,0,0,0,0,0,1152,1153,0,1152,1153,1148,1149,1150,1151,0,0,0,0,1346,1347,1148,1149,0,1220,1221,1222,1223,0,0,0,0,0,0,0,0,0,1152,1153,0,0,1152,1153,1152,1153,1346,1347,1148,1149,0,1346,1347,0,1152,1153,0,0,0,0,0,0,0,0,1150,1151,0,0,1346,1347,0,0,0,0,0,0,0,0,0,0,0,0,0,0,0,0,0,0,0,0,0,0,0,0,0,0,0,0,1148,1149,1152,1153,1148,1149,1150,1151,1346,1347,0,0,0,1150,1151,0,0,0,0,1220,1221,1222,1223,1150,1151,0,0,0,0,1148,1149,1150,1151,1148,1149,0,0,0,0,0,0,1346,1347,0,0,0,0,1346,1347,0,1150,1151,0,1152,1153,0,0,0,0,0,0,0,0,0,0,0,0,0,1220,1221,1222,1223,1148,1149,1152,1153,1346,1347,1346,1347,1346,1347,1152,1153,0,0,0,0,0,0,1150,1151,0,1152,1153,1152,1153,0,1148,1149,0,1583,1584,1585,
1365,1373,1365,1366,1368,1368,1367,1366,1372,1372,1366,1368,1367,1366,1373,1373,1372,1368,1372,1364,1372,1373,1368,1371,1370,1374,1369,1372,1374,1366,1373,1365,1369,1364,1370,1369,1369,1366,1364,1373,1372,1370,1374,1373,1374,1364,1373,1370,1366,1366,1367,1369,1373,1364,1371,1370,1371,1373,1364,1365,1366,1369,1372,1371,1370,1366,1371,1373,1366,1364,1364,1369,1373,1366,1364,1364,1372,1368,1366,1368,1364,1367,1367,1367,1374,1372,1373,1372,1374,1374,1373,1367,1373,1374,1370,1374,1364,1369,1368,1366,1374,1371,1374,1364,1365,1368,1369,1370,1366,1364,1364,1374,1367,1374,1371,1370,1364,1366,1371,1368,1373,1365,1364,1368,1368,1364,1364,1364,1370,1369,1370,1373,1364,1369,1371,1369,1365,1370,1369,1368,1374,1368,1365,1371,1371,1365,1372,1368,1372,1365,1371,1373,1364,1367,1374,1369,1372,1364,1369,1370,1368,1372,1370,1366,1371,1364,1366,1364,1365,1372,1370,1372,1370,1372,1364,1371,1365,1365,1369,1365,1370,1373,1374,1368,1373,1374,1364,1372,1364,1366,1365,1372,1374,1370,1368,1365,1364,1374,1374,1374,1365,1374,1365,1372,1370,1364,1370,1366,1366,1364,1364,1373,1373,1369,1368,1367,1364,1370,1365,1370,1364,1372,1369,1368,1366,1366,1371,1374,1365,1373,1370,1369,1368,1368,1370,1374,1367,1371,1374,1369,1368,1372,1372,1373,1374,1364,1367,1368,1374,1374,1374,1374,1370,1607,1608,1609,
1152,1153,1152,1153,1346,1347,1589,1590,1591,1346,1347,1589,1590,1591,1586,1587,1588,1196,1197,1198,1199,1589,1590,1591,1152,1153,1586,1587,1588,1580,1581,1582,1346,1347,1152,1153,1200,1201,1202,1203,1200,1201,1202,1203,1150,1151,1589,1590,1591,1200,1201,1202,1203,1589,1590,1591,1583,1584,1585,1583,1584,1585,1583,1584,1585,1346,1347,1583,1584,1585,1154,1155,1154,1155,1154,1155,1589,1590,1591,1583,1584,1585,1150,1151,1154,1155,1152,1153,1148,1149,1196,1197,1198,1199,1589,1590,1591,1586,1587,1588,1196,1197,1198,1199,1154,1155,1150,1151,1154,1155,1154,1155,1200,1201,1202,1203,1589,1590,1591,1150,1151,1580,1581,1582,1152,1153,1580,1581,1582,1154,1155,1583,1584,1585,1154,1155,1580,1581,1582,1580,1581,1582,1196,1197,1198,1199,1196,1197,1198,1199,1200,1201,1202,1203,1196,1197,1198,1199,1150,1151,1583,1584,1585,1154,1155,1154,1155,1200,1201,1202,1203,1346,1347,1148,1149,1200,1201,1202,1203,1586,1587,1588,1148,1149,1586,1587,1588,1154,1155,1580,1581,1582,1196,1197,1198,1199,1152,1153,1148,1149,1583,1584,1585,1583,1584,1585,1150,1151,1346,1347,1148,1149,1583,1584,1585,1152,1153,1196,1197,1198,1199,1580,1581,1582,1346,1347,1346,1347,1200,1201,1202,1203,1200,1201,1202,1203,1154,1155,1589,1590,1591,1154,1155,1150,1151,1346,1347,1586,1587,1588,1148,1149,1365,1364,1372,1372,
1368,1368,1372,1365,1373,1372,1613,1614,1615,1367,1364,1613,1614,1615,1610,1611,1612,1220,1221,1222,1223,1613,1614,1615,1373,1372,1610,1611,1612,1604,1605,1606,1364,1374,1366,1371,1224,1225,1226,1227,1224,1225,1226,1227,1371,1369,1613,1614,1615,1224,1225,1226,1227,1613,1614,1615,1607,1608,1609,1607,1608,1609,1607,1608,1609,1373,1372,1607,1608,1609,1366,1372,1369,1366,1369,1364,1613,1614,1615,1607,1608,1609,1371,1370,1374,1364,1371,1364,1367,1368,1220,1221,1222,1223,1613,1614,1615,1610,1611,1612,1220,1221,1222,1223,1365,1374,1368,1372,1370,1372,1364,1369,1224,1225,1226,1227,1613,1614,1615,1366,1369,1604,1605,1606,1372,1373,1604,1605,1606,1366,1370,1607,1608,1609,1372,1371,1604,1605,1606,1604,1605,1606,1220,1221,1222,1223,1220,1221,1222,1223,1224,1225,1226,1227,1220,1221,1222,1223,1372,1373,1607,1608,1609,1372,1369,1370,1365,1224,1225,1226,1227,1367,1373,1371,1372,1224,1225,1226,1227,1610,1611,1612,1369,1364,1610,1611,1612,1372,1371,1604,1605,1606,1220,1221,1222,1223,1370,1364,1371,1372,1607,1608,1609,1607,1608,1609,1373,1367,1373,1364,1374,1373,1607,1608,1609,1374,1371,1220,1221,1222,1223,1604,1605,1606,1368,1374,1373,1371,1224,1225,1226,1227,1224,1225,1226,1227,1366,1374,1613,1614,1615,1371,1368,1367,1368,1367,1368,1610,1611,1612,1366,1365,1154,1155,1154,1155
</data>
 </layer>
 <layer id="5" name="sprites" width="256" height="128">
  <data encoding="csv">
0,0,0,0,0,0,0,0,0,0,0,0,0,0,0,0,0,0,0,0,0,0,0,0,0,0,0,0,0,0,0,0,0,0,0,0,0,0,0,0,0,0,0,0,0,0,0,0,0,0,0,0,0,0,0,0,0,0,0,0,0,0,0,0,0,0,0,0,0,0,0,0,0,0,0,0,0,0,0,0,0,0,0,0,0,0,0,0,0,0,0,0,0,0,0,0,0,0,0,0,0,0,0,0,0,0,0,0,0,0,0,0,0,0,0,0,0,0,0,0,0,0,0,0,0,0,0,0,0,0,0,0,0,0,0,0,0,0,0,0,0,0,0,0,0,0,0,0,0,0,0,0,0,0,0,0,0,0,0,0,0,0,0,0,0,0,0,0,0,0,0,0,0,0,0,0,0,0,0,0,0,0,0,0,0,0,0,0,0,0,0,0,0,0,0,0,0,0,0,0,0,0,0,0,0,0,0,0,0,0,0,0,0,0,0,0,0,0,0,0,0,0,0,0,0,0,0,0,0,0,0,0,0,0,0,0,0,0,0,0,0,0,0,0,0,0,0,0,0,0,0,0,0,0,0,0,
0,0,0,0,0,0,0,0,0,0,0,0,0,0,0,0,0,0,0,0,0,0,0,0,0,0,0,0,0,0,0,0,0,0,0,0,0,0,0,0,0,0,0,0,0,0,0,0,0,0,0,0,0,0,0,0,0,0,0,0,0,0,0,0,0,0,0,0,0,0,0,0,0,0,0,0,0,0,0,0,0,0,0,0,0,0,0,0,0,0,0,0,0,0,0,0,0,0,0,0,0,0,0,0,0,0,0,0,0,0,0,0,0,0,0,0,0,0,0,0,0,0,0,0,0,0,0,0,0,0,0,0,0,0,0,0,0,0,0,0,0,0,0,0,0,0,0,0,0,0,0,0,0,0,0,0,0,0,0,0,0,0,0,0,0,0,0,0,0,0,0,0,0,0,0,0,0,0,0,0,0,0,0,0,0,0,0,0,0,0,0,0,0,0,0,0,0,0,0,0,0,0,0,0,0,0,0,0,0,0,0,0,0,0,0,0,0,0,0,0,0,0,0,0,0,0,0,0,0,0,0,0,0,0,0,0,0,0,0,0,0,0,0,0,0,0,0,0,0,0,0,0,0,0,0,0,
0,0,0,0,0,0,0,0,0,0,0,0,0,0,0,0,0,0,0,0,0,0,0,0,0,0,0,0,0,0,0,0,0,0,0,0,0,0,0,0,0,0,0,0,0,0,0,0,0,0,0,0,0,0,0,0,0,0,0,0,0,0,0,0,0,0,0,0,0,0,0,0,0,0,0,0,0,0,0,0,0,0,0,0,0,0,0,0,0,0,0,0,0,0,0,0,0,0,0,0,0,0,0,0,0,0,0,0,0,0,0,0,0,0,0,0,0,0,0,0,0,0,0,0,0,0,0,0,0,0,0,0,0,0,0,0,0,0,0,0,0,0,0,0,0,0,0,0,0,0,0,0,0,0,0,0,0,0,0,0,0,0,0,0,0,0,0,0,0,0,0,0,0,0,0,0,0,0,0,0,0,0,0,0,0,0,0,0,0,0,0,0,0,0,0,0,0,0,0,0,0,0,0,0,0,0,0,0,0,0,0,0,0,0,0,0,0,0,0,0,0,0,0,0,0,0,0,0,0,0,0,0,0,0,0,0,0,0,0,0,0,0,0,0,0,0,0,0,0,0,0,0,0,0,0,0,
0,0,0,0,0,0,0,0,0,0,0,0,0,0,0,0,0,0,0,0,0,0,0,0,0,0,0,0,0,0,0,0,0,0,0,0,0,0,0,0,0,0,0,0,0,0,0,0,0,0,0,0,0,0,0,0,0,0,0,0,0,0,0,0,0,0,0,0,0,0,0,0,0,0,0,0,0,0,0,0,0,0,0,0,0,0,0,0,0,0,0,0,0,0,0,0,0,0,0,0,0,0,0,0,0,0,0,0,0,0,0,0,0,0,0,0,0,0,0,0,0,0,0,0,0,0,0,0,0,0,0,0,0,0,0,0,0,0,0,0,0,0,0,0,0,0,0,0,0,0,0,0,0,0,0,0,0,0,0,0,0,0,0,0,0,0,0,0,0,0,0,0,0,0,0,0,0,0,0,0,0,0,0,0,0,0,0,0,0,0,0,0,0,0,0,0,0,0,0,0,0,0,0,0,0,0,0,0,0,0,0,0,0,0,0,0,0,0,0,0,0,0,0,0,0,0,0,0,0,0,0,0,0,0,0,0,0,0,0,0,0,0,0,0,0,0,0,0,0,0,0,0,0,0,0,0,
0,0,0,0,0,0,0,0,0,0,0,0,0,0,0,0,0,0,0,0,0,0,0,0,0,0,0,0,0,0,0,0,0,0,0,0,0,0,0,0,0,0,0,0,0,0,0,0,0,0,0,0,0,0,0,0,0,0,0,0,0,0,0,0,0,0,0,0,0,0,0,0,0,0,0,0,0,0,0,0,0,0,0,0,0,0,0,0,0,0,0,0,0,0,0,0,0,0,0,0,0,0,0,0,0,0,0,0,0,0,0,0,0,0,0,0,0,0,0,0,0,0,0,0,0,0,0,0,0,0,0,0,0,0,0,0,0,0,0,0,0,0,0,0,0,0,0,0,0,0,0,0,0,0,0,0,0,0,0,0,0,0,0,0,0,0,0,0,0,0,0,0,0,0,0,0,0,0,0,0,0,0,0,0,0,0,0,0,0,0,0,0,0,0,0,0,0,0,0,0,0,0,0,0,0,0,0,0,0,0,0,0,0,0,0,0,0,0,0,0,0,0,0,0,0,0,0,0,0,0,0,0,0,0,0,0,0,0,0,0,0,0,0,0,0,0,0,0,0,0,0,0,0,0,0,0,
0,0,0,0,0,0,0,0,0,0,0,0,0,0,0,0,0,0,0,0,0,0,0,0,0,0,0,0,0,0,0,0,0,0,0,0,0,0,0,0,0,0,0,0,0,0,0,0,0,0,0,0,0,0,0,0,0,0,0,0,0,0,0,0,0,0,0,0,0,0,0,0,0,0,0,0,0,0,0,0,0,0,0,0,0,0,0,0,0,0,0,0,0,0,0,0,0,0,0,0,0,0,0,0,0,0,0,0,0,0,0,0,0,0,0,0,0,0,0,0,0,0,0,0,0,0,0,0,0,0,0,0,0,0,0,0,0,0,0,0,0,0,0,0,0,0,0,0,0,0,0,0,0,0,0,0,0,0,0,0,0,0,0,0,0,0,0,0,0,0,0,0,0,0,0,0,0,0,0,0,0,0,0,0,0,0,0,0,0,0,0,0,0,0,0,0,0,0,0,0,0,0,0,0,0,0,0,0,0,0,0,0,0,0,0,0,0,0,0,0,0,0,0,0,0,0,0,0,0,0,0,0,0,0,0,0,0,0,0,0,0,0,0,0,0,0,0,0,0,0,0,0,0,0,0,0,
0,0,0,0,0,0,0,0,0,0,0,0,0,0,0,0,0,0,0,0,0,0,0,0,0,0,0,0,0,0,0,0,0,0,0,0,0,0,0,0,0,0,0,0,0,0,0,0,0,0,0,0,0,0,0,0,0,0,0,0,0,0,0,0,0,0,0,0,0,0,0,0,0,0,0,0,0,0,0,0,0,0,0,0,0,0,0,0,0,0,0,0,0,0,0,0,0,0,0,0,0,0,0,0,0,0,0,0,0,0,0,0,0,0,0,0,0,0,0,0,0,0,0,0,0,0,0,0,0,0,0,0,0,0,0,0,0,0,0,0,0,0,0,0,0,0,0,0,0,0,0,0,0,0,0,0,0,0,0,0,0,0,0,0,0,0,0,0,0,0,0,0,0,0,0,0,0,0,0,0,0,0,0,0,0,0,0,0,0,0,0,0,0,0,0,0,0,0,0,0,0,0,0,0,0,0,0,0,0,0,0,0,0,0,0,0,0,0,0,0,0,0,0,0,0,0,0,0,0,0,0,0,0,0,0,0,0,0,0,0,0,0,0,0,0,0,0,0,0,0,0,0,0,0,0,0,
0,0,0,0,0,0,0,0,0,0,0,0,0,0,0,0,0,0,0,0,0,0,0,0,0,0,0,0,0,0,0,0,0,0,0,0,0,0,0,0,0,0,0,0,0,0,0,0,0,0,0,0,0,0,0,0,0,0,0,0,0,0,0,0,0,0,0,0,0,0,0,0,0,0,0,0,0,0,0,0,0,0,0,0,0,0,0,0,0,0,0,0,0,0,0,0,0,0,0,0,0,0,0,0,0,0,0,0,0,0,0,0,0,0,0,0,0,0,0,0,0,0,0,0,0,0,0,0,0,0,0,0,0,0,0,0,0,0,0,0,0,0,0,0,0,0,0,0,0,0,0,0,0,0,0,0,0,0,0,0,0,0,0,0,0,0,0,0,0,0,0,0,0,0,0,0,0,0,0,0,0,0,0,0,0,0,0,0,0,0,0,0,0,0,0,0,0,0,0,0,0,0,0,0,0,0,0,0,0,0,0,0,0,0,0,0,0,0,0,0,0,0,0,0,0,0,0,0,0,0,0,0,0,0,0,0,0,0,0,0,0,0,0,0,0,0,0,0,0,0,0,0,0,0,0,0,
0,0,0,0,0,0,0,0,0,0,0,0,0,0,0,0,0,0,0,0,0,0,0,0,0,0,0,0,0,0,0,0,0,0,0,0,0,0,0,0,0,0,0,0,0,0,0,0,0,0,0,0,0,0,0,0,0,0,0,0,0,0,0,0,0,0,0,0,0,0,0,0,0,0,0,0,0,0,0,0,0,0,0,0,0,0,0,0,0,0,0,0,0,0,0,0,0,0,0,0,0,0,0,0,0,0,0,0,0,0,0,0,0,0,0,0,0,0,0,0,0,0,0,0,0,0,0,0,0,0,0,0,0,0,0,0,0,0,0,0,0,0,0,0,0,0,0,0,0,0,0,0,0,0,0,0,0,0,0,0,0,0,0,0,0,0,0,0,0,0,0,0,0,0,0,0,0,0,0,0,0,0,0,0,0,0,0,0,0,0,0,0,0,0,0,0,0,0,0,0,0,0,0,0,0,0,0,0,0,0,0,0,0,0,0,0,0,0,0,0,0,0,0,0,0,0,0,0,0,0,0,0,0,0,0,0,0,0,0,0,0,0,0,0,0,0,0,0,0,0,0,0,0,0,0,0,
0,0,0,0,0,0,0,0,0,0,0,0,0,0,0,0,0,0,0,0,0,0,0,0,0,0,0,0,0,0,0,0,0,0,0,0,0,0,0,0,0,0,0,0,0,0,0,0,0,0,0,0,0,0,0,0,0,0,0,0,0,0,0,0,0,0,0,0,0,0,0,0,0,0,0,0,0,0,0,0,0,0,0,0,0,0,0,0,0,0,0,0,0,0,0,0,0,0,0,0,0,0,0,0,0,0,0,0,0,0,0,0,0,0,0,0,0,0,0,0,0,0,0,0,0,0,0,0,0,0,0,0,0,0,0,0,0,0,0,0,0,0,0,0,0,0,0,0,0,0,0,0,0,0,0,0,0,0,0,0,0,0,0,0,0,0,0,0,0,0,0,0,0,0,0,0,0,0,0,0,0,0,0,0,0,0,0,0,0,0,0,0,0,0,0,0,0,0,0,0,0,0,0,0,0,0,0,0,0,0,0,0,0,0,0,0,0,0,0,0,0,0,0,0,0,0,0,0,0,0,0,0,0,0,0,0,0,0,0,0,0,0,0,0,0,0,0,0,0,0,0,0,0,0,0,0,
0,0,0,0,0,0,0,0,0,0,0,0,0,0,0,0,0,0,0,0,0,0,0,0,0,0,0,0,0,0,0,0,0,0,0,0,0,0,0,0,0,0,0,0,0,0,0,0,0,0,0,0,0,0,0,0,0,0,0,0,0,0,0,0,0,0,0,0,0,0,0,0,0,0,0,0,0,0,0,0,0,0,0,0,0,0,0,0,0,0,0,0,0,0,0,0,0,0,0,0,0,0,0,0,0,0,0,0,0,0,0,0,0,0,0,0,0,0,0,0,0,0,0,0,0,0,0,0,0,0,0,0,0,0,0,0,0,0,0,0,0,0,0,0,0,0,0,0,0,0,0,0,0,0,0,0,0,0,0,0,0,0,0,0,0,0,0,0,0,0,0,0,0,0,0,0,0,0,0,0,0,0,0,0,0,0,0,0,0,0,0,0,0,0,0,0,0,0,0,0,0,0,0,0,0,0,0,0,0,0,0,0,0,0,0,0,0,0,0,0,0,0,0,0,0,0,0,0,0,0,0,0,0,0,0,0,0,0,0,0,0,0,0,0,0,0,0,0,0,0,0,0,0,0,0,0,
0,0,0,0,0,0,0,0,0,0,0,0,0,0,0,0,0,0,0,0,0,0,0,0,0,0,0,0,0,0,0,0,0,0,0,0,0,0,0,0,0,0,0,0,0,0,0,0,0,0,0,0,0,0,0,0,0,0,0,0,0,0,0,0,0,0,0,0,0,0,0,0,0,0,0,0,0,0,0,0,0,0,0,0,0,0,0,0,0,0,0,0,0,0,0,0,0,0,0,0,0,0,0,0,0,0,0,0,0,0,0,0,0,0,0,0,0,0,0,0,0,0,0,0,0,0,0,0,0,0,0,0,0,0,0,0,0,0,0,0,0,0,0,0,0,0,0,0,0,0,0,0,0,0,0,0,0,0,0,0,0,0,0,0,0,0,0,0,0,0,0,0,0,0,0,0,0,0,0,0,0,0,0,0,0,0,0,0,0,0,0,0,0,0,0,0,0,0,0,0,0,0,0,0,0,0,0,0,0,0,0,0,0,0,0,0,0,0,0,0,0,0,0,0,0,0,0,0,0,0,0,0,0,0,0,0,0,0,0,0,0,0,0,0,0,0,0,0,0,0,0,0,0,0,0,0,
0,0,0,0,0,0,0,0,0,0,0,0,0,0,0,0,0,0,0,0,0,0,0,0,0,0,0,0,0,0,0,0,0,0,0,0,0,0,0,0,0,0,0,0,0,0,0,0,0,0,0,0,0,0,0,0,0,0,0,0,0,0,0,0,0,0,0,0,0,0,0,0,0,0,0,0,0,0,0,0,0,0,0,0,0,0,0,0,0,0,0,0,0,0,0,0,0,0,0,0,0,0,0,0,0,0,0,0,0,0,0,0,0,0,0,0,0,0,0,0,0,0,0,0,0,0,0,0,0,0,0,0,0,0,0,0,0,0,0,0,0,0,0,0,0,0,0,0,0,0,0,0,0,0,0,0,0,0,0,0,0,0,0,0,0,0,0,0,0,0,0,0,0,0,0,0,0,0,0,0,0,0,0,0,0,0,0,0,0,0,0,0,0,0,0,0,0,0,0,0,0,0,0,0,0,0,0,0,0,0,0,0,0,0,0,0,0,0,0,0,0,0,0,0,0,0,0,0,0,0,0,0,0,0,0,0,0,0,0,0,0,0,0,0,0,0,0,0,0,0,0,0,0,0,0,0,
0,0,0,0,0,0,0,0,0,0,0,0,0,0,0,0,0,0,0,0,0,0,0,0,0,0,0,0,0,0,0,0,0,0,0,0,0,0,0,0,0,0,0,0,0,0,0,0,0,0,0,0,0,0,0,0,0,0,0,0,0,0,0,0,0,0,0,0,0,0,0,0,0,0,0,0,0,0,0,0,0,0,0,0,0,0,0,0,0,0,0,0,0,0,0,0,0,0,0,0,0,0,0,0,0,0,0,0,0,0,0,0,0,0,0,0,0,0,0,0,0,0,0,0,0,0,0,0,0,0,0,0,0,0,0,0,0,0,0,0,0,0,0,0,0,0,0,0,0,0,0,0,0,0,0,0,0,0,0,0,0,0,0,0,0,0,0,0,0,0,0,0,0,0,0,0,0,0,0,0,0,0,0,0,0,0,0,0,0,0,0,0,0,0,0,0,0,0,0,0,0,0,0,0,0,0,0,0,0,0,0,0,0,0,0,0,0,0,0,0,0,0,0,0,0,0,0,0,0,0,0,0,0,0,0,0,0,0,0,0,0,0,0,0,0,0,0,0,0,0,0,0,0,0,0,0,
0,0,0,0,0,0,0,0,0,0,0,0,0,0,0,0,0,0,0,0,0,0,0,0,0,0,0,0,0,0,0,0,0,0,0,0,0,0,0,0,0,0,0,0,0,0,0,0,0,0,0,0,0,0,0,0,0,0,0,0,0,0,0,0,0,0,0,0,0,0,0,0,0,0,0,0,0,0,0,0,0,0,0,0,0,0,0,0,0,0,0,0,0,0,0,0,0,0,0,0,0,0,0,0,0,0,0,0,0,0,0,0,0,0,0,0,0,0,0,0,0,0,0,0,0,0,0,0,0,0,0,0,0,0,0,0,0,0,0,0,0,0,0,0,0,0,0,0,0,0,0,0,0,0,0,0,0,0,0,0,0,0,0,0,0,0,0,0,0,0,0,0,0,0,0,0,0,0,0,0,0,0,0,0,0,0,0,0,0,0,0,0,0,0,0,0,0,0,0,0,0,0,0,0,0,0,0,0,0,0,0,0,0,0,0,0,0,0,0,0,0,0,0,0,0,0,0,0,0,0,0,0,0,0,0,0,0,0,0,0,0,0,0,0,0,0,0,0,0,0,0,0,0,0,0,0,
0,0,0,0,0,0,0,0,0,0,0,0,0,0,0,0,0,0,0,0,0,0,0,0,0,0,0,0,0,0,0,0,0,0,0,0,0,0,0,0,0,0,0,0,0,0,0,0,0,0,0,0,0,0,0,0,0,0,0,0,0,0,0,0,0,0,0,0,0,0,0,0,0,0,0,0,0,0,0,0,0,0,0,0,0,0,0,0,0,0,0,0,0,0,0,0,0,0,0,0,0,0,0,0,0,0,0,0,0,0,0,0,0,0,0,0,0,0,0,0,0,0,0,0,0,0,0,0,0,0,0,0,0,0,0,0,0,0,0,0,0,0,0,0,0,0,0,0,0,0,0,0,0,0,0,0,0,0,0,0,0,0,0,0,0,0,0,0,0,0,0,0,0,0,0,0,0,0,0,0,0,0,0,0,0,0,0,0,0,0,0,0,0,0,0,0,0,0,0,0,0,0,0,0,0,0,0,0,0,0,0,0,0,0,0,0,0,0,0,0,0,0,0,0,0,0,0,0,0,0,0,0,0,0,0,0,0,0,0,0,0,0,0,0,0,0,0,0,0,0,0,0,0,0,0,0,
0,0,0,0,0,0,0,0,0,0,0,0,0,0,0,0,0,0,0,0,0,0,0,0,0,0,0,0,0,0,0,0,0,0,0,0,0,0,0,0,0,0,0,0,0,0,0,0,0,0,0,0,0,0,0,0,0,0,0,0,0,0,0,0,0,0,0,0,0,0,0,0,0,0,0,0,0,0,0,0,0,0,0,0,0,0,0,0,0,0,0,0,0,0,0,0,0,0,0,0,0,0,0,0,0,0,0,0,0,0,0,0,0,0,0,0,0,0,0,0,0,0,0,0,0,0,0,0,0,0,0,0,0,0,0,0,0,0,0,0,0,0,0,0,0,0,0,0,0,0,0,0,0,0,0,0,0,0,0,0,0,0,0,0,0,0,0,0,0,0,0,0,0,0,0,0,0,0,0,0,0,0,0,0,0,0,0,0,0,0,0,0,0,0,0,0,0,0,0,0,0,0,0,0,0,0,0,0,0,0,0,0,0,0,0,0,0,0,0,0,0,0,0,0,0,0,0,0,0,0,0,0,0,0,0,0,0,0,0,0,0,0,0,0,0,0,0,0,0,0,0,0,0,0,0,0,
0,0,0,0,0,0,0,0,0,0,0,0,0,0,0,0,0,0,0,0,0,0,0,0,0,0,0,0,0,0,0,0,0,0,0,0,0,0,0,0,0,0,0,0,0,0,0,0,0,0,0,0,0,0,0,0,0,0,0,0,0,0,0,0,0,0,0,0,0,0,0,0,0,0,0,0,0,0,0,0,0,0,0,0,0,0,0,0,0,0,0,0,0,0,0,0,0,0,0,0,0,0,0,0,0,0,0,0,0,0,0,0,0,0,0,0,0,0,0,0,0,0,0,0,0,0,0,0,0,0,0,0,0,0,0,0,0,0,0,0,0,0,0,0,0,0,0,0,0,0,0,0,0,0,0,0,0,0,0,0,0,0,0,0,0,0,0,0,0,0,0,0,0,0,0,0,0,0,0,0,0,0,0,0,0,0,0,0,0,0,0,0,0,0,0,0,0,0,0,0,0,0,0,0,0,0,0,0,0,0,0,0,0,0,0,0,0,0,0,0,0,0,0,0,0,0,0,0,0,0,0,0,0,0,0,0,0,0,0,0,0,0,0,0,0,0,0,0,0,0,0,0,0,0,0,0,
0,0,0,0,0,0,0,0,0,0,0,0,0,0,0,0,0,0,0,0,0,0,0,0,0,0,0,0,0,0,0,0,0,0,0,0,0,0,0,0,0,0,0,0,0,0,0,0,0,0,0,0,0,0,0,0,0,0,0,0,0,0,0,0,0,0,0,0,0,0,0,0,0,0,0,0,0,0,0,0,0,0,0,0,0,0,0,0,0,0,0,0,0,0,0,0,0,0,0,0,0,0,0,0,0,0,0,0,0,0,0,0,0,0,0,0,0,0,0,0,0,0,0,0,0,0,0,0,0,0,0,0,0,0,0,0,0,0,0,0,0,0,0,0,0,0,0,0,0,0,0,0,0,0,0,0,0,0,0,0,0,0,0,0,0,0,0,0,0,0,0,0,0,0,0,0,0,0,0,0,0,0,0,0,0,0,0,0,0,0,0,0,0,0,0,0,0,0,0,0,0,0,0,0,0,0,0,0,0,0,0,0,0,0,0,0,0,0,0,0,0,0,0,0,0,0,0,0,0,0,0,0,0,0,0,0,0,0,0,0,0,0,0,0,0,0,0,0,0,0,0,0,0,0,0,0,
0,0,0,0,0,0,0,0,0,0,0,0,0,0,0,0,0,0,0,0,0,0,0,0,0,0,0,0,0,0,0,0,0,0,0,0,0,0,0,0,0,0,0,0,0,0,0,0,0,0,0,0,0,0,0,0,0,0,0,0,0,0,0,0,0,0,0,0,0,0,0,0,0,0,0,0,0,0,0,0,0,0,0,0,0,0,0,0,0,0,0,0,0,0,0,0,0,0,0,0,0,0,0,0,0,0,0,0,0,0,0,0,0,0,0,0,0,0,0,0,0,0,0,0,0,0,0,0,0,0,0,0,0,0,0,0,0,0,0,0,0,0,0,0,0,0,0,0,0,0,0,0,0,0,0,0,0,0,0,0,0,0,0,0,0,0,0,0,0,0,0,0,0,0,0,0,0,0,0,0,0,0,0,0,0,0,0,0,0,0,0,0,0,0,0,0,0,0,0,0,0,0,0,0,0,0,0,0,0,0,0,0,0,0,0,0,0,0,0,0,0,0,0,0,0,0,0,0,0,0,0,0,0,0,0,0,0,0,0,0,0,0,0,0,0,0,0,0,0,0,0,0,0,0,0,0,
0,0,0,0,0,0,0,0,0,0,0,0,0,0,0,0,0,0,0,0,0,0,0,0,0,0,0,0,0,0,0,0,0,0,0,0,0,0,0,0,0,0,0,0,0,0,0,0,0,0,0,0,0,0,0,0,0,0,0,0,0,0,0,0,0,0,0,0,0,0,0,0,0,0,0,0,0,0,0,0,0,0,0,0,0,0,0,0,0,0,0,0,0,0,0,0,0,0,0,0,0,0,0,0,0,0,0,0,0,0,0,0,0,0,0,0,0,0,0,0,0,0,0,0,0,0,0,0,0,0,0,0,0,0,0,0,0,0,0,0,0,0,0,0,0,0,0,0,0,0,0,0,0,0,0,0,0,0,0,0,0,0,0,0,0,0,0,0,0,0,0,0,0,0,0,0,0,0,0,0,0,0,0,0,0,0,0,0,0,0,0,0,0,0,0,0,0,0,0,0,0,0,0,0,0,0,0,0,0,0,0,0,0,0,0,0,0,0,0,0,0,0,0,0,0,0,0,0,0,0,0,0,0,0,0,0,0,0,0,0,0,0,0,0,0,0,0,0,0,0,0,0,0,0,0,0,
0,0,0,0,0,0,0,0,0,0,0,0,0,0,0,0,0,0,0,0,0,0,0,0,0,0,0,0,0,0,0,0,0,0,0,0,0,0,0,0,0,0,0,0,0,0,0,0,0,0,0,0,0,0,0,0,0,0,0,0,0,0,0,0,0,0,0,0,0,0,0,0,0,0,0,0,0,0,0,0,0,0,0,0,0,0,0,0,0,0,0,0,0,0,0,0,0,0,0,0,0,0,0,0,0,0,0,0,0,0,0,0,0,0,0,0,0,0,0,0,0,0,0,0,0,0,0,0,0,0,0,0,0,0,0,0,0,0,0,0,0,0,0,0,0,0,0,0,0,0,0,0,0,0,0,0,0,0,0,0,0,0,0,0,0,0,0,0,0,0,0,0,0,0,0,0,0,0,0,0,0,0,0,0,0,0,0,0,0,0,0,0,0,0,0,0,0,0,0,0,0,0,0,0,0,0,0,0,0,0,0,0,0,0,0,0,0,0,0,0,0,0,0,0,0,0,0,0,0,0,0,0,0,0,0,0,0,0,0,0,0,0,0,0,0,0,0,0,0,0,0,0,0,0,0,0,
0,0,0,0,0,0,0,0,0,0,0,0,0,0,0,0,0,0,0,0,0,0,0,0,0,0,0,0,0,0,0,0,0,0,0,0,0,0,0,0,0,0,0,0,0,0,0,0,0,0,0,0,0,0,0,0,0,0,0,0,0,0,0,0,0,0,0,0,0,0,0,0,0,0,0,0,0,0,0,0,0,0,0,0,0,0,0,0,0,0,0,0,0,0,0,0,0,0,0,0,0,0,0,0,0,0,0,0,0,0,0,0,0,0,0,0,0,0,0,0,0,0,0,0,0,0,0,0,0,0,0,0,0,0,0,0,0,0,0,0,0,0,0,0,0,0,0,0,0,0,0,0,0,0,0,0,0,0,0,0,0,0,0,0,0,0,0,0,0,0,0,0,0,0,0,0,0,0,0,0,0,0,0,0,0,0,0,0,0,0,0,0,0,0,0,0,0,0,0,0,0,0,0,0,0,0,0,0,0,0,0,0,0,0,0,0,0,0,0,0,0,0,0,0,0,0,0,0,0,0,0,0,0,0,0,0,0,0,0,0,0,0,0,0,0,0,0,0,0,0,0,0,0,0,0,0,
0,0,0,0,0,0,0,0,0,0,0,0,0,0,0,0,0,0,0,0,0,0,0,0,0,0,0,0,0,0,0,0,0,0,0,0,0,0,0,0,0,0,0,0,0,0,0,0,0,0,0,0,0,0,0,0,0,0,0,0,0,0,0,0,0,0,0,0,0,0,0,0,0,0,0,0,0,0,0,0,0,0,0,0,0,0,0,0,0,0,0,0,0,0,0,0,0,0,0,0,0,0,0,0,0,0,0,0,0,0,0,0,0,0,0,0,0,0,0,0,0,0,0,0,0,0,0,0,0,0,0,0,0,0,0,0,0,0,0,0,0,0,0,0,0,0,0,0,0,0,0,0,0,0,0,0,0,0,0,0,0,0,0,0,0,0,0,0,0,0,0,0,0,0,0,0,0,0,0,0,0,0,0,0,0,0,0,0,0,0,0,0,0,0,0,0,0,0,0,0,0,0,0,0,0,0,0,0,0,0,0,0,0,0,0,0,0,0,0,0,0,0,0,0,0,0,0,0,0,0,0,0,0,0,0,0,0,0,0,0,0,0,0,0,0,0,0,0,0,0,0,0,0,0,0,0,
0,0,0,0,0,0,0,0,0,0,0,0,0,0,0,0,0,0,0,0,0,0,0,0,0,0,0,0,0,0,0,0,0,0,0,0,0,0,0,0,0,0,0,0,0,0,0,0,0,0,0,0,0,0,0,0,0,0,0,0,0,0,0,0,0,0,0,0,0,0,0,0,0,0,0,0,0,0,0,0,0,0,0,0,0,0,0,0,0,0,0,0,0,0,0,0,0,0,0,0,0,0,0,0,0,0,0,0,0,0,0,0,0,0,0,0,0,0,0,0,0,0,0,0,0,0,0,0,0,0,0,0,0,0,0,0,0,0,0,0,0,0,0,0,0,0,0,0,0,0,0,0,0,0,0,0,0,0,0,0,0,0,0,0,0,0,0,0,0,0,0,0,0,0,0,0,0,0,0,0,0,0,0,0,0,0,0,0,0,0,0,0,0,0,0,0,0,0,0,0,0,0,0,0,0,0,0,0,0,0,0,0,0,0,0,0,0,0,0,0,0,0,0,0,0,0,0,0,0,0,0,0,0,0,0,0,0,0,0,0,0,0,0,0,0,0,0,0,0,0,0,0,0,0,0,0,
0,0,0,0,0,0,0,0,0,0,0,0,0,0,0,0,0,0,0,0,0,0,0,0,0,0,0,0,0,0,0,0,0,0,0,0,0,0,0,0,0,0,0,0,0,0,0,0,0,0,0,0,0,0,0,0,0,0,0,0,0,0,0,0,0,0,0,0,0,0,0,0,0,0,0,0,0,0,0,0,0,0,0,0,0,0,0,0,0,0,0,0,0,0,0,0,0,0,0,0,0,0,0,0,0,0,0,0,0,0,0,0,0,0,0,0,0,0,0,0,0,0,0,0,0,0,0,0,0,0,0,0,0,0,0,0,0,0,0,0,0,0,0,0,0,0,0,0,0,0,0,0,0,0,0,0,0,0,0,0,0,0,0,0,0,0,0,0,0,0,0,0,0,0,0,0,0,0,0,0,0,0,0,0,0,0,0,0,0,0,0,0,0,0,0,0,0,0,0,0,0,0,0,0,0,0,0,0,0,0,0,0,0,0,0,0,0,0,0,0,0,0,0,0,0,0,0,0,0,0,0,0,0,0,0,0,0,0,0,0,0,0,0,0,0,0,0,0,0,0,0,0,0,0,0,0,
0,0,0,0,0,0,0,0,0,0,0,0,0,0,0,0,0,0,0,0,0,0,0,0,0,0,0,0,0,0,0,0,0,0,0,0,0,0,0,0,0,0,0,0,0,0,0,0,0,0,0,0,0,0,0,0,0,0,0,0,0,0,0,0,0,0,0,0,0,0,0,0,0,0,0,0,0,0,0,0,0,0,0,0,0,0,0,0,0,0,0,0,0,0,0,0,0,0,0,0,0,0,0,0,0,0,0,0,0,0,0,0,0,0,0,0,0,0,0,0,0,0,0,0,0,0,0,0,0,0,0,0,0,0,0,0,0,0,0,0,0,0,0,0,0,0,0,0,0,0,0,0,0,0,0,0,0,0,0,0,0,0,0,0,0,0,0,0,0,0,0,0,0,0,0,0,0,0,0,0,0,0,0,0,0,0,0,0,0,0,0,0,0,0,0,0,0,0,0,0,0,0,0,0,0,0,0,0,0,0,0,0,0,0,0,0,0,0,0,0,0,0,0,0,0,0,0,0,0,0,0,0,0,0,0,0,0,0,0,0,0,0,0,0,0,0,0,0,0,0,0,0,0,0,0,0,
0,0,0,0,0,0,0,0,0,0,0,0,0,0,0,0,0,0,0,0,0,0,0,0,0,0,0,0,0,0,0,0,0,0,0,0,0,0,0,0,0,0,0,0,0,0,0,0,0,0,0,0,0,0,0,0,0,0,0,0,0,0,0,0,0,0,0,0,0,0,0,0,0,0,0,0,0,0,0,0,0,0,0,0,0,0,0,0,0,0,0,0,0,0,0,0,0,0,0,0,0,0,0,0,0,0,0,0,0,0,0,0,0,0,0,0,0,0,0,0,0,0,0,0,0,0,0,0,0,0,0,0,0,0,0,0,0,0,0,0,0,0,0,0,0,0,0,0,0,0,0,0,0,0,0,0,0,0,0,0,0,0,0,0,0,0,0,0,0,0,0,0,0,0,0,0,0,0,0,0,0,0,0,0,0,0,0,0,0,0,0,0,0,0,0,0,0,0,0,0,0,0,0,0,0,0,0,0,0,0,0,0,0,0,0,0,0,0,0,0,0,0,0,0,0,0,0,0,0,0,0,0,0,0,0,0,0,0,0,0,0,0,0,0,0,0,0,0,0,0,0,0,0,0,0,0,
0,0,0,0,0,0,0,0,0,0,0,0,0,0,0,0,0,0,0,0,0,0,0,0,0,0,0,0,0,0,0,0,0,0,0,0,0,0,0,0,0,0,0,0,0,0,0,0,0,0,0,0,0,0,0,0,0,0,0,0,0,0,0,0,0,0,0,0,0,0,0,0,0,0,0,0,0,0,0,0,0,0,0,0,0,0,0,0,0,0,0,0,0,0,0,0,0,0,0,0,0,0,0,0,0,0,0,0,0,0,0,0,0,0,0,0,0,0,0,0,0,0,0,0,0,0,0,0,0,0,0,0,0,0,0,0,0,0,0,0,0,0,0,0,0,0,0,0,0,0,0,0,0,0,0,0,0,0,0,0,0,0,0,0,0,0,0,0,0,0,0,0,0,0,0,0,0,0,0,0,0,0,0,0,0,0,0,0,0,0,0,0,0,0,0,0,0,0,0,0,0,0,0,0,0,0,0,0,0,0,0,0,0,0,0,0,0,0,0,0,0,0,0,0,0,0,0,0,0,0,0,0,0,0,0,0,0,0,0,0,0,0,0,0,0,0,0,0,0,0,0,0,0,0,0,0,
0,0,0,0,0,0,0,0,0,0,0,0,0,0,0,0,0,0,0,0,0,0,0,0,0,0,0,0,0,0,0,0,0,0,0,0,0,0,0,0,0,0,0,0,0,0,0,0,0,0,0,0,0,0,0,0,0,0,0,0,0,0,0,0,0,0,0,0,0,0,0,0,0,0,0,0,0,0,0,0,0,0,0,0,0,0,0,0,0,0,0,0,0,0,0,0,0,0,0,0,0,0,0,0,0,0,0,0,0,0,0,0,0,0,0,0,0,0,0,0,0,0,0,0,0,0,0,0,0,0,0,0,0,0,0,0,0,0,0,0,0,0,0,0,0,0,0,0,0,0,0,0,0,0,0,0,0,0,0,0,0,0,0,0,0,0,0,0,0,0,0,0,0,0,0,0,0,0,0,0,0,0,0,0,0,0,0,0,0,0,0,0,0,0,0,0,0,0,0,0,0,0,0,0,0,0,0,0,0,0,0,0,0,0,0,0,0,0,0,0,0,0,0,0,0,0,0,0,0,0,0,0,0,0,0,0,0,0,0,0,0,0,0,0,0,0,0,0,0,0,0,0,0,0,0,0,
0,0,0,0,0,0,0,0,0,0,0,0,0,0,0,0,0,0,0,0,0,0,0,0,0,0,0,0,0,0,0,0,0,0,0,0,0,0,0,0,0,0,0,0,0,0,0,0,0,0,0,0,0,0,0,0,0,0,0,0,0,0,0,0,0,0,0,0,0,0,0,0,0,0,0,0,0,0,0,0,0,0,0,0,0,0,0,0,0,0,0,0,0,0,0,0,0,0,0,0,0,0,0,0,0,0,0,0,0,0,0,0,0,0,0,0,0,0,0,0,0,0,0,0,0,0,0,0,0,0,0,0,0,0,0,0,0,0,0,0,0,0,0,0,0,0,0,0,0,0,0,0,0,0,0,0,0,0,0,0,0,0,0,0,0,0,0,0,0,0,0,0,0,0,0,0,0,0,0,0,0,0,0,0,0,0,0,0,0,0,0,0,0,0,0,0,0,0,0,0,0,0,0,0,0,0,0,0,0,0,0,0,0,0,0,0,0,0,0,0,0,0,0,0,0,0,0,0,0,0,0,0,0,0,0,0,0,0,0,0,0,0,0,0,0,0,0,0,0,0,0,0,0,0,0,0,
0,0,0,0,0,0,0,0,0,0,0,0,0,0,0,0,0,0,0,0,0,0,0,0,0,0,0,0,0,0,0,0,0,0,0,0,0,0,0,0,0,0,0,0,0,0,0,0,0,0,0,0,0,0,0,0,0,0,0,0,0,0,0,0,0,0,0,0,0,0,0,0,0,0,0,0,0,0,0,0,0,0,0,0,0,0,0,0,0,0,0,0,0,0,0,0,0,0,0,0,0,0,0,0,0,0,0,0,0,0,0,0,0,0,0,0,0,0,0,0,0,0,0,0,0,0,0,0,0,0,0,0,0,0,0,0,0,0,0,0,0,0,0,0,0,0,0,0,0,0,0,0,0,0,0,0,0,0,0,0,0,0,0,0,0,0,0,0,0,0,0,0,0,0,0,0,0,0,0,0,0,0,0,0,0,0,0,0,0,0,0,0,0,0,0,0,0,0,0,0,0,0,0,0,0,0,0,0,0,0,0,0,0,0,0,0,0,0,0,0,0,0,0,0,0,0,0,0,0,0,0,0,0,0,0,0,0,0,0,0,0,0,0,0,0,0,0,0,0,0,0,0,0,0,0,0,
0,0,0,0,0,0,0,0,0,0,0,0,0,0,0,0,0,0,0,0,0,0,0,0,0,0,0,0,0,0,0,0,0,0,0,0,0,0,0,0,0,0,0,0,0,0,0,0,0,0,0,0,0,0,0,0,0,0,0,0,0,0,0,0,0,0,0,0,0,0,0,0,0,0,0,0,0,0,0,0,0,0,0,0,0,0,0,0,0,0,0,0,0,0,0,0,0,0,0,0,0,0,0,0,0,0,0,0,0,0,0,0,0,0,0,0,0,0,0,0,0,0,0,0,0,0,0,0,0,0,0,0,0,0,0,0,0,0,0,0,0,0,0,0,0,0,0,0,0,0,0,0,0,0,0,0,0,0,0,0,0,0,0,0,0,0,0,0,0,0,0,0,0,0,0,0,0,0,0,0,0,0,0,0,0,0,0,0,0,0,0,0,0,0,0,0,0,0,0,0,0,0,0,0,0,0,0,0,0,0,0,0,0,0,0,0,0,0,0,0,0,0,0,0,0,0,0,0,0,0,0,0,0,0,0,0,0,0,0,0,0,0,0,0,0,0,0,0,0,0,0,0,0,0,0,0,
0,0,0,0,0,0,0,0,0,0,0,0,0,0,0,0,0,0,0,0,0,0,0,0,0,0,0,0,0,0,0,0,0,0,0,0,0,0,0,0,0,0,0,0,0,0,0,0,0,0,0,0,0,0,0,0,0,0,0,0,0,0,0,0,0,0,0,0,0,0,0,0,0,0,0,0,0,0,0,0,0,0,0,0,0,0,0,0,0,0,0,0,0,0,0,0,0,0,0,0,0,0,0,0,0,0,0,0,0,0,0,0,0,0,0,0,0,0,0,0,0,0,0,0,0,0,0,0,0,0,0,0,0,0,0,0,0,0,0,0,0,0,0,0,0,0,0,0,0,0,0,0,0,0,0,0,0,0,0,0,0,0,0,0,0,0,0,0,0,0,0,0,0,0,0,0,0,0,0,0,0,0,0,0,0,0,0,0,0,0,0,0,0,0,0,0,0,0,0,0,0,0,0,0,0,0,0,0,0,0,0,0,0,0,0,0,0,0,0,0,0,0,0,0,0,0,0,0,0,0,0,0,0,0,0,0,0,0,0,0,0,0,0,0,0,0,0,0,0,0,0,0,0,0,0,0,
0,0,0,0,0,0,0,0,0,0,0,0,0,0,0,0,0,0,0,0,0,0,0,0,0,0,0,0,0,0,0,0,0,0,0,0,0,0,0,0,0,0,0,0,0,0,0,0,0,0,0,0,0,0,0,0,0,0,0,0,0,0,0,0,0,0,0,0,0,0,0,0,0,0,0,0,0,0,0,0,0,0,0,0,0,0,0,0,0,0,0,0,0,0,0,0,0,0,0,0,0,0,0,0,0,0,0,0,0,0,0,0,0,0,0,0,0,0,0,0,0,0,0,0,0,0,0,0,0,0,0,0,0,0,0,0,0,0,0,0,0,0,0,0,0,0,0,0,0,0,0,0,0,0,0,0,0,0,0,0,0,0,0,0,0,0,0,0,0,0,0,0,0,0,0,0,0,0,0,0,0,0,0,0,0,0,0,0,0,0,0,0,0,0,0,0,0,0,0,0,0,0,0,0,0,0,0,0,0,0,0,0,0,0,0,0,0,0,0,0,0,0,0,0,0,0,0,0,0,0,0,0,0,0,0,0,0,0,0,0,0,0,0,0,0,0,0,0,0,0,0,0,0,0,0,0,
0,0,0,0,0,0,0,0,0,0,0,0,0,0,0,0,0,0,0,0,0,0,0,0,0,0,0,0,0,0,0,0,0,0,0,0,0,0,0,0,0,0,0,0,0,0,0,0,0,0,0,0,0,0,0,0,0,0,0,0,0,0,0,0,0,0,0,0,0,0,0,0,0,0,0,0,0,0,0,0,0,0,0,0,0,0,0,0,0,0,0,0,0,0,0,0,0,0,0,0,0,0,0,0,0,0,0,0,0,0,0,0,0,0,0,0,0,0,0,0,0,0,0,0,0,0,0,0,0,0,0,0,0,0,0,0,0,0,0,0,0,0,0,0,0,0,0,0,0,0,0,0,0,0,0,0,0,0,0,0,0,0,0,0,0,0,0,0,0,0,0,0,0,0,0,0,0,0,0,0,0,0,0,0,0,0,0,0,0,0,0,0,0,0,0,0,0,0,0,0,0,0,0,0,0,0,0,0,0,0,0,0,0,0,0,0,0,0,0,0,0,0,0,0,0,0,0,0,0,0,0,0,0,0,0,0,0,0,0,0,0,0,0,0,0,0,0,0,0,0,0,0,0,0,0,0,
0,0,0,0,0,0,0,0,0,0,0,0,0,0,0,0,0,0,0,0,0,0,0,0,0,0,0,0,0,0,0,0,0,0,0,0,0,0,0,0,0,0,0,0,0,0,0,0,0,0,0,0,0,0,0,0,0,0,0,0,0,0,0,0,0,0,0,0,0,0,0,0,0,0,0,0,0,0,0,0,0,0,0,0,0,0,0,0,0,0,0,0,0,0,0,0,0,0,0,0,0,0,0,0,0,0,0,0,0,0,0,0,0,0,0,0,0,0,0,0,0,0,0,0,0,0,0,0,0,0,0,0,0,0,0,0,0,0,0,0,0,0,0,0,0,0,0,0,0,0,0,0,0,0,0,0,0,0,0,0,0,0,0,0,0,0,0,0,0,0,0,0,0,0,0,0,0,0,0,0,0,0,0,0,0,0,0,0,0,0,0,0,0,0,0,0,0,0,0,0,0,0,0,0,0,0,0,0,0,0,0,0,0,0,0,0,0,0,0,0,0,0,0,0,0,0,0,0,0,0,0,0,0,0,0,0,0,0,0,0,0,0,0,0,0,0,0,0,0,0,0,0,0,0,0,0,
0,0,0,0,0,0,0,0,0,0,0,0,0,0,0,0,0,0,0,0,0,0,0,0,0,0,0,0,0,0,0,0,0,0,0,0,0,0,0,0,0,0,0,0,0,0,0,0,0,0,0,0,0,0,0,0,0,0,0,0,0,0,0,0,0,0,0,0,0,0,0,0,0,0,0,0,0,0,0,0,0,0,0,0,0,0,0,0,0,0,0,0,0,0,0,0,0,0,0,0,0,0,0,0,0,0,0,0,0,0,0,0,0,0,0,0,0,0,0,0,0,0,0,0,0,0,0,0,0,0,0,0,0,0,0,0,0,0,0,0,0,0,0,0,0,0,0,0,0,0,0,0,0,0,0,0,0,0,0,0,0,0,0,0,0,0,0,0,0,0,0,0,0,0,0,0,0,0,0,0,0,0,0,0,0,0,0,0,0,0,0,0,0,0,0,0,0,0,0,0,0,0,0,0,0,0,0,0,0,0,0,0,0,0,0,0,0,0,0,0,0,0,0,0,0,0,0,0,0,0,0,0,0,0,0,0,0,0,0,0,0,0,0,0,0,0,0,0,0,0,0,0,0,0,0,0,
0,0,0,0,0,0,0,0,0,0,0,0,0,0,0,0,0,0,0,0,0,0,0,0,0,0,0,0,0,0,0,0,0,0,0,0,0,0,0,0,0,0,0,0,0,0,0,0,0,0,0,0,0,0,0,0,0,0,0,0,0,0,0,0,0,0,0,0,0,0,0,0,0,0,0,0,0,0,0,0,0,0,0,0,0,0,0,0,0,0,0,0,0,0,0,0,0,0,0,0,0,0,0,0,0,0,0,0,0,0,0,0,0,0,0,0,0,0,0,0,0,0,0,0,0,0,0,0,0,0,0,0,0,0,0,0,0,0,0,0,0,0,0,0,0,0,0,0,0,0,0,0,0,0,0,0,0,0,0,0,0,0,0,0,0,0,0,0,0,0,0,0,0,0,0,0,0,0,0,0,0,0,0,0,0,0,0,0,0,0,0,0,0,0,0,0,0,0,0,0,0,0,0,0,0,0,0,0,0,0,0,0,0,0,0,0,0,0,0,0,0,0,0,0,0,0,0,0,0,0,0,0,0,0,0,0,0,0,0,0,0,0,0,0,0,0,0,0,0,0,0,0,0,0,0,0,
0,0,0,0,0,0,0,0,0,0,0,0,0,0,0,0,0,0,0,0,0,0,0,0,0,0,0,0,0,0,0,0,0,0,0,0,0,0,0,0,0,0,0,0,0,0,0,0,0,0,0,0,0,0,0,0,0,0,0,0,0,0,0,0,0,0,0,0,0,0,0,0,0,0,0,0,0,0,0,0,0,0,0,0,0,0,0,0,0,0,0,0,0,0,0,0,0,0,0,0,0,0,0,0,0,0,0,0,0,0,0,0,0,0,0,0,0,0,0,0,0,0,0,0,0,0,0,0,0,0,0,0,0,0,0,0,0,0,0,0,0,0,0,0,0,0,0,0,0,0,0,0,0,0,0,0,0,0,0,0,0,0,0,0,0,0,0,0,0,0,0,0,0,0,0,0,0,0,0,0,0,0,0,0,0,0,0,0,0,0,0,0,0,0,0,0,0,0,0,0,0,0,0,0,0,0,0,0,0,0,0,0,0,0,0,0,0,0,0,0,0,0,0,0,0,0,0,0,0,0,0,0,0,0,0,0,0,0,0,0,0,0,0,0,0,0,0,0,0,0,0,0,0,0,0,0,
0,0,0,0,0,0,0,0,0,0,0,0,0,0,0,0,0,0,0,0,0,0,0,0,0,0,0,0,0,0,0,0,0,0,0,0,0,0,0,0,0,0,0,0,0,0,0,0,0,0,0,0,0,0,0,0,0,0,0,0,0,0,0,0,0,0,0,0,0,0,0,0,0,0,0,0,0,0,0,0,0,0,0,0,0,0,0,0,0,0,0,0,0,0,0,0,0,0,0,0,0,0,0,0,0,0,0,0,0,0,0,0,0,0,0,0,0,0,0,0,0,0,0,0,0,0,0,0,0,0,0,0,0,0,0,0,0,0,0,0,0,0,0,0,0,0,0,0,0,0,0,0,0,0,0,0,0,0,0,0,0,0,0,0,0,0,0,0,0,0,0,0,0,0,0,0,0,0,0,0,0,0,0,0,0,0,0,0,0,0,0,0,0,0,0,0,0,0,0,0,0,0,0,0,0,0,0,0,0,0,0,0,0,0,0,0,0,0,0,0,0,0,0,0,0,0,0,0,0,0,0,0,0,0,0,0,0,0,0,0,0,0,0,0,0,0,0,0,0,0,0,0,0,0,0,0,
0,0,0,0,0,0,0,0,0,0,0,0,0,0,0,0,0,0,0,0,0,0,0,0,0,0,0,0,0,0,0,0,0,0,0,0,0,0,0,0,0,0,0,0,0,0,0,0,0,0,0,0,0,0,0,0,0,0,0,0,0,0,0,0,0,0,0,0,0,0,0,0,0,0,0,0,0,0,0,0,0,0,0,0,0,0,0,0,0,0,0,0,0,0,0,0,0,0,0,0,0,0,0,0,0,0,0,0,0,0,0,0,0,0,0,0,0,0,0,0,0,0,0,0,0,0,0,0,0,0,0,0,0,0,0,0,0,0,0,0,0,0,0,0,0,0,0,0,0,0,0,0,0,0,0,0,0,0,0,0,0,0,0,0,0,0,0,0,0,0,0,0,0,0,0,0,0,0,0,0,0,0,0,0,0,0,0,0,0,0,0,0,0,0,0,0,0,0,0,0,0,0,0,0,0,0,0,0,0,0,0,0,0,0,0,0,0,0,0,0,0,0,0,0,0,0,0,0,0,0,0,0,0,0,0,0,0,0,0,0,0,0,0,0,0,0,0,0,0,0,0,0,0,0,0,0,
0,0,0,0,0,0,0,0,0,0,0,0,0,0,0,0,0,0,0,0,0,0,0,0,0,0,0,0,0,0,0,0,0,0,0,0,0,0,0,0,0,0,0,0,0,0,0,0,0,0,0,0,0,0,0,0,0,0,0,0,0,0,0,0,0,0,0,0,0,0,0,0,0,0,0,0,0,0,0,0,0,0,0,0,0,0,0,0,0,0,0,0,0,0,0,0,0,0,0,0,0,0,0,0,0,0,0,0,0,0,0,0,0,0,0,0,0,0,0,0,0,0,0,0,0,0,0,0,0,0,0,0,0,0,0,0,0,0,0,0,0,0,0,0,0,0,0,0,0,0,0,0,0,0,0,0,0,0,0,0,0,0,0,0,0,0,0,0,0,0,0,0,0,0,0,0,0,0,0,0,0,0,0,0,0,0,0,0,0,0,0,0,0,0,0,0,0,0,0,0,0,0,0,0,0,0,0,0,0,0,0,0,0,0,0,0,0,0,0,0,0,0,0,0,0,0,0,0,0,0,0,0,0,0,0,0,0,0,0,0,0,0,0,0,0,0,0,0,0,0,0,0,0,0,0,0,
0,0,0,0,0,0,0,0,0,0,0,0,0,0,0,0,0,0,0,0,0,0,0,0,0,0,0,0,0,0,0,0,0,0,0,0,0,0,0,0,0,0,0,0,0,0,0,0,0,0,0,0,0,0,0,0,0,0,0,0,0,0,0,0,0,0,0,0,0,0,0,0,0,0,0,0,0,0,0,0,0,0,0,0,0,0,0,0,0,0,0,0,0,0,0,0,0,0,0,0,0,0,0,0,0,0,0,0,0,0,0,0,0,0,0,0,0,0,0,0,0,0,0,0,0,0,0,0,0,0,0,0,0,0,0,0,0,0,0,0,0,0,0,0,0,0,0,0,0,0,0,0,0,0,0,0,0,0,0,0,0,0,0,0,0,0,0,0,0,0,0,0,0,0,0,0,0,0,0,0,0,0,0,0,0,0,0,0,0,0,0,0,0,0,0,0,0,0,0,0,0,0,0,0,0,0,0,0,0,0,0,0,0,0,0,0,0,0,0,0,0,0,0,0,0,0,0,0,0,0,0,0,0,0,0,0,0,0,0,0,0,0,0,0,0,0,0,0,0,0,0,0,0,0,0,0,
0,0,0,0,0,0,0,0,0,0,0,0,0,0,0,0,0,0,0,0,0,0,0,0,0,0,0,0,0,0,0,0,0,0,0,0,0,0,0,0,0,0,0,0,0,0,0,0,0,0,0,0,0,0,0,0,0,0,0,0,0,0,0,0,0,0,0,0,0,0,0,0,0,0,0,0,0,0,0,0,0,0,0,0,0,0,0,0,0,0,0,0,0,0,0,0,0,0,0,0,0,0,0,0,0,0,0,0,0,0,0,0,0,0,0,0,0,0,0,0,0,0,0,0,0,0,0,0,0,0,0,0,0,0,0,0,0,0,0,0,0,0,0,0,0,0,0,0,0,0,0,0,0,0,0,0,0,0,0,0,0,0,0,0,0,0,0,0,0,0,0,0,0,0,0,0,0,0,0,0,0,0,0,0,0,0,0,0,0,0,0,0,0,0,0,0,0,0,0,0,0,0,0,0,0,0,0,0,0,0,0,0,0,0,0,0,0,0,0,0,0,0,0,0,0,0,0,0,0,0,0,0,0,0,0,0,0,0,0,0,0,0,0,0,0,0,0,0,0,0,0,0,0,0,0,0,
0,0,0,0,0,0,0,0,0,0,0,0,0,0,0,0,0,0,0,0,0,0,0,0,0,0,0,0,0,0,0,0,0,0,0,0,0,0,0,0,0,0,0,0,0,0,0,0,0,0,0,0,0,0,0,0,0,0,0,0,0,0,0,0,0,0,0,0,0,0,0,0,0,0,0,0,0,0,0,0,0,0,0,0,0,0,0,0,0,0,0,0,0,0,0,0,0,0,0,0,0,0,0,0,0,0,0,0,0,0,0,0,0,0,0,0,0,0,0,0,0,0,0,0,0,0,0,0,0,0,0,0,0,0,0,0,0,0,0,0,0,0,0,0,0,0,0,0,0,0,0,0,0,0,0,0,0,0,0,0,0,0,0,0,0,0,0,0,0,0,0,0,0,0,0,0,0,0,0,0,0,0,0,0,0,0,0,0,0,0,0,0,0,0,0,0,0,0,0,0,0,0,0,0,0,0,0,0,0,0,0,0,0,0,0,0,0,0,0,0,0,0,0,0,0,0,0,0,0,0,0,0,0,0,0,0,0,0,0,0,0,0,0,0,0,0,0,0,0,0,0,0,0,0,0,0,
0,0,0,0,0,0,0,0,0,0,0,0,0,0,0,0,0,0,0,0,0,0,0,0,0,0,0,0,0,0,0,0,0,0,0,0,0,0,0,0,0,0,0,0,0,0,0,0,0,0,0,0,0,0,0,0,0,0,0,0,0,0,0,0,0,0,0,0,0,0,0,0,0,0,0,0,0,0,0,0,0,0,0,0,0,0,0,0,0,0,0,0,0,0,0,0,0,0,0,0,0,0,0,0,0,0,0,0,0,0,0,0,0,0,0,0,0,0,0,0,0,0,0,0,0,0,0,0,0,0,0,0,0,0,0,0,0,0,0,0,0,0,0,0,0,0,0,0,0,0,0,0,0,0,0,0,0,0,0,0,0,0,0,0,0,0,0,0,0,0,0,0,0,0,0,0,0,0,0,0,0,0,0,0,0,0,0,0,0,0,0,0,0,0,0,0,0,0,0,0,0,0,0,0,0,0,0,0,0,0,0,0,0,0,0,0,0,0,0,0,0,0,0,0,0,0,0,0,0,0,0,0,0,0,0,0,0,0,0,0,0,0,0,0,0,0,0,0,0,0,0,0,0,0,0,0,
0,0,0,0,0,0,0,0,0,0,0,0,0,0,0,0,0,0,0,0,0,0,0,0,0,0,0,0,0,0,0,0,0,0,0,0,0,0,0,0,0,0,0,0,0,0,0,0,0,0,0,0,0,0,0,0,0,0,0,0,0,0,0,0,0,0,0,0,0,0,0,0,0,0,0,0,0,0,0,0,0,0,0,0,0,0,0,0,0,0,0,0,0,0,0,0,0,0,0,0,0,0,0,0,0,0,0,0,0,0,0,0,0,0,0,0,0,0,0,0,0,0,0,0,0,0,0,0,0,0,0,0,0,0,0,0,0,0,0,0,0,0,0,0,0,0,0,0,0,0,0,0,0,0,0,0,0,0,0,0,0,0,0,0,0,0,0,0,0,0,0,0,0,0,0,0,0,0,0,0,0,0,0,0,0,0,0,0,0,0,0,0,0,0,0,0,0,0,0,0,0,0,0,0,0,0,0,0,0,0,0,0,0,0,0,0,0,0,0,0,0,0,0,0,0,0,0,0,0,0,0,0,0,0,0,0,0,0,0,0,0,0,0,0,0,0,0,0,0,0,0,0,0,0,0,0,
0,0,0,0,0,0,0,0,0,0,0,0,0,0,0,0,0,0,0,0,0,0,0,0,0,0,0,0,0,0,0,0,0,0,0,0,0,0,0,0,0,0,0,0,0,0,0,0,0,0,0,0,0,0,0,0,0,0,0,0,0,0,0,0,0,0,0,0,0,0,0,0,0,0,0,0,0,0,0,0,0,0,0,0,0,0,0,0,0,0,0,0,0,0,0,0,0,0,0,0,0,0,0,0,0,0,0,0,0,0,0,0,0,0,0,0,0,0,0,0,0,0,0,0,0,0,0,0,0,0,0,0,0,0,0,0,0,0,0,0,0,0,0,0,0,0,0,0,0,0,0,0,0,0,0,0,0,0,0,0,0,0,0,0,0,0,0,0,0,0,0,0,0,0,0,0,0,0,0,0,0,0,0,0,0,0,0,0,0,0,0,0,0,0,0,0,0,0,0,0,0,0,0,0,0,0,0,0,0,0,0,0,0,0,0,0,0,0,0,0,0,0,0,0,0,0,0,0,0,0,0,0,0,0,0,0,0,0,0,0,0,0,0,0,0,0,0,0,0,0,0,0,0,0,0,0,
0,0,0,0,0,0,0,0,0,0,0,0,0,0,0,0,0,0,0,0,0,0,0,0,0,0,0,0,0,0,0,0,0,0,0,0,0,0,0,0,0,0,0,0,0,0,0,0,0,0,0,0,0,0,0,0,0,0,0,0,0,0,0,0,0,0,0,0,0,0,0,0,0,0,0,0,0,0,0,0,0,0,0,0,0,0,0,0,0,0,0,0,0,0,0,0,0,0,0,0,0,0,0,0,0,0,0,0,0,0,0,0,0,0,0,0,0,0,0,0,0,0,0,0,0,0,0,0,0,0,0,0,0,0,0,0,0,0,0,0,0,0,0,0,0,0,0,0,0,0,0,0,0,0,0,0,0,0,0,0,0,0,0,0,0,0,0,0,0,0,0,0,0,0,0,0,0,0,0,0,0,0,0,0,0,0,0,0,0,0,0,0,0,0,0,0,0,0,0,0,0,0,0,0,0,0,0,0,0,0,0,0,0,0,0,0,0,0,0,0,0,0,0,0,0,0,0,0,0,0,0,0,0,0,0,0,0,0,0,0,0,0,0,0,0,0,0,0,0,0,0,0,0,0,0,0,
0,0,0,0,0,0,0,0,0,0,0,0,0,0,0,0,0,0,0,0,0,0,0,0,0,0,0,0,0,0,0,0,0,0,0,0,0,0,0,0,0,0,0,0,0,0,0,0,0,0,0,0,0,0,0,0,0,0,0,0,0,0,0,0,0,0,0,0,0,0,0,0,0,0,0,0,0,0,0,0,0,0,0,0,0,0,0,0,0,0,0,0,0,0,0,0,0,0,0,0,0,0,0,0,0,0,0,0,0,0,0,0,0,0,0,0,0,0,0,0,0,0,0,0,0,0,0,0,0,0,0,0,0,0,0,0,0,0,0,0,0,0,0,0,0,0,0,0,0,0,0,0,0,0,0,0,0,0,0,0,0,0,0,0,0,0,0,0,0,0,0,0,0,0,0,0,0,0,0,0,0,0,0,0,0,0,0,0,0,0,0,0,0,0,0,0,0,0,0,0,0,0,0,0,0,0,0,0,0,0,0,0,0,0,0,0,0,0,0,0,0,0,0,0,0,0,0,0,0,0,0,0,0,0,0,0,0,0,0,0,0,0,0,0,0,0,0,0,0,0,0,0,0,0,0,0,
0,0,0,0,0,0,0,0,0,0,0,0,0,0,0,0,0,0,0,0,0,0,0,0,0,0,0,0,0,0,0,0,0,0,0,0,0,0,0,0,0,0,0,0,0,0,0,0,0,0,0,0,0,0,0,0,0,0,0,0,0,0,0,0,0,0,0,0,0,0,0,0,0,0,0,0,0,0,0,0,0,0,0,0,0,0,0,0,0,0,0,0,0,0,0,0,0,0,0,0,0,0,0,0,0,0,0,0,0,0,0,0,0,0,0,0,0,0,0,0,0,0,0,0,0,0,0,0,0,0,0,0,0,0,0,0,0,0,0,0,0,0,0,0,0,0,0,0,0,0,0,0,0,0,0,0,0,0,0,0,0,0,0,0,0,0,0,0,0,0,0,0,0,0,0,0,0,0,0,0,0,0,0,0,0,0,0,0,0,0,0,0,0,0,0,0,0,0,0,0,0,0,0,0,0,0,0,0,0,0,0,0,0,0,0,0,0,0,0,0,0,0,0,0,0,0,0,0,0,0,0,0,0,0,0,0,0,0,0,0,0,0,0,0,0,0,0,0,0,0,0,0,0,0,0,0,
0,0,0,0,0,0,0,0,0,0,0,0,0,0,0,0,0,0,0,0,0,0,0,0,0,0,0,0,0,0,0,0,0,0,0,0,0,0,0,0,0,0,0,0,0,0,0,0,0,0,0,0,0,0,0,0,0,0,0,0,0,0,0,0,0,0,0,0,0,0,0,0,0,0,0,0,0,0,0,0,0,0,0,0,0,0,0,0,0,0,0,0,0,0,0,0,0,0,0,0,0,0,0,0,0,0,0,0,0,0,0,0,0,0,0,0,0,0,0,0,0,0,0,0,0,0,0,0,0,0,0,0,0,0,0,0,0,0,0,0,0,0,0,0,0,0,0,0,0,0,0,0,0,0,0,0,0,0,0,0,0,0,0,0,0,0,0,0,0,0,0,0,0,0,0,0,0,0,0,0,0,0,0,0,0,0,0,0,0,0,0,0,0,0,0,0,0,0,0,0,0,0,0,0,0,0,0,0,0,0,0,0,0,0,0,0,0,0,0,0,0,0,0,0,0,0,0,0,0,0,0,0,0,0,0,0,0,0,0,0,0,0,0,0,0,0,0,0,0,0,0,0,0,0,0,0,
0,0,0,0,0,0,0,0,0,0,0,0,0,0,0,0,0,0,0,0,0,0,0,0,0,0,0,0,0,0,0,0,0,0,0,0,0,0,0,0,0,0,0,0,0,0,0,0,0,0,0,0,0,0,0,0,0,0,0,0,0,0,0,0,0,0,0,0,0,0,0,0,0,0,0,0,0,0,0,0,0,0,0,0,0,0,0,0,0,0,0,0,0,0,0,0,0,0,0,0,0,0,0,0,0,0,0,0,0,0,0,0,0,0,0,0,0,0,0,0,0,0,0,0,0,0,0,0,0,0,0,0,0,0,0,0,0,0,0,0,0,0,0,0,0,0,0,0,0,0,0,0,0,0,0,0,0,0,0,0,0,0,0,0,0,0,0,0,0,0,0,0,0,0,0,0,0,0,0,0,0,0,0,0,0,0,0,0,0,0,0,0,0,0,0,0,0,0,0,0,0,0,0,0,0,0,0,0,0,0,0,0,0,0,0,0,0,0,0,0,0,0,0,0,0,0,0,0,0,0,0,0,0,0,0,0,0,0,0,0,0,0,0,0,0,0,0,0,0,0,0,0,0,0,0,0,
0,0,0,0,0,0,0,0,0,0,0,0,0,0,0,0,0,0,0,0,0,0,0,0,0,0,0,0,0,0,0,0,0,0,0,0,0,0,0,0,0,0,0,0,0,0,0,0,0,0,0,0,0,0,0,0,0,0,0,0,0,0,0,0,0,0,0,0,0,0,0,0,0,0,0,0,0,0,0,0,0,0,0,0,0,0,0,0,0,0,0,0,0,0,0,0,0,0,0,0,0,0,0,0,0,0,0,0,0,0,0,0,0,0,0,0,0,0,0,0,0,0,0,0,0,0,0,0,0,0,0,0,0,0,0,0,0,0,0,0,0,0,0,0,0,0,0,0,0,0,0,0,0,0,0,0,0,0,0,0,0,0,0,0,0,0,0,0,0,0,0,0,0,0,0,0,0,0,0,0,0,0,0,0,0,0,0,0,0,0,0,0,0,0,0,0,0,0,0,0,0,0,0,0,0,0,0,0,0,0,0,0,0,0,0,0,0,0,0,0,0,0,0,0,0,0,0,0,0,0,0,0,0,0,0,0,0,0,0,0,0,0,0,0,0,0,0,0,0,0,0,0,0,0,0,0,
0,0,0,0,0,0,0,0,0,0,0,0,0,0,0,0,0,0,0,0,0,0,0,0,0,0,0,0,0,0,0,0,0,0,0,0,0,0,0,0,0,0,0,0,0,0,0,0,0,0,0,0,0,0,0,0,0,0,0,0,0,0,0,0,0,0,0,0,0,0,0,0,0,0,0,0,0,0,0,0,0,0,0,0,0,0,0,0,0,0,0,0,0,0,0,0,0,0,0,0,0,0,0,0,0,0,0,0,0,0,0,0,0,0,0,0,0,0,0,0,0,0,0,0,0,0,0,0,0,0,0,0,0,0,0,0,0,0,0,0,0,0,0,0,0,0,0,0,0,0,0,0,0,0,0,0,0,0,0,0,0,0,0,0,0,0,0,0,0,0,0,0,0,0,0,0,0,0,0,0,0,0,0,0,0,0,0,0,0,0,0,0,0,0,0,0,0,0,0,0,0,0,0,0,0,0,0,0,0,0,0,0,0,0,0,0,0,0,0,0,0,0,0,0,0,0,0,0,0,0,0,0,0,0,0,0,0,0,0,0,0,0,0,0,0,0,0,0,0,0,0,0,0,0,0,0,
0,0,0,0,0,0,0,0,0,0,0,0,0,0,0,0,0,0,0,0,0,0,0,0,0,0,0,0,0,0,0,0,0,0,0,0,0,0,0,0,0,0,0,0,0,0,0,0,0,0,0,0,0,0,0,0,0,0,0,0,0,0,0,0,0,0,0,0,0,0,0,0,0,0,0,0,0,0,0,0,0,0,0,0,0,0,0,0,0,0,0,0,0,0,0,0,0,0,0,0,0,0,0,0,0,0,0,0,0,0,0,0,0,0,0,0,0,0,0,0,0,0,0,0,0,0,0,0,0,0,0,0,0,0,0,0,0,0,0,0,0,0,0,0,0,0,0,0,0,0,0,0,0,0,0,0,0,0,0,0,0,0,0,0,0,0,0,0,0,0,0,0,0,0,0,0,0,0,0,0,0,0,0,0,0,0,0,0,0,0,0,0,0,0,0,0,0,0,0,0,0,0,0,0,0,0,0,0,0,0,0,0,0,0,0,0,0,0,0,0,0,0,0,0,0,0,0,0,0,0,0,0,0,0,0,0,0,0,0,0,0,0,0,0,0,0,0,0,0,0,0,0,0,0,0,0,
0,0,0,0,0,0,0,0,0,0,0,0,0,0,0,0,0,0,0,0,0,0,0,0,0,0,0,0,0,0,0,0,0,0,0,0,0,0,0,0,0,0,0,0,0,0,0,0,0,0,0,0,0,0,0,0,0,0,0,0,0,0,0,0,0,0,0,0,0,0,0,0,0,0,0,0,0,0,0,0,0,0,0,0,0,0,0,0,0,0,0,0,0,0,0,0,0,0,0,0,0,0,0,0,0,0,0,0,0,0,0,0,0,0,0,0,0,0,0,0,0,0,0,0,0,0,0,0,0,0,0,0,0,0,0,0,0,0,0,0,0,0,0,0,0,0,0,0,0,0,0,0,0,0,0,0,0,0,0,0,0,0,0,0,0,0,0,0,0,0,0,0,0,0,0,0,0,0,0,0,0,0,0,0,0,0,0,0,0,0,0,0,0,0,0,0,0,0,0,0,0,0,0,0,0,0,0,0,0,0,0,0,0,0,0,0,0,0,0,0,0,0,0,0,0,0,0,0,0,0,0,0,0,0,0,0,0,0,0,0,0,0,0,0,0,0,0,0,0,0,0,0,0,0,0,0,
0,0,0,0,0,0,0,0,0,0,0,0,0,0,0,0,0,0,0,0,0,0,0,0,0,0,0,0,0,0,0,0,0,0,0,0,0,0,0,0,0,0,0,0,0,0,0,0,0,0,0,0,0,0,0,0,0,0,0,0,0,0,0,0,0,0,0,0,0,0,0,0,0,0,0,0,0,0,0,0,0,0,0,0,0,0,0,0,0,0,0,0,0,0,0,0,0,0,0,0,0,0,0,0,0,0,0,0,0,0,0,0,0,0,0,0,0,0,0,0,0,0,0,0,0,0,0,0,0,0,0,0,0,0,0,0,0,0,0,0,0,0,0,0,0,0,0,0,0,0,0,0,0,0,0,0,0,0,0,0,0,0,0,0,0,0,0,0,0,0,0,0,0,0,0,0,0,0,0,0,0,0,0,0,0,0,0,0,0,0,0,0,0,0,0,0,0,0,0,0,0,0,0,0,0,0,0,0,0,0,0,0,0,0,0,0,0,0,0,0,0,0,0,0,0,0,0,0,0,0,0,0,0,0,0,0,0,0,0,0,0,0,0,0,0,0,0,0,0,0,0,0,0,0,0,0,
0,0,0,0,0,0,0,0,0,0,0,0,0,0,0,0,0,0,0,0,0,0,0,0,0,0,0,0,0,0,0,0,0,0,0,0,0,0,0,0,0,0,0,0,0,0,0,0,0,0,0,0,0,0,0,0,0,0,0,0,0,0,0,0,0,0,0,0,0,0,0,0,0,0,0,0,0,0,0,0,0,0,0,0,0,0,0,0,0,0,0,0,0,0,0,0,0,0,0,0,0,0,0,0,0,0,0,0,0,0,0,0,0,0,0,0,0,0,0,0,0,0,0,0,0,0,0,0,0,0,0,0,0,0,0,0,0,0,0,0,0,0,0,0,0,0,0,0,0,0,0,0,0,0,0,0,0,0,0,0,0,0,0,0,0,0,0,0,0,0,0,0,0,0,0,0,0,0,0,0,0,0,0,0,0,0,0,0,0,0,0,0,0,0,0,0,0,0,0,0,0,0,0,0,0,0,0,0,0,0,0,0,0,0,0,0,0,0,0,0,0,0,0,0,0,0,0,0,0,0,0,0,0,0,0,0,0,0,0,0,0,0,0,0,0,0,0,0,0,0,0,0,0,0,0,0,
0,0,0,0,0,0,0,0,0,0,0,0,0,0,0,0,0,0,0,0,0,0,0,0,0,0,0,0,0,0,0,0,0,0,0,0,0,0,0,0,0,0,0,0,0,0,0,0,0,0,0,0,0,0,0,0,0,0,0,0,0,0,0,0,0,0,0,0,0,0,0,0,0,0,0,0,0,0,0,0,0,0,0,0,0,0,0,0,0,0,0,0,0,0,0,0,0,0,0,0,0,0,0,0,0,0,0,0,0,0,0,0,0,0,0,0,0,0,0,0,0,0,0,0,0,0,0,0,0,0,0,0,0,0,0,0,0,0,0,0,0,0,0,0,0,0,0,0,0,0,0,0,0,0,0,0,0,0,0,0,0,0,0,0,0,0,0,0,0,0,0,0,0,0,0,0,0,0,0,0,0,0,0,0,0,0,0,0,0,0,0,0,0,0,0,0,0,0,0,0,0,0,0,0,0,0,0,0,0,0,0,0,0,0,0,0,0,0,0,0,0,0,0,0,0,0,0,0,0,0,0,0,0,0,0,0,0,0,0,0,0,0,0,0,0,0,0,0,0,0,0,0,0,0,0,0,
0,0,0,0,0,0,0,0,0,0,0,0,0,0,0,0,0,0,0,0,0,0,0,0,0,0,0,0,0,0,0,0,0,0,0,0,0,0,0,0,0,0,0,0,0,0,0,0,0,0,0,0,0,0,0,0,0,0,0,0,0,0,0,0,0,0,0,0,0,0,0,0,0,0,0,0,0,0,0,0,0,0,0,0,0,0,0,0,0,0,0,0,0,0,0,0,0,0,0,0,0,0,0,0,0,0,0,0,0,0,0,0,0,0,0,0,0,0,0,0,0,0,0,0,0,0,0,0,0,0,0,0,0,0,0,0,0,0,0,0,0,0,0,0,0,0,0,0,0,0,0,0,0,0,0,0,0,0,0,0,0,0,0,0,0,0,0,0,0,0,0,0,0,0,0,0,0,0,0,0,0,0,0,0,0,0,0,0,0,0,0,0,0,0,0,0,0,0,0,0,0,0,0,0,0,0,0,0,0,0,0,0,0,0,0,0,0,0,0,0,0,0,0,0,0,0,0,0,0,0,0,0,0,0,0,0,0,0,0,0,0,0,0,0,0,0,0,0,0,0,0,0,0,0,0,0,
0,0,0,0,0,0,0,0,0,0,0,0,0,0,0,0,0,0,0,0,0,0,0,0,0,0,0,0,0,0,0,0,0,0,0,0,0,0,0,0,0,0,0,0,0,0,0,0,0,0,0,0,0,0,0,0,0,0,0,0,0,0,0,0,0,0,0,0,0,0,0,0,0,0,0,0,0,0,0,0,0,0,0,0,0,0,0,0,0,0,0,0,0,0,0,0,0,0,0,0,0,0,0,0,0,0,0,0,0,0,0,0,0,0,0,0,0,0,0,0,0,0,0,0,0,0,0,0,0,0,0,0,0,0,0,0,0,0,0,0,0,0,0,0,0,0,0,0,0,0,0,0,0,0,0,0,0,0,0,0,0,0,0,0,0,0,0,0,0,0,0,0,0,0,0,0,0,0,0,0,0,0,0,0,0,0,0,0,0,0,0,0,0,0,0,0,0,0,0,0,0,0,0,0,0,0,0,0,0,0,0,0,0,0,0,0,0,0,0,0,0,0,0,0,0,0,0,0,0,0,0,0,0,0,0,0,0,0,0,0,0,0,0,0,0,0,0,0,0,0,0,0,0,0,0,0,
0,0,0,0,0,0,0,0,0,0,0,0,0,0,0,0,0,0,0,0,0,0,0,0,0,0,0,0,0,0,0,0,0,0,0,0,0,0,0,0,0,0,0,0,0,0,0,0,0,0,0,0,0,0,0,0,0,0,0,0,0,0,0,0,0,0,0,0,0,0,0,0,0,0,0,0,0,0,0,0,0,0,0,0,0,0,0,0,0,0,0,0,0,0,0,0,0,0,0,0,0,0,0,0,0,0,0,0,0,0,0,0,0,0,0,0,0,0,0,0,0,0,0,0,0,0,0,0,0,0,0,0,0,0,0,0,0,0,0,0,0,0,0,0,0,0,0,0,0,0,0,0,0,0,0,0,0,0,0,0,0,0,0,0,0,0,0,0,0,0,0,0,0,0,0,0,0,0,0,0,0,0,0,0,0,0,0,0,0,0,0,0,0,0,0,0,0,0,0,0,0,0,0,0,0,0,0,0,0,0,0,0,0,0,0,0,0,0,0,0,0,0,0,0,0,0,0,0,0,0,0,0,0,0,0,0,0,0,0,0,0,0,0,0,0,0,0,0,0,0,0,0,0,0,0,0,
0,0,0,0,0,0,0,0,0,0,0,0,0,0,0,0,0,0,0,0,0,0,0,0,0,0,0,0,0,0,0,0,0,0,0,0,0,0,0,0,0,0,0,0,0,0,0,0,0,0,0,0,0,0,0,0,0,0,0,0,0,0,0,0,0,0,0,0,0,0,0,0,0,0,0,0,0,0,0,0,0,0,0,0,0,0,0,0,0,0,0,0,0,0,0,0,0,0,0,0,0,0,0,0,0,0,0,0,0,0,0,0,0,0,0,0,0,0,0,0,0,0,0,0,0,0,0,0,0,0,0,0,0,0,0,0,0,0,0,0,0,0,0,0,0,0,0,0,0,0,0,0,0,0,0,0,0,0,0,0,0,0,0,0,0,0,0,0,0,0,0,0,0,0,0,0,0,0,0,0,0,0,0,0,0,0,0,0,0,0,0,0,0,0,0,0,0,0,0,0,0,0,0,0,0,0,0,0,0,0,0,0,0,0,0,0,0,0,0,0,0,0,0,0,0,0,0,0,0,0,0,0,0,0,0,0,0,0,0,0,0,0,0,0,0,0,0,0,0,0,0,0,0,0,0,0,
0,0,0,0,0,0,0,0,0,0,0,0,0,0,0,0,0,0,0,0,0,0,0,0,0,0,0,0,0,0,0,0,0,0,0,0,0,0,0,0,0,0,0,0,0,0,0,0,0,0,0,0,0,0,0,0,0,0,0,0,0,0,0,0,0,0,0,0,0,0,0,0,0,0,0,0,0,0,0,0,0,0,0,0,0,0,0,0,0,0,0,0,0,0,0,0,0,0,0,0,0,0,0,0,0,0,0,0,0,0,0,0,0,0,0,0,0,0,0,0,0,0,0,0,0,0,0,0,0,0,0,0,0,0,0,0,0,0,0,0,0,0,0,0,0,0,0,0,0,0,0,0,0,0,0,0,0,0,0,0,0,0,0,0,0,0,0,0,0,0,0,0,0,0,0,0,0,0,0,0,0,0,0,0,0,0,0,0,0,0,0,0,0,0,0,0,0,0,0,0,0,0,0,0,0,0,0,0,0,0,0,0,0,0,0,0,0,0,0,0,0,0,0,0,0,0,0,0,0,0,0,0,0,0,0,0,0,0,0,0,0,0,0,0,0,0,0,0,0,0,0,0,0,0,0,0,
0,0,0,0,0,0,0,0,0,0,0,0,0,0,0,0,0,0,0,0,0,0,0,0,0,0,0,0,0,0,0,0,0,0,0,0,0,0,0,0,0,0,0,0,0,0,0,0,0,0,0,0,0,0,0,0,0,0,0,0,0,0,0,0,0,0,0,0,0,0,0,0,0,0,0,0,0,0,0,0,0,0,0,0,0,0,0,0,0,0,0,0,0,0,0,0,0,0,0,0,0,0,0,0,0,0,0,0,0,0,0,0,0,0,0,0,0,0,0,0,0,0,0,0,0,0,0,0,0,0,0,0,0,0,0,0,0,0,0,0,0,0,0,0,0,0,0,0,0,0,0,0,0,0,0,0,0,0,0,0,0,0,0,0,0,0,0,0,0,0,0,0,0,0,0,0,0,0,0,0,0,0,0,0,0,0,0,0,0,0,0,0,0,0,0,0,0,0,0,0,0,0,0,0,0,0,0,0,0,0,0,0,0,0,0,0,0,0,0,0,0,0,0,0,0,0,0,0,0,0,0,0,0,0,0,0,0,0,0,0,0,0,0,0,0,0,0,0,0,0,0,0,0,0,0,0,
0,0,0,0,0,0,0,0,0,0,0,0,0,0,0,0,0,0,0,0,0,0,0,0,0,0,0,0,0,0,0,0,0,0,0,0,0,0,0,0,0,0,0,0,0,0,0,0,0,0,0,0,0,0,0,0,0,0,0,0,0,0,0,0,0,0,0,0,0,0,0,0,0,0,0,0,0,0,0,0,0,0,0,0,0,0,0,0,0,0,0,0,0,0,0,0,0,0,0,0,0,0,0,0,0,0,0,0,0,0,0,0,0,0,0,0,0,0,0,0,0,0,0,0,0,0,0,0,0,0,0,0,0,0,0,0,0,0,0,0,0,0,0,0,0,0,0,0,0,0,0,0,0,0,0,0,0,0,0,0,0,0,0,0,0,0,0,0,0,0,0,0,0,0,0,0,0,0,0,0,0,0,0,0,0,0,0,0,0,0,0,0,0,0,0,0,0,0,0,0,0,0,0,0,0,0,0,0,0,0,0,0,0,0,0,0,0,0,0,0,0,0,0,0,0,0,0,0,0,0,0,0,0,0,0,0,0,0,0,0,0,0,0,0,0,0,0,0,0,0,0,0,0,0,0,0,
0,0,0,0,0,0,0,0,0,0,0,0,0,0,0,0,0,0,0,0,0,0,0,0,0,0,0,0,0,0,0,0,0,0,0,0,0,0,0,0,0,0,0,0,0,0,0,0,0,0,0,0,0,0,0,0,0,0,0,0,0,0,0,0,0,0,0,0,0,0,0,0,0,0,0,0,0,0,0,0,0,0,0,0,0,0,0,0,0,0,0,0,0,0,0,0,0,0,0,0,0,0,0,0,0,0,0,0,0,0,0,0,0,0,0,0,0,0,0,0,0,0,0,0,0,0,0,0,0,0,0,0,0,0,0,0,0,0,0,0,0,0,0,0,0,0,0,0,0,0,0,0,0,0,0,0,0,0,0,0,0,0,0,0,0,0,0,0,0,0,0,0,0,0,0,0,0,0,0,0,0,0,0,0,0,0,0,0,0,0,0,0,0,0,0,0,0,0,0,0,0,0,0,0,0,0,0,0,0,0,0,0,0,0,0,0,0,0,0,0,0,0,0,0,0,0,0,0,0,0,0,0,0,0,0,0,0,0,0,0,0,0,0,0,0,0,0,0,0,0,0,0,0,0,0,0,
0,0,0,0,0,0,0,0,0,0,0,0,0,0,0,0,0,0,0,0,0,0,0,0,0,0,0,0,0,0,0,0,0,0,0,0,0,0,0,0,0,0,0,0,0,0,0,0,0,0,0,0,0,0,0,0,0,0,0,0,0,0,0,0,0,0,0,0,0,0,0,0,0,0,0,0,0,0,0,0,0,0,0,0,0,0,0,0,0,0,0,0,0,0,0,0,0,0,0,0,0,0,0,0,0,0,0,0,0,0,0,0,0,0,0,0,0,0,0,0,0,0,0,0,0,0,0,0,0,0,0,0,0,0,0,0,0,0,0,0,0,0,0,0,0,0,0,0,0,0,0,0,0,0,0,0,0,0,0,0,0,0,0,0,0,0,0,0,0,0,0,0,0,0,0,0,0,0,0,0,0,0,0,0,0,0,0,0,0,0,0,0,0,0,0,0,0,0,0,0,0,0,0,0,0,0,0,0,0,0,0,0,0,0,0,0,0,0,0,0,0,0,0,0,0,0,0,0,0,0,0,0,0,0,0,0,0,0,0,0,0,0,0,0,0,0,0,0,0,0,0,0,0,0,0,0,
0,0,0,0,0,0,0,0,0,0,0,0,0,0,0,0,0,0,0,0,0,0,0,0,0,0,0,0,0,0,0,0,0,0,0,0,0,0,0,0,0,0,0,0,0,0,0,0,0,0,0,0,0,0,0,0,0,0,0,0,0,0,0,0,0,0,0,0,0,0,0,0,0,0,0,0,0,0,0,0,0,0,0,0,0,0,0,0,0,0,0,0,0,0,0,0,0,0,0,0,0,0,0,0,0,0,0,0,0,0,0,0,0,0,0,0,0,0,0,0,0,0,0,0,0,0,0,0,0,0,0,0,0,0,0,0,0,0,0,0,0,0,0,0,0,0,0,0,0,0,0,0,0,0,0,0,0,0,0,0,0,0,0,0,0,0,0,0,0,0,0,0,0,0,0,0,0,0,0,0,0,0,0,0,0,0,0,0,0,0,0,0,0,0,0,0,0,0,0,0,0,0,0,0,0,0,0,0,0,0,0,0,0,0,0,0,0,0,0,0,0,0,0,0,0,0,0,0,0,0,0,0,0,0,0,0,0,0,0,0,0,0,0,0,0,0,0,0,0,0,0,0,0,0,0,0,
0,0,0,0,0,0,0,0,0,0,0,0,0,0,0,0,0,0,0,0,0,0,0,0,0,0,0,0,0,0,0,0,0,0,0,0,0,0,0,0,0,0,0,0,0,0,0,0,0,0,0,0,0,0,0,0,0,0,0,0,0,0,0,0,0,0,0,0,0,0,0,0,0,0,0,0,0,0,0,0,0,0,0,0,0,0,0,0,0,0,0,0,0,0,0,0,0,0,0,0,0,0,0,0,0,0,0,0,0,0,0,0,0,0,0,0,0,0,0,0,0,0,0,0,0,0,0,0,0,0,0,0,0,0,0,0,0,0,0,0,0,0,0,0,0,0,0,0,0,0,0,0,0,0,0,0,0,0,0,0,0,0,0,0,0,0,0,0,0,0,0,0,0,0,0,0,0,0,0,0,0,0,0,0,0,0,0,0,0,0,0,0,0,0,0,0,0,0,0,0,0,0,0,0,0,0,0,0,0,0,0,0,0,0,0,0,0,0,0,0,0,0,0,0,0,0,0,0,0,0,0,0,0,0,0,0,0,0,0,0,0,0,0,0,0,0,0,0,0,0,0,0,0,0,0,0,
0,0,0,0,0,0,0,0,0,0,0,0,0,0,0,0,0,0,0,0,0,0,0,0,0,0,0,0,0,0,0,0,0,0,0,0,0,0,0,0,0,0,0,0,0,0,0,0,0,0,0,0,0,0,0,0,0,0,0,0,0,0,0,0,0,0,0,0,0,0,0,0,0,0,0,0,0,0,0,0,0,0,0,0,0,0,0,0,0,0,0,0,0,0,0,0,0,0,0,0,0,0,0,0,0,0,0,0,0,0,0,0,0,0,0,0,0,0,0,0,0,0,0,0,0,0,0,0,0,0,0,0,0,0,0,0,0,0,0,0,0,0,0,0,0,0,0,0,0,0,0,0,0,0,0,0,0,0,0,0,0,0,0,0,0,0,0,0,0,0,0,0,0,0,0,0,0,0,0,0,0,0,0,0,0,0,0,0,0,0,0,0,0,0,0,0,0,0,0,0,0,0,0,0,0,0,0,0,0,0,0,0,0,0,0,0,0,0,0,0,0,0,0,0,0,0,0,0,0,0,0,0,0,0,0,0,0,0,0,0,0,0,0,0,0,0,0,0,0,0,0,0,0,0,0,0,
0,0,0,0,0,0,0,0,0,0,0,0,0,0,0,0,0,0,0,0,0,0,0,0,0,0,0,0,0,0,0,0,0,0,0,0,0,0,0,0,0,0,0,0,0,0,0,0,0,0,0,0,0,0,0,0,0,0,0,0,0,0,0,0,0,0,0,0,0,0,0,0,0,0,0,0,0,0,0,0,0,0,0,0,0,0,0,0,0,0,0,0,0,0,0,0,0,0,0,0,0,0,0,0,0,0,0,0,0,0,0,0,0,0,0,0,0,0,0,0,0,0,0,0,0,0,0,0,0,0,0,0,0,0,0,0,0,0,0,0,0,0,0,0,0,0,0,0,0,0,0,0,0,0,0,0,0,0,0,0,0,0,0,0,0,0,0,0,0,0,0,0,0,0,0,0,0,0,0,0,0,0,0,0,0,0,0,0,0,0,0,0,0,0,0,0,0,0,0,0,0,0,0,0,0,0,0,0,0,0,0,0,0,0,0,0,0,0,0,0,0,0,0,0,0,0,0,0,0,0,0,0,0,0,0,0,0,0,0,0,0,0,0,0,0,0,0,0,0,0,0,0,0,0,0,0,
0,0,0,0,0,0,0,0,0,0,0,0,0,0,0,0,0,0,0,0,0,0,0,0,0,0,0,0,0,0,0,0,0,0,0,0,0,0,0,0,0,0,0,0,0,0,0,0,0,0,0,0,0,0,0,0,0,0,0,0,0,0,0,0,0,0,0,0,0,0,0,0,0,0,0,0,0,0,0,0,0,0,0,0,0,0,0,0,0,0,0,0,0,0,0,0,0,0,0,0,0,0,0,0,0,0,0,0,0,0,0,0,0,0,0,0,0,0,0,0,0,0,0,0,0,0,0,0,0,0,0,0,0,0,0,0,0,0,0,0,0,0,0,0,0,0,0,0,0,0,0,0,0,0,0,0,0,0,0,0,0,0,0,0,0,0,0,0,0,0,0,0,0,0,0,0,0,0,0,0,0,0,0,0,0,0,0,0,0,0,0,0,0,0,0,0,0,0,0,0,0,0,0,0,0,0,0,0,0,0,0,0,0,0,0,0,0,0,0,0,0,0,0,0,0,0,0,0,0,0,0,0,0,0,0,0,0,0,0,0,0,0,0,0,0,0,0,0,0,0,0,0,0,0,0,0,
0,0,0,0,0,0,0,0,0,0,0,0,0,0,0,0,0,0,0,0,0,0,0,0,0,0,0,0,0,0,0,0,0,0,0,0,0,0,0,0,0,0,0,0,0,0,0,0,0,0,0,0,0,0,0,0,0,0,0,0,0,0,0,0,0,0,0,0,0,0,0,0,0,0,0,0,0,0,0,0,0,0,0,0,0,0,0,0,0,0,0,0,0,0,0,0,0,0,0,0,0,0,0,0,0,0,0,0,0,0,0,0,0,0,0,0,0,0,0,0,0,0,0,0,0,0,0,0,0,0,0,0,0,0,0,0,0,0,0,0,0,0,0,0,0,0,0,0,0,0,0,0,0,0,0,0,0,0,0,0,0,0,0,0,0,0,0,0,0,0,0,0,0,0,0,0,0,0,0,0,0,0,0,0,0,0,0,0,0,0,0,0,0,0,0,0,0,0,0,0,0,0,0,0,0,0,0,0,0,0,0,0,0,0,0,0,0,0,0,0,0,0,0,0,0,0,0,0,0,0,0,0,0,0,0,0,0,0,0,0,0,0,0,0,0,0,0,0,0,0,0,0,0,0,0,0,
0,0,0,0,0,0,0,0,0,0,0,0,0,0,0,0,0,0,0,0,0,0,0,0,0,0,0,0,0,0,0,0,0,0,0,0,0,0,0,0,0,0,0,0,0,0,0,0,0,0,0,0,0,0,0,0,0,0,0,0,0,0,0,0,0,0,0,0,0,0,0,0,0,0,0,0,0,0,0,0,0,0,0,0,0,0,0,0,0,0,0,0,0,0,0,0,0,0,0,0,0,0,0,0,0,0,0,0,0,0,0,0,0,0,0,0,0,0,0,0,0,0,0,0,0,0,0,0,0,0,0,0,0,0,0,0,0,0,0,0,0,0,0,0,0,0,0,0,0,0,0,0,0,0,0,0,0,0,0,0,0,0,0,0,0,0,0,0,0,0,0,0,0,0,0,0,0,0,0,0,0,0,0,0,0,0,0,0,0,0,0,0,0,0,0,0,0,0,0,0,0,0,0,0,0,0,0,0,0,0,0,0,0,0,0,0,0,0,0,0,0,0,0,0,0,0,0,0,0,0,0,0,0,0,0,0,0,0,0,0,0,0,0,0,0,0,0,0,0,0,0,0,0,0,0,0,
0,0,0,0,0,0,0,0,0,0,0,0,0,0,0,0,0,0,0,0,0,0,0,0,0,0,0,0,0,0,0,0,0,0,0,0,0,0,0,0,0,0,0,0,0,0,0,0,0,0,0,0,0,0,0,0,0,0,0,0,0,0,0,0,0,0,0,0,0,0,0,0,0,0,0,0,0,0,0,0,0,0,0,0,0,0,0,0,0,0,0,0,0,0,0,0,0,0,0,0,0,0,0,0,0,0,0,0,0,0,0,0,0,0,0,0,0,0,0,0,0,0,0,0,0,0,0,0,0,0,0,0,0,0,0,0,0,0,0,0,0,0,0,0,0,0,0,0,0,0,0,0,0,0,0,0,0,0,0,0,0,0,0,0,0,0,0,0,0,0,0,0,0,0,0,0,0,0,0,0,0,0,0,0,0,0,0,0,0,0,0,0,0,0,0,0,0,0,0,0,0,0,0,0,0,0,0,0,0,0,0,0,0,0,0,0,0,0,0,0,0,0,0,0,0,0,0,0,0,0,0,0,0,0,0,0,0,0,0,0,0,0,0,0,0,0,0,0,0,0,0,0,0,0,0,0,
0,0,0,0,0,0,0,0,0,0,0,0,0,0,0,0,0,0,0,0,0,0,0,0,0,0,0,0,0,0,0,0,0,0,0,0,0,0,0,0,0,0,0,0,0,0,0,0,0,0,0,0,0,0,0,0,0,0,0,0,0,0,0,0,0,0,0,0,0,0,0,0,0,0,0,0,0,0,0,0,0,0,0,0,0,0,0,0,0,0,0,0,0,0,0,0,0,0,0,0,0,0,0,0,0,0,0,0,0,0,0,0,0,0,0,0,0,0,0,0,0,0,0,0,0,0,0,0,0,0,0,0,0,0,0,0,0,0,0,0,0,0,0,0,0,0,0,0,0,0,0,0,0,0,0,0,0,0,0,0,0,0,0,0,0,0,0,0,0,0,0,0,0,0,0,0,0,0,0,0,0,0,0,0,0,0,0,0,0,0,0,0,0,0,0,0,0,0,0,0,0,0,0,0,0,0,0,0,0,0,0,0,0,0,0,0,0,0,0,0,0,0,0,0,0,0,0,0,0,0,0,0,0,0,0,0,0,0,0,0,0,0,0,0,0,0,0,0,0,0,0,0,0,0,0,0,
0,0,0,0,0,0,0,0,0,0,0,0,0,0,0,0,0,0,0,0,0,0,0,0,0,0,0,0,0,0,0,0,0,0,0,0,0,0,0,0,0,0,0,0,0,0,0,0,0,0,0,0,0,0,0,0,0,0,0,0,0,0,0,0,0,0,0,0,0,0,0,0,0,0,0,0,0,0,0,0,0,0,0,0,0,0,0,0,0,0,0,0,0,0,0,0,0,0,0,0,0,0,0,0,0,0,0,0,0,0,0,0,0,0,0,0,0,0,0,0,0,0,0,0,0,0,0,0,0,0,0,0,0,0,0,0,0,0,0,0,0,0,0,0,0,0,0,0,0,0,0,0,0,0,0,0,0,0,0,0,0,0,0,0,0,0,0,0,0,0,0,0,0,0,0,0,0,0,0,0,0,0,0,0,0,0,0,0,0,0,0,0,0,0,0,0,0,0,0,0,0,0,0,0,0,0,0,0,0,0,0,0,0,0,0,0,0,0,0,0,0,0,0,0,0,0,0,0,0,0,0,0,0,0,0,0,0,0,0,0,0,0,0,0,0,0,0,0,0,0,0,0,0,0,0,0,
0,0,0,0,0,0,0,0,0,0,0,0,0,0,0,0,0,0,0,0,0,0,0,0,0,0,0,0,0,0,0,0,0,0,0,0,0,0,0,0,0,0,0,0,0,0,0,0,0,0,0,0,0,0,0,0,0,0,0,0,0,0,0,0,0,0,0,0,0,0,0,0,0,0,0,0,0,0,0,0,0,0,0,0,0,0,0,0,0,0,0,0,0,0,0,0,0,0,0,0,0,0,0,0,0,0,0,0,0,0,0,0,0,0,0,0,0,0,0,0,0,0,0,0,0,0,0,0,0,0,0,0,0,0,0,0,0,0,0,0,0,0,0,0,0,0,0,0,0,0,0,0,0,0,0,0,0,0,0,0,0,0,0,0,0,0,0,0,0,0,0,0,0,0,0,0,0,0,0,0,0,0,0,0,0,0,0,0,0,0,0,0,0,0,0,0,0,0,0,0,0,0,0,0,0,0,0,0,0,0,0,0,0,0,0,0,0,0,0,0,0,0,0,0,0,0,0,0,0,0,0,0,0,0,0,0,0,0,0,0,0,0,0,0,0,0,0,0,0,0,0,0,0,0,0,0,
0,0,0,0,0,0,0,0,0,0,0,0,0,0,0,0,0,0,0,0,0,0,0,0,0,0,0,0,0,0,0,0,0,0,0,0,0,0,0,0,0,0,0,0,0,0,0,0,0,0,0,0,0,0,0,0,0,0,0,0,0,0,0,0,0,0,0,0,0,0,0,0,0,0,0,0,0,0,0,0,0,0,0,0,0,0,0,0,0,0,0,0,0,0,0,0,0,0,0,0,0,0,0,0,0,0,0,0,0,0,0,0,0,0,0,0,0,0,0,0,0,0,0,0,0,0,0,0,0,0,0,0,0,0,0,0,0,0,0,0,0,0,0,0,0,0,0,0,0,0,0,0,0,0,0,0,0,0,0,0,0,0,0,0,0,0,0,0,0,0,0,0,0,0,0,0,0,0,0,0,0,0,0,0,0,0,0,0,0,0,0,0,0,0,0,0,0,0,0,0,0,0,0,0,0,0,0,0,0,0,0,0,0,0,0,0,0,0,0,0,0,0,0,0,0,0,0,0,0,0,0,0,0,0,0,0,0,0,0,0,0,0,0,0,0,0,0,0,0,0,0,0,0,0,0,0,
0,0,0,0,0,0,0,0,0,0,0,0,0,0,0,0,0,0,0,0,0,0,0,0,0,0,0,0,0,0,0,0,0,0,0,0,0,0,0,0,0,0,0,0,0,0,0,0,0,0,0,0,0,0,0,0,0,0,0,0,0,0,0,0,0,0,0,0,0,0,0,0,0,0,0,0,0,0,0,0,0,0,0,0,0,0,0,0,0,0,0,0,0,0,0,0,0,0,0,0,0,0,0,0,0,0,0,0,0,0,0,0,0,0,0,0,0,0,0,0,0,0,0,0,0,0,0,0,0,0,0,0,0,0,0,0,0,0,0,0,0,0,0,0,0,0,0,0,0,0,0,0,0,0,0,0,0,0,0,0,0,0,0,0,0,0,0,0,0,0,0,0,0,0,0,0,0,0,0,0,0,0,0,0,0,0,0,0,0,0,0,0,0,0,0,0,0,0,0,0,0,0,0,0,0,0,0,0,0,0,0,0,0,0,0,0,0,0,0,0,0,0,0,0,0,0,0,0,0,0,0,0,0,0,0,0,0,0,0,0,0,0,0,0,0,0,0,0,0,0,0,0,0,0,0,0,
0,0,0,0,0,0,0,0,0,0,0,0,0,0,0,0,0,0,0,0,0,0,0,0,0,0,0,0,0,0,0,0,0,0,0,0,0,0,0,0,0,0,0,0,0,0,0,0,0,0,0,0,0,0,0,0,0,0,0,0,0,0,0,0,0,0,0,0,0,0,0,0,0,0,0,0,0,0,0,0,0,0,0,0,0,0,0,0,0,0,0,0,0,0,0,0,0,0,0,0,0,0,0,0,0,0,0,0,0,0,0,0,0,0,0,0,0,0,0,0,0,0,0,0,0,0,0,0,0,0,0,0,0,0,0,0,0,0,0,0,0,0,0,0,0,0,0,0,0,0,0,0,0,0,0,0,0,0,0,0,0,0,0,0,0,0,0,0,0,0,0,0,0,0,0,0,0,0,0,0,0,0,0,0,0,0,0,0,0,0,0,0,0,0,0,0,0,0,0,0,0,0,0,0,0,0,0,0,0,0,0,0,0,0,0,0,0,0,0,0,0,0,0,0,0,0,0,0,0,0,0,0,0,0,0,0,0,0,0,0,0,0,0,0,0,0,0,0,0,0,0,0,0,0,0,0,
0,0,0,0,0,0,0,0,0,0,0,0,0,0,0,0,0,0,0,0,0,0,0,0,0,0,0,0,0,0,0,0,0,0,0,0,0,0,0,0,0,0,0,0,0,0,0,0,0,0,0,0,0,0,0,0,0,0,0,0,0,0,0,0,0,0,0,0,0,0,0,0,0,0,0,0,0,0,0,0,0,0,0,0,0,0,0,0,0,0,0,0,0,0,0,0,0,0,0,0,0,0,0,0,0,0,0,0,0,0,0,0,0,0,0,0,0,0,0,0,0,0,0,0,0,0,0,0,0,0,0,0,0,0,0,0,0,0,0,0,0,0,0,0,0,0,0,0,0,0,0,0,0,0,0,0,0,0,0,0,0,0,0,0,0,0,0,0,0,0,0,0,0,0,0,0,0,0,0,0,0,0,0,0,0,0,0,0,0,0,0,0,0,0,0,0,0,0,0,0,0,0,0,0,0,0,0,0,0,0,0,0,0,0,0,0,0,0,0,0,0,0,0,0,0,0,0,0,0,0,0,0,0,0,0,0,0,0,0,0,0,0,0,0,0,0,0,0,0,0,0,0,0,0,0,0,
0,0,0,0,0,0,0,0,0,0,0,0,0,0,0,0,0,0,0,0,0,0,0,0,0,0,0,0,0,0,0,0,0,0,0,0,0,0,0,0,0,0,0,0,0,0,0,0,0,0,0,0,0,0,0,0,0,0,0,0,0,0,0,0,0,0,0,0,0,0,0,0,0,0,0,0,0,0,0,0,0,0,0,0,0,0,0,0,0,0,0,0,0,0,0,0,0,0,0,0,0,0,0,0,0,0,0,0,0,0,0,0,0,0,0,0,0,0,0,0,0,0,0,0,0,0,0,0,0,0,0,0,0,0,0,0,0,0,0,0,0,0,0,0,0,0,0,0,0,0,0,0,0,0,0,0,0,0,0,0,0,0,0,0,0,0,0,0,0,0,0,0,0,0,0,0,0,0,0,0,0,0,0,0,0,0,0,0,0,0,0,0,0,0,0,0,0,0,0,0,0,0,0,0,0,0,0,0,0,0,0,0,0,0,0,0,0,0,0,0,0,0,0,0,0,0,0,0,0,0,0,0,0,0,0,0,0,0,0,0,0,0,0,0,0,0,0,0,0,0,0,0,0,0,0,0,
0,0,0,0,0,0,0,0,0,0,0,0,0,0,0,0,0,0,0,0,0,0,0,0,0,0,0,0,0,0,0,0,0,0,0,0,0,0,0,0,0,0,0,0,0,0,0,0,0,0,0,0,0,0,0,0,0,0,0,0,0,0,0,0,0,0,0,0,0,0,0,0,0,0,0,0,0,0,0,0,0,0,0,0,0,0,0,0,0,0,0,0,0,0,0,0,0,0,0,0,0,0,0,0,0,0,0,0,0,0,0,0,0,0,0,0,0,0,0,0,0,0,0,0,0,0,0,0,0,0,0,0,0,0,0,0,0,0,0,0,0,0,0,0,0,0,0,0,0,0,0,0,0,0,0,0,0,0,0,0,0,0,0,0,0,0,0,0,0,0,0,0,0,0,0,0,0,0,0,0,0,0,0,0,0,0,0,0,0,0,0,0,0,0,0,0,0,0,0,0,0,0,0,0,0,0,0,0,0,0,0,0,0,0,0,0,0,0,0,0,0,0,0,0,0,0,0,0,0,0,0,0,0,0,0,0,0,0,0,0,0,0,0,0,0,0,0,0,0,0,0,0,0,0,0,0,
0,0,0,0,0,0,0,0,0,0,0,0,0,0,0,0,0,0,0,0,0,0,0,0,0,0,0,0,0,0,0,0,0,0,0,0,0,0,0,0,0,0,0,0,0,0,0,0,0,0,0,0,0,0,0,0,0,0,0,0,0,0,0,0,0,0,0,0,0,0,0,0,0,0,0,0,0,0,0,0,0,0,0,0,0,0,0,0,0,0,0,0,0,0,0,0,0,0,0,0,0,0,0,0,0,0,0,0,0,0,0,0,0,0,0,0,0,0,0,0,0,0,0,0,0,0,0,0,0,0,0,0,0,0,0,0,0,0,0,0,0,0,0,0,0,0,0,0,0,0,0,0,0,0,0,0,0,0,0,0,0,0,0,0,0,0,0,0,0,0,0,0,0,0,0,0,0,0,0,0,0,0,0,0,0,0,0,0,0,0,0,0,0,0,0,0,0,0,0,0,0,0,0,0,0,0,0,0,0,0,0,0,0,0,0,0,0,0,0,0,0,0,0,0,0,0,0,0,0,0,0,0,0,0,0,0,0,0,0,0,0,0,0,0,0,0,0,0,0,0,0,0,0,0,0,0,
0,0,0,0,0,0,0,0,0,0,0,0,0,0,0,0,0,0,0,0,0,0,0,0,0,0,0,0,0,0,0,0,0,0,0,0,0,0,0,0,0,0,0,0,0,0,0,0,0,0,0,0,0,0,0,0,0,0,0,0,0,0,0,0,0,0,0,0,0,0,0,0,0,0,0,0,0,0,0,0,0,0,0,0,0,0,0,0,0,0,0,0,0,0,0,0,0,0,0,0,0,0,0,0,0,0,0,0,0,0,0,0,0,0,0,0,0,0,0,0,0,0,0,0,0,0,0,0,0,0,0,0,0,0,0,0,0,0,0,0,0,0,0,0,0,0,0,0,0,0,0,0,0,0,0,0,0,0,0,0,0,0,0,0,0,0,0,0,0,0,0,0,0,0,0,0,0,0,0,0,0,0,0,0,0,0,0,0,0,0,0,0,0,0,0,0,0,0,0,0,0,0,0,0,0,0,0,0,0,0,0,0,0,0,0,0,0,0,0,0,0,0,0,0,0,0,0,0,0,0,0,0,0,0,0,0,0,0,0,0,0,0,0,0,0,0,0,0,0,0,0,0,0,0,0,0,
0,0,0,0,0,0,0,0,0,0,0,0,0,0,0,0,0,0,0,0,0,0,0,0,0,0,0,0,0,0,0,0,0,0,0,0,0,0,0,0,0,0,0,0,0,0,0,0,0,0,0,0,0,0,0,0,0,0,0,0,0,0,0,0,0,0,0,0,0,0,0,0,0,0,0,0,0,0,0,0,0,0,0,0,0,0,0,0,0,0,0,0,0,0,0,0,0,0,0,0,0,0,0,0,0,0,0,0,0,0,0,0,0,0,0,0,0,0,0,0,0,0,0,0,0,0,0,0,0,0,0,0,0,0,0,0,0,0,0,0,0,0,0,0,0,0,0,0,0,0,0,0,0,0,0,0,0,0,0,0,0,0,0,0,0,0,0,0,0,0,0,0,0,0,0,0,0,0,0,0,0,0,0,0,0,0,0,0,0,0,0,0,0,0,0,0,0,0,0,0,0,0,0,0,0,0,0,0,0,0,0,0,0,0,0,0,0,0,0,0,0,0,0,0,0,0,0,0,0,0,0,0,0,0,0,0,0,0,0,0,0,0,0,0,0,0,0,0,0,0,0,0,0,0,0,0,
0,0,0,0,0,0,0,0,0,0,0,0,0,0,0,0,0,0,0,0,0,0,0,0,0,0,0,0,0,0,0,0,0,0,0,0,0,0,0,0,0,0,0,0,0,0,0,0,0,0,0,0,0,0,0,0,0,0,0,0,0,0,0,0,0,0,0,0,0,0,0,0,0,0,0,0,0,0,0,0,0,0,0,0,0,0,0,0,0,0,0,0,0,0,0,0,0,0,0,0,0,0,0,0,0,0,0,0,0,0,0,0,0,0,0,0,0,0,0,0,0,0,0,0,0,0,0,0,0,0,0,0,0,0,0,0,0,0,0,0,0,0,0,0,0,0,0,0,0,0,0,0,0,0,0,0,0,0,0,0,0,0,0,0,0,0,0,0,0,0,0,0,0,0,0,0,0,0,0,0,0,0,0,0,0,0,0,0,0,0,0,0,0,0,0,0,0,0,0,0,0,0,0,0,0,0,0,0,0,0,0,0,0,0,0,0,0,0,0,0,0,0,0,0,0,0,0,0,0,0,0,0,0,0,0,0,0,0,0,0,0,0,0,0,0,0,0,0,0,0,0,0,0,0,0,0,
0,0,0,0,0,0,0,0,0,0,0,0,0,0,0,0,0,0,0,0,0,0,0,0,0,0,0,0,0,0,0,0,0,0,0,0,0,0,0,0,0,0,0,0,0,0,0,0,0,0,0,0,0,0,0,0,0,0,0,0,0,0,0,0,0,0,0,0,0,0,0,0,0,0,0,0,0,0,0,0,0,0,0,0,0,0,0,0,0,0,0,0,0,0,0,0,0,0,0,0,0,0,0,0,0,0,0,0,0,0,0,0,0,0,0,0,0,0,0,0,0,0,0,0,0,0,0,0,0,0,0,0,0,0,0,0,0,0,0,0,0,0,0,0,0,0,0,0,0,0,0,0,0,0,0,0,0,0,0,0,0,0,0,0,0,0,0,0,0,0,0,0,0,0,0,0,0,0,0,0,0,0,0,0,0,0,0,0,0,0,0,0,0,0,0,0,0,0,0,0,0,0,0,0,0,0,0,0,0,0,0,0,0,0,0,0,0,0,0,0,0,0,0,0,0,0,0,0,0,0,0,0,0,0,0,0,0,0,0,0,0,0,0,0,0,0,0,0,0,0,0,0,0,0,0,0,
0,0,0,0,0,0,0,0,0,0,0,0,0,0,0,0,0,0,0,0,0,0,0,0,0,0,0,0,0,0,0,0,0,0,0,0,0,0,0,0,0,0,0,0,0,0,0,0,0,0,0,0,0,0,0,0,0,0,0,0,0,0,0,0,0,0,0,0,0,0,0,0,0,0,0,0,0,0,0,0,0,0,0,0,0,0,0,0,0,0,0,0,0,0,0,0,0,0,0,0,0,0,0,0,0,0,0,0,0,0,0,0,0,0,0,0,0,0,0,0,0,0,0,0,0,0,0,0,0,0,0,0,0,0,0,0,0,0,0,0,0,0,0,0,0,0,0,0,0,0,0,0,0,0,0,0,0,0,0,0,0,0,0,0,0,0,0,0,0,0,0,0,0,0,0,0,0,0,0,0,0,0,0,0,0,0,0,0,0,0,0,0,0,0,0,0,0,0,0,0,0,0,0,0,0,0,0,0,0,0,0,0,0,0,0,0,0,0,0,0,0,0,0,0,0,0,0,0,0,0,0,0,0,0,0,0,0,0,0,0,0,0,0,0,0,0,0,0,0,0,0,0,0,0,0,0,
0,0,0,0,0,0,0,0,0,0,0,0,0,0,0,0,0,0,0,0,0,0,0,0,0,0,0,0,0,0,0,0,0,0,0,0,0,0,0,0,0,0,0,0,0,0,0,0,0,0,0,0,0,0,0,0,0,0,0,0,0,0,0,0,0,0,0,0,0,0,0,0,0,0,0,0,0,0,0,0,0,0,0,0,0,0,0,0,0,0,0,0,0,0,0,0,0,0,0,0,0,0,0,0,0,0,0,0,0,0,0,0,0,0,0,0,0,0,0,0,0,0,0,0,0,0,0,0,0,0,0,0,0,0,0,0,0,0,0,0,0,0,0,0,0,0,0,0,0,0,0,0,0,0,0,0,0,0,0,0,0,0,0,0,0,0,0,0,0,0,0,0,0,0,0,0,0,0,0,0,0,0,0,0,0,0,0,0,0,0,0,0,0,0,0,0,0,0,0,0,0,0,0,0,0,0,0,0,0,0,0,0,0,0,0,0,0,0,0,0,0,0,0,0,0,0,0,0,0,0,0,0,0,0,0,0,0,0,0,0,0,0,0,0,0,0,0,0,0,0,0,0,0,0,0,0,
0,0,0,0,0,0,0,0,0,0,0,0,0,0,0,0,0,0,0,0,0,0,0,0,0,0,0,0,0,0,0,0,0,0,0,0,0,0,0,0,0,0,0,0,0,0,0,0,0,0,0,0,0,0,0,0,0,0,0,0,0,0,0,0,0,0,0,0,0,0,0,0,0,0,0,0,0,0,0,0,0,0,0,0,0,0,0,0,0,0,0,0,0,0,0,0,0,0,0,0,0,0,0,0,0,0,0,0,0,0,0,0,0,0,0,0,0,0,0,0,0,0,0,0,0,0,0,0,0,0,0,0,0,0,0,0,0,0,0,0,0,0,0,0,0,0,0,0,0,0,0,0,0,0,0,0,0,0,0,0,0,0,0,0,0,0,0,0,0,0,0,0,0,0,0,0,0,0,0,0,0,0,0,0,0,0,0,0,0,0,0,0,0,0,0,0,0,0,0,0,0,0,0,0,0,0,0,0,0,0,0,0,0,0,0,0,0,0,0,0,0,0,0,0,0,0,0,0,0,0,0,0,0,0,0,0,0,0,0,0,0,0,0,0,0,0,0,0,0,0,0,0,0,0,0,0,
0,0,0,0,0,0,0,0,0,0,0,0,0,0,0,0,0,0,0,0,0,0,0,0,0,0,0,0,0,0,0,0,0,0,0,0,0,0,0,0,0,0,0,0,0,0,0,0,0,0,0,0,0,0,0,0,0,0,0,0,0,0,0,0,0,0,0,0,0,0,0,0,0,0,0,0,0,0,0,0,0,0,0,0,0,0,0,0,0,0,0,0,0,0,0,0,0,0,0,0,0,0,0,0,0,0,0,0,0,0,0,0,0,0,0,0,0,0,0,0,0,0,0,0,0,0,0,0,0,0,0,0,0,0,0,0,0,0,0,0,0,0,0,0,0,0,0,0,0,0,0,0,0,0,0,0,0,0,0,0,0,0,0,0,0,0,0,0,0,0,0,0,0,0,0,0,0,0,0,0,0,0,0,0,0,0,0,0,0,0,0,0,0,0,0,0,0,0,0,0,0,0,0,0,0,0,0,0,0,0,0,0,0,0,0,0,0,0,0,0,0,0,0,0,0,0,0,0,0,0,0,0,0,0,0,0,0,0,0,0,0,0,0,0,0,0,0,0,0,0,0,0,0,0,0,0,
0,0,0,0,0,0,0,0,0,0,0,0,0,0,0,0,0,0,0,0,0,0,0,0,0,0,0,0,0,0,0,0,0,0,0,0,0,0,0,0,0,0,0,0,0,0,0,0,0,0,0,0,0,0,0,0,0,0,0,0,0,0,0,0,0,0,0,0,0,0,0,0,0,0,0,0,0,0,0,0,0,0,0,0,0,0,0,0,0,0,0,0,0,0,0,0,0,0,0,0,0,0,0,0,0,0,0,0,0,0,0,0,0,0,0,0,0,0,0,0,0,0,0,0,0,0,0,0,0,0,0,0,0,0,0,0,0,0,0,0,0,0,0,0,0,0,0,0,0,0,0,0,0,0,0,0,0,0,0,0,0,0,0,0,0,0,0,0,0,0,0,0,0,0,0,0,0,0,0,0,0,0,0,0,0,0,0,0,0,0,0,0,0,0,0,0,0,0,0,0,0,0,0,0,0,0,0,0,0,0,0,0,0,0,0,0,0,0,0,0,0,0,0,0,0,0,0,0,0,0,0,0,0,0,0,0,0,0,0,0,0,0,0,0,0,0,0,0,0,0,0,0,0,0,0,0,
0,0,0,0,0,0,0,0,0,0,0,0,0,0,0,0,0,0,0,0,0,0,0,0,0,0,0,0,0,0,0,0,0,0,0,0,0,0,0,0,0,0,0,0,0,0,0,0,0,0,0,0,0,0,0,0,0,0,0,0,0,0,0,0,0,0,0,0,0,0,0,0,0,0,0,0,0,0,0,0,0,0,0,0,0,0,0,0,0,0,0,0,0,0,0,0,0,0,0,0,0,0,0,0,0,0,0,0,0,0,0,0,0,0,0,0,0,0,0,0,0,0,0,0,0,0,0,0,0,0,0,0,0,0,0,0,0,0,0,0,0,0,0,0,0,0,0,0,0,0,0,0,0,0,0,0,0,0,0,0,0,0,0,0,0,0,0,0,0,0,0,0,0,0,0,0,0,0,0,0,0,0,0,0,0,0,0,0,0,0,0,0,0,0,0,0,0,0,0,0,0,0,0,0,0,0,0,0,0,0,0,0,0,0,0,0,0,0,0,0,0,0,0,0,0,0,0,0,0,0,0,0,0,0,0,0,0,0,0,0,0,0,0,0,0,0,0,0,0,0,0,0,0,0,0,0,
0,0,0,0,0,0,0,0,0,0,0,0,0,0,0,0,0,0,0,0,0,0,0,0,0,0,0,0,0,0,0,0,0,0,0,0,0,0,0,0,0,0,0,0,0,0,0,0,0,0,0,0,0,0,0,0,0,0,0,0,0,0,0,0,0,0,0,0,0,0,0,0,0,0,0,0,0,0,0,0,0,0,0,0,0,0,0,0,0,0,0,0,0,0,0,0,0,0,0,0,0,0,0,0,0,0,0,0,0,0,0,0,0,0,0,0,0,0,0,0,0,0,0,0,0,0,0,0,0,0,0,0,0,0,0,0,0,0,0,0,0,0,0,0,0,0,0,0,0,0,0,0,0,0,0,0,0,0,0,0,0,0,0,0,0,0,0,0,0,0,0,0,0,0,0,0,0,0,0,0,0,0,0,0,0,0,0,0,0,0,0,0,0,0,0,0,0,0,0,0,0,0,0,0,0,0,0,0,0,0,0,0,0,0,0,0,0,0,0,0,0,0,0,0,0,0,0,0,0,0,0,0,0,0,0,0,0,0,0,0,0,0,0,0,0,0,0,0,0,0,0,0,0,0,0,0,
0,0,0,0,0,0,0,0,0,0,0,0,0,0,0,0,0,0,0,0,0,0,0,0,0,0,0,0,0,0,0,0,0,0,0,0,0,0,0,0,0,0,0,0,0,0,0,0,0,0,0,0,0,0,0,0,0,0,0,0,0,0,0,0,0,0,0,0,0,0,0,0,0,0,0,0,0,0,0,0,0,0,0,0,0,0,0,0,0,0,0,0,0,0,0,0,0,0,0,0,0,0,0,0,0,0,0,0,0,0,0,0,0,0,0,0,0,0,0,0,0,0,0,0,0,0,0,0,0,0,0,0,0,0,0,0,0,0,0,0,0,0,0,0,0,0,0,0,0,0,0,0,0,0,0,0,0,0,0,0,0,0,0,0,0,0,0,0,0,0,0,0,0,0,0,0,0,0,0,0,0,0,0,0,0,0,0,0,0,0,0,0,0,0,0,0,0,0,0,0,0,0,0,0,0,0,0,0,0,0,0,0,0,0,0,0,0,0,0,0,0,0,0,0,0,0,0,0,0,0,0,0,0,0,0,0,0,0,0,0,0,0,0,0,0,0,0,0,0,0,0,0,0,0,0,0,
0,0,0,0,0,0,0,0,0,0,0,0,0,0,0,0,0,0,0,0,0,0,0,0,0,0,0,0,0,0,0,0,0,0,0,0,0,0,0,0,0,0,0,0,0,0,0,0,0,0,0,0,0,0,0,0,0,0,0,0,0,0,0,0,0,0,0,0,0,0,0,0,0,0,0,0,0,0,0,0,0,0,0,0,0,0,0,0,0,0,0,0,0,0,0,0,0,0,0,0,0,0,0,0,0,0,0,0,0,0,0,0,0,0,0,0,0,0,0,0,0,0,0,0,0,0,0,0,0,0,0,0,0,0,0,0,0,0,0,0,0,0,0,0,0,0,0,0,0,0,0,0,0,0,0,0,0,0,0,0,0,0,0,0,0,0,0,0,0,0,0,0,0,0,0,0,0,0,0,0,0,0,0,0,0,0,0,0,0,0,0,0,0,0,0,0,0,0,0,0,0,0,0,0,0,0,0,0,0,0,0,0,0,0,0,0,0,0,0,0,0,0,0,0,0,0,0,0,0,0,0,0,0,0,0,0,0,0,0,0,0,0,0,0,0,0,0,0,0,0,0,0,0,0,0,0,
0,0,0,0,0,0,0,0,0,0,0,0,0,0,0,0,0,0,0,0,0,0,0,0,0,0,0,0,0,0,0,0,0,0,0,0,0,0,0,0,0,0,0,0,0,0,0,0,0,0,0,0,0,0,0,0,0,0,0,0,0,0,0,0,0,0,0,0,0,0,0,0,0,0,0,0,0,0,0,0,0,0,0,0,0,0,0,0,0,0,0,0,0,0,0,0,0,0,0,0,0,0,0,0,0,0,0,0,0,0,0,0,0,0,0,0,0,0,0,0,0,0,0,0,0,0,0,0,0,0,0,0,0,0,0,0,0,0,0,0,0,0,0,0,0,0,0,0,0,0,0,0,0,0,0,0,0,0,0,0,0,0,0,0,0,0,0,0,0,0,0,0,0,0,0,0,0,0,0,0,0,0,0,0,0,0,0,0,0,0,0,0,0,0,0,0,0,0,0,0,0,0,0,0,0,0,0,0,0,0,0,0,0,0,0,0,0,0,0,0,0,0,0,0,0,0,0,0,0,0,0,0,0,0,0,0,0,0,0,0,0,0,0,0,0,0,0,0,0,0,0,0,0,0,0,0,
0,0,0,0,0,0,0,0,0,0,0,0,0,0,0,0,0,0,0,0,0,0,0,0,0,0,0,0,0,0,0,0,0,0,0,0,0,0,0,0,0,0,0,0,0,0,0,0,0,0,0,0,0,0,0,0,0,0,0,0,0,0,0,0,0,0,0,0,0,0,0,0,0,0,0,0,0,0,0,0,0,0,0,0,0,0,0,0,0,0,0,0,0,0,0,0,0,0,0,0,0,0,0,0,0,0,0,0,0,0,0,0,0,0,0,0,0,0,0,0,0,0,0,0,0,0,0,0,0,0,0,0,0,0,0,0,0,0,0,0,0,0,0,0,0,0,0,0,0,0,0,0,0,0,0,0,0,0,0,0,0,0,0,0,0,0,0,0,0,0,0,0,0,0,0,0,0,0,0,0,0,0,0,0,0,0,0,0,0,0,0,0,0,0,0,0,0,0,0,0,0,0,0,0,0,0,0,0,0,0,0,0,0,0,0,0,0,0,0,0,0,0,0,0,0,0,0,0,0,0,0,0,0,0,0,0,0,0,0,0,0,0,0,0,0,0,0,0,0,0,0,0,0,0,0,0,
0,0,0,0,0,0,0,0,0,0,0,0,0,0,0,0,0,0,0,0,0,0,0,0,0,0,0,0,0,0,0,0,0,0,0,0,0,0,0,0,0,0,0,0,0,0,0,0,0,0,0,0,0,0,0,0,0,0,0,0,0,0,0,0,0,0,0,0,0,0,0,0,0,0,0,0,0,0,0,0,0,0,0,0,0,0,0,0,0,0,0,0,0,0,0,0,0,0,0,0,0,0,0,0,0,0,0,0,0,0,0,0,0,0,0,0,0,0,0,0,0,0,0,0,0,0,0,0,0,0,0,0,0,0,0,0,0,0,0,0,0,0,0,0,0,0,0,0,0,0,0,0,0,0,0,0,0,0,0,0,0,0,0,0,0,0,0,0,0,0,0,0,0,0,0,0,0,0,0,0,0,0,0,0,0,0,0,0,0,0,0,0,0,0,0,0,0,0,0,0,0,0,0,0,0,0,0,0,0,0,0,0,0,0,0,0,0,0,0,0,0,0,0,0,0,0,0,0,0,0,0,0,0,0,0,0,0,0,0,0,0,0,0,0,0,0,0,0,0,0,0,0,0,0,0,0,
0,0,0,0,0,0,0,0,0,0,0,0,0,0,0,0,0,0,0,0,0,0,0,0,0,0,0,0,0,0,0,0,0,0,0,0,0,0,0,0,0,0,0,0,0,0,0,0,0,0,0,0,0,0,0,0,0,0,0,0,0,0,0,0,0,0,0,0,0,0,0,0,0,0,0,0,0,0,0,0,0,0,0,0,0,0,0,0,0,0,0,0,0,0,0,0,0,0,0,0,0,0,0,0,0,0,0,0,0,0,0,0,0,0,0,0,0,0,0,0,0,0,0,0,0,0,0,0,0,0,0,0,0,0,0,0,0,0,0,0,0,0,0,0,0,0,0,0,0,0,0,0,0,0,0,0,0,0,0,0,0,0,0,0,0,0,0,0,0,0,0,0,0,0,0,0,0,0,0,0,0,0,0,0,0,0,0,0,0,0,0,0,0,0,0,0,0,0,0,0,0,0,0,0,0,0,0,0,0,0,0,0,0,0,0,0,0,0,0,0,0,0,0,0,0,0,0,0,0,0,0,0,0,0,0,0,0,0,0,0,0,0,0,0,0,0,0,0,0,0,0,0,0,0,0,0,
0,0,0,0,0,0,0,0,0,0,0,0,0,0,0,0,0,0,0,0,0,0,0,0,0,0,0,0,0,0,0,0,0,0,0,0,0,0,0,0,0,0,0,0,0,0,0,0,0,0,0,0,0,0,0,0,0,0,0,0,0,0,0,0,0,0,0,0,0,0,0,0,0,0,0,0,0,0,0,0,0,0,0,0,0,0,0,0,0,0,0,0,0,0,0,0,0,0,0,0,0,0,0,0,0,0,0,0,0,0,0,0,0,0,0,0,0,0,0,0,0,0,0,0,0,0,0,0,0,0,0,0,0,0,0,0,0,0,0,0,0,0,0,0,0,0,0,0,0,0,0,0,0,0,0,0,0,0,0,0,0,0,0,0,0,0,0,0,0,0,0,0,0,0,0,0,0,0,0,0,0,0,0,0,0,0,0,0,0,0,0,0,0,0,0,0,0,0,0,0,0,0,0,0,0,0,0,0,0,0,0,0,0,0,0,0,0,0,0,0,0,0,0,0,0,0,0,0,0,0,0,0,0,0,0,0,0,0,0,0,0,0,0,0,0,0,0,0,0,0,0,0,0,0,0,0,
0,0,0,0,0,0,0,0,0,0,0,0,0,0,0,0,0,0,0,0,0,0,0,0,0,0,0,0,0,0,0,0,0,0,0,0,0,0,0,0,0,0,0,0,0,0,0,0,0,0,0,0,0,0,0,0,0,0,0,0,0,0,0,0,0,0,0,0,0,0,0,0,0,0,0,0,0,0,0,0,0,0,0,0,0,0,0,0,0,0,0,0,0,0,0,0,0,0,0,0,0,0,0,0,0,0,0,0,0,0,0,0,0,0,0,0,0,0,0,0,0,0,0,0,0,0,0,0,0,0,0,0,0,0,0,0,0,0,0,0,0,0,0,0,0,0,0,0,0,0,0,0,0,0,0,0,0,0,0,0,0,0,0,0,0,0,0,0,0,0,0,0,0,0,0,0,0,0,0,0,0,0,0,0,0,0,0,0,0,0,0,0,0,0,0,0,0,0,0,0,0,0,0,0,0,0,0,0,0,0,0,0,0,0,0,0,0,0,0,0,0,0,0,0,0,0,0,0,0,0,0,0,0,0,0,0,0,0,0,0,0,0,0,0,0,0,0,0,0,0,0,0,0,0,0,0,
0,0,0,0,0,0,0,0,0,0,0,0,0,0,0,0,0,0,0,0,0,0,0,0,0,0,0,0,0,0,0,0,0,0,0,0,0,0,0,0,0,0,0,0,0,0,0,0,0,0,0,0,0,0,0,0,0,0,0,0,0,0,0,0,0,0,0,0,0,0,0,0,0,0,0,0,0,0,0,0,0,0,0,0,0,0,0,0,0,0,0,0,0,0,0,0,0,0,0,0,0,0,0,0,0,0,0,0,0,0,0,0,0,0,0,0,0,0,0,0,0,0,0,0,0,0,0,0,0,0,0,0,0,0,0,0,0,0,0,0,0,0,0,0,0,0,0,0,0,0,0,0,0,0,0,0,0,0,0,0,0,0,0,0,0,0,0,0,0,0,0,0,0,0,0,0,0,0,0,0,0,0,0,0,0,0,0,0,0,0,0,0,0,0,0,0,0,0,0,0,0,0,0,0,0,0,0,0,0,0,0,0,0,0,0,0,0,0,0,0,0,0,0,0,0,0,0,0,0,0,0,0,0,0,0,0,0,0,0,0,0,0,0,0,0,0,0,0,0,0,0,0,0,0,0,0,
0,0,0,0,0,0,0,0,0,0,0,0,0,0,0,0,0,0,0,0,0,0,0,0,0,0,0,0,0,0,0,0,0,0,0,0,0,0,0,0,0,0,0,0,0,0,0,0,0,0,0,0,0,0,0,0,0,0,0,0,0,0,0,0,0,0,0,0,0,0,0,0,0,0,0,0,0,0,0,0,0,0,0,0,0,0,0,0,0,0,0,0,0,0,0,0,0,0,0,0,0,0,0,0,0,0,0,0,0,0,0,0,0,0,0,0,0,0,0,0,0,0,0,0,0,0,0,0,0,0,0,0,0,0,0,0,0,0,0,0,0,0,0,0,0,0,0,0,0,0,0,0,0,0,0,0,0,0,0,0,0,0,0,0,0,0,0,0,0,0,0,0,0,0,0,0,0,0,0,0,0,0,0,0,0,0,0,0,0,0,0,0,0,0,0,0,0,0,0,0,0,0,0,0,0,0,0,0,0,0,0,0,0,0,0,0,0,0,0,0,0,0,0,0,0,0,0,0,0,0,0,0,0,0,0,0,0,0,0,0,0,0,0,0,0,0,0,0,0,0,0,0,0,0,0,0,
0,0,0,0,0,0,0,0,0,0,0,0,0,0,0,0,0,0,0,0,0,0,0,0,0,0,0,0,0,0,0,0,0,0,0,0,0,0,0,0,0,0,0,0,0,0,0,0,0,0,0,0,0,0,0,0,0,0,0,0,0,0,0,0,0,0,0,0,0,0,0,0,0,0,0,0,0,0,0,0,0,0,0,0,0,0,0,0,0,0,0,0,0,0,0,0,0,0,0,0,0,0,0,0,0,0,0,0,0,0,0,0,0,0,0,0,0,0,0,0,0,0,0,0,0,0,0,0,0,0,0,0,0,0,0,0,0,0,0,0,0,0,0,0,0,0,0,0,0,0,0,0,0,0,0,0,0,0,0,0,0,0,0,0,0,0,0,0,0,0,0,0,0,0,0,0,0,0,0,0,0,0,0,0,0,0,0,0,0,0,0,0,0,0,0,0,0,0,0,0,0,0,0,0,0,0,0,0,0,0,0,0,0,0,0,0,0,0,0,0,0,0,0,0,0,0,0,0,0,0,0,0,0,0,0,0,0,0,0,0,0,0,0,0,0,0,0,0,0,0,0,0,0,0,0,0,
0,0,0,0,0,0,0,0,0,0,0,0,0,0,0,0,0,0,0,0,0,0,0,0,0,0,0,0,0,0,0,0,0,0,0,0,0,0,0,0,0,0,0,0,0,0,0,0,0,0,0,0,0,0,0,0,0,0,0,0,0,0,0,0,0,0,0,0,0,0,0,0,0,0,0,0,0,0,0,0,0,0,0,0,0,0,0,0,0,0,0,0,0,0,0,0,0,0,0,0,0,0,0,0,0,0,0,0,0,0,0,0,0,0,0,0,0,0,0,0,0,0,0,0,0,0,0,0,0,0,0,0,0,0,0,0,0,0,0,0,0,0,0,0,0,0,0,0,0,0,0,0,0,0,0,0,0,0,0,0,0,0,0,0,0,0,0,0,0,0,0,0,0,0,0,0,0,0,0,0,0,0,0,0,0,0,0,0,0,0,0,0,0,0,0,0,0,0,0,0,0,0,0,0,0,0,0,0,0,0,0,0,0,0,0,0,0,0,0,0,0,0,0,0,0,0,0,0,0,0,0,0,0,0,0,0,0,0,0,0,0,0,0,0,0,0,0,0,0,0,0,0,0,0,0,0,
0,0,0,0,0,0,0,0,0,0,0,0,0,0,0,0,0,0,0,0,0,0,0,0,0,0,0,0,0,0,0,0,0,0,0,0,0,0,0,0,0,0,0,0,0,0,0,0,0,0,0,0,0,0,0,0,0,0,0,0,0,0,0,0,0,0,0,0,0,0,0,0,0,0,0,0,0,0,0,0,0,0,0,0,0,0,0,0,0,0,0,0,0,0,0,0,0,0,0,0,0,0,0,0,0,0,0,0,0,0,0,0,0,0,0,0,0,0,0,0,0,0,0,0,0,0,0,0,0,0,0,0,0,0,0,0,0,0,0,0,0,0,0,0,0,0,0,0,0,0,0,0,0,0,0,0,0,0,0,0,0,0,0,0,0,0,0,0,0,0,0,0,0,0,0,0,0,0,0,0,0,0,0,0,0,0,0,0,0,0,0,0,0,0,0,0,0,0,0,0,0,0,0,0,0,0,0,0,0,0,0,0,0,0,0,0,0,0,0,0,0,0,0,0,0,0,0,0,0,0,0,0,0,0,0,0,0,0,0,0,0,0,0,0,0,0,0,0,0,0,0,0,0,0,0,0,
0,0,0,0,0,0,0,0,0,0,0,0,0,0,0,0,0,0,0,0,0,0,0,0,0,0,0,0,0,0,0,0,0,0,0,0,0,0,0,0,0,0,0,0,0,0,0,0,0,0,0,0,0,0,0,0,0,0,0,0,0,0,0,0,0,0,0,0,0,0,0,0,0,0,0,0,0,0,0,0,0,0,0,0,0,0,0,0,0,0,0,0,0,0,0,0,0,0,0,0,0,0,0,0,0,0,0,0,0,0,0,0,0,0,0,0,0,0,0,0,0,0,0,0,0,0,0,0,0,0,0,0,0,0,0,0,0,0,0,0,0,0,0,0,0,0,0,0,0,0,0,0,0,0,0,0,0,0,0,0,0,0,0,0,0,0,0,0,0,0,0,0,0,0,0,0,0,0,0,0,0,0,0,0,0,0,0,0,0,0,0,0,0,0,0,0,0,0,0,0,0,0,0,0,0,0,0,0,0,0,0,0,0,0,0,0,0,0,0,0,0,0,0,0,0,0,0,0,0,0,0,0,0,0,0,0,0,0,0,0,0,0,0,0,0,0,0,0,0,0,0,0,0,0,0,0,
0,0,0,0,0,0,0,0,0,0,0,0,0,0,0,0,0,0,0,0,0,0,0,0,0,0,0,0,0,0,0,0,0,0,0,0,0,0,0,0,0,0,0,0,0,0,0,0,0,0,0,0,0,0,0,0,0,0,0,0,0,0,0,0,0,0,0,0,0,0,0,0,0,0,0,0,0,0,0,0,0,0,0,0,0,0,0,0,0,0,0,0,0,0,0,0,0,0,0,0,0,0,0,0,0,0,0,0,0,0,0,0,0,0,0,0,0,0,0,0,0,0,0,0,0,0,0,0,0,0,0,0,0,0,0,0,0,0,0,0,0,0,0,0,0,0,0,0,0,0,0,0,0,0,0,0,0,0,0,0,0,0,0,0,0,0,0,0,0,0,0,0,0,0,0,0,0,0,0,0,0,0,0,0,0,0,0,0,0,0,0,0,0,0,0,0,0,0,0,0,0,0,0,0,0,0,0,0,0,0,0,0,0,0,0,0,0,0,0,0,0,0,0,0,0,0,0,0,0,0,0,0,0,0,0,0,0,0,0,0,0,0,0,0,0,0,0,0,0,0,0,0,0,0,0,0,
0,0,0,0,0,0,0,0,0,0,0,0,0,0,0,0,0,0,0,0,0,0,0,0,0,0,0,0,0,0,0,0,0,0,0,0,0,0,0,0,0,0,0,0,0,0,0,0,0,0,0,0,0,0,0,0,0,0,0,0,0,0,0,0,0,0,0,0,0,0,0,0,0,0,0,0,0,0,0,0,0,0,0,0,0,0,0,0,0,0,0,0,0,0,0,0,0,0,0,0,0,0,0,0,0,0,0,0,0,0,0,0,0,0,0,0,0,0,0,0,0,0,0,0,0,0,0,0,0,0,0,0,0,0,0,0,0,0,0,0,0,0,0,0,0,0,0,0,0,0,0,0,0,0,0,0,0,0,0,0,0,0,0,0,0,0,0,0,0,0,0,0,0,0,0,0,0,0,0,0,0,0,0,0,0,0,0,0,0,0,0,0,0,0,0,0,0,0,0,0,0,0,0,0,0,0,0,0,0,0,0,0,0,0,0,0,0,0,0,0,0,0,0,0,0,0,0,0,0,0,0,0,0,0,0,0,0,0,0,0,0,0,0,0,0,0,0,0,0,0,0,0,0,0,0,0,
0,0,0,0,0,0,0,0,0,0,0,0,0,0,0,0,0,0,0,0,0,0,0,0,0,0,0,0,0,0,0,0,0,0,0,0,0,0,0,0,0,0,0,0,0,0,0,0,0,0,0,0,0,0,0,0,0,0,0,0,0,0,0,0,0,0,0,0,0,0,0,0,0,0,0,0,0,0,0,0,0,0,0,0,0,0,0,0,0,0,0,0,0,0,0,0,0,0,0,0,0,0,0,0,0,0,0,0,0,0,0,0,0,0,0,0,0,0,0,0,0,0,0,0,0,0,0,0,0,0,0,0,0,0,0,0,0,0,0,0,0,0,0,0,0,0,0,0,0,0,0,0,0,0,0,0,0,0,0,0,0,0,0,0,0,0,0,0,0,0,0,0,0,0,0,0,0,0,0,0,0,0,0,0,0,0,0,0,0,0,0,0,0,0,0,0,0,0,0,0,0,0,0,0,0,0,0,0,0,0,0,0,0,0,0,0,0,0,0,0,0,0,0,0,0,0,0,0,0,0,0,0,0,0,0,0,0,0,0,0,0,0,0,0,0,0,0,0,0,0,0,0,0,0,0,0,
0,0,0,0,0,0,0,0,0,0,0,0,0,0,0,0,0,0,0,0,0,0,0,0,0,0,0,0,0,0,0,0,0,0,0,0,0,0,0,0,0,0,0,0,0,0,0,0,0,0,0,0,0,0,0,0,0,0,0,0,0,0,0,0,0,0,0,0,0,0,0,0,0,0,0,0,0,0,0,0,0,0,0,0,0,0,0,0,0,0,0,0,0,0,0,0,0,0,0,0,0,0,0,0,0,0,0,0,0,0,0,0,0,0,0,0,0,0,0,0,0,0,0,0,0,0,0,0,0,0,0,0,0,0,0,0,0,0,0,0,0,0,0,0,0,0,0,0,0,0,0,0,0,0,0,0,0,0,0,0,0,0,0,0,0,0,0,0,0,0,0,0,0,0,0,0,0,0,0,0,0,0,0,0,0,0,0,0,0,0,0,0,0,0,0,0,0,0,0,0,0,0,0,0,0,0,0,0,0,0,0,0,0,0,0,0,0,0,0,0,0,0,0,0,0,0,0,0,0,0,0,0,0,0,0,0,0,0,0,0,0,0,0,0,0,0,0,0,0,0,0,0,0,0,0,0,
0,0,0,0,0,0,0,0,0,0,0,0,0,0,0,0,0,0,0,0,0,0,0,0,0,0,0,0,0,0,0,0,0,0,0,0,0,0,0,0,0,0,0,0,0,0,0,0,0,0,0,0,0,0,0,0,0,0,0,0,0,0,0,0,0,0,0,0,0,0,0,0,0,0,0,0,0,0,0,0,0,0,0,0,0,0,0,0,0,0,0,0,0,0,0,0,0,0,0,0,0,0,0,0,0,0,0,0,0,0,0,0,0,0,0,0,0,0,0,0,0,0,0,0,0,0,0,0,0,0,0,0,0,0,0,0,0,0,0,0,0,0,0,0,0,0,0,0,0,0,0,0,0,0,0,0,0,0,0,0,0,0,0,0,0,0,0,0,0,0,0,0,0,0,0,0,0,0,0,0,0,0,0,0,0,0,0,0,0,0,0,0,0,0,0,0,0,0,0,0,0,0,0,0,0,0,0,0,0,0,0,0,0,0,0,0,0,0,0,0,0,0,0,0,0,0,0,0,0,0,0,0,0,0,0,0,0,0,0,0,0,0,0,0,0,0,0,0,0,0,0,0,0,0,0,0,
0,0,0,0,0,0,0,0,0,0,0,0,0,0,0,0,0,0,0,0,0,0,0,0,0,0,0,0,0,0,0,0,0,0,0,0,0,0,0,0,0,0,0,0,0,0,0,0,0,0,0,0,0,0,0,0,0,0,0,0,0,0,0,0,0,0,0,0,0,0,0,0,0,0,0,0,0,0,0,0,0,0,0,0,0,0,0,0,0,0,0,0,0,0,0,0,0,0,0,0,0,0,0,0,0,0,0,0,0,0,0,0,0,0,0,0,0,0,0,0,0,0,0,0,0,0,0,0,0,0,0,0,0,0,0,0,0,0,0,0,0,0,0,0,0,0,0,0,0,0,0,0,0,0,0,0,0,0,0,0,0,0,0,0,0,0,0,0,0,0,0,0,0,0,0,0,0,0,0,0,0,0,0,0,0,0,0,0,0,0,0,0,0,0,0,0,0,0,0,0,0,0,0,0,0,0,0,0,0,0,0,0,0,0,0,0,0,0,0,0,0,0,0,0,0,0,0,0,0,0,0,0,0,0,0,0,0,0,0,0,0,0,0,0,0,0,0,0,0,0,0,0,0,0,0,0,
0,0,0,0,0,0,0,0,0,0,0,0,0,0,0,0,0,0,0,0,0,0,0,0,0,0,0,0,0,0,0,0,0,0,0,0,0,0,0,0,0,0,0,0,0,0,0,0,0,0,0,0,0,0,0,0,0,0,0,0,0,0,0,0,0,0,0,0,0,0,0,0,0,0,0,0,0,0,0,0,0,0,0,0,0,0,0,0,0,0,0,0,0,0,0,0,0,0,0,0,0,0,0,0,0,0,0,0,0,0,0,0,0,0,0,0,0,0,0,0,0,0,0,0,0,0,0,0,0,0,0,0,0,0,0,0,0,0,0,0,0,0,0,0,0,0,0,0,0,0,0,0,0,0,0,0,0,0,0,0,0,0,0,0,0,0,0,0,0,0,0,0,0,0,0,0,0,0,0,0,0,0,0,0,0,0,0,0,0,0,0,0,0,0,0,0,0,0,0,0,0,0,0,0,0,0,0,0,0,0,0,0,0,0,0,0,0,0,0,0,0,0,0,0,0,0,0,0,0,0,0,0,0,0,0,0,0,0,0,0,0,0,0,0,0,0,0,0,0,0,0,0,0,0,0,0,
0,0,0,0,0,0,0,0,0,0,0,0,0,0,0,0,0,0,0,0,0,0,0,0,0,0,0,0,0,0,0,0,0,0,0,0,0,0,0,0,0,0,0,0,0,0,0,0,0,0,0,0,0,0,0,0,0,0,0,0,0,0,0,0,0,0,0,0,0,0,0,0,0,0,0,0,0,0,0,0,0,0,0,0,0,0,0,0,0,0,0,0,0,0,0,0,0,0,0,0,0,0,0,0,0,0,0,0,0,0,0,0,0,0,0,0,0,0,0,0,0,0,0,0,0,0,0,0,0,0,0,0,0,0,0,0,0,0,0,0,0,0,0,0,0,0,0,0,0,0,0,0,0,0,0,0,0,0,0,0,0,0,0,0,0,0,0,0,0,0,0,0,0,0,0,0,0,0,0,0,0,0,0,0,0,0,0,0,0,0,0,0,0,0,0,0,0,0,0,0,0,0,0,0,0,0,0,0,0,0,0,0,0,0,0,0,0,0,0,0,0,0,0,0,0,0,0,0,0,0,0,0,0,0,0,0,0,0,0,0,0,0,0,0,0,0,0,0,0,0,0,0,0,0,0,0,
0,0,0,0,0,0,0,0,0,0,0,0,0,0,0,0,0,0,0,0,0,0,0,0,0,0,0,0,0,0,0,0,0,0,0,0,0,0,0,0,0,0,0,0,0,0,0,0,0,0,0,0,0,0,0,0,0,0,0,0,0,0,0,0,0,0,0,0,0,0,0,0,0,0,0,0,0,0,0,0,0,0,0,0,0,0,0,0,0,0,0,0,0,0,0,0,0,0,0,0,0,0,0,0,0,0,0,0,0,0,0,0,0,0,0,0,0,0,0,0,0,0,0,0,0,0,0,0,0,0,0,0,0,0,0,0,0,0,0,0,0,0,0,0,0,0,0,0,0,0,0,0,0,0,0,0,0,0,0,0,0,0,0,0,0,0,0,0,0,0,0,0,0,0,0,0,0,0,0,0,0,0,0,0,0,0,0,0,0,0,0,0,0,0,0,0,0,0,0,0,0,0,0,0,0,0,0,0,0,0,0,0,0,0,0,0,0,0,0,0,0,0,0,0,0,0,0,0,0,0,0,0,0,0,0,0,0,0,0,0,0,0,0,0,0,0,0,0,0,0,0,0,0,0,0,0,
0,0,0,0,0,0,0,0,0,0,0,0,0,0,0,0,0,0,0,0,0,0,0,0,0,0,0,0,0,0,0,0,0,0,0,0,0,0,0,0,0,0,0,0,0,0,0,0,0,0,0,0,0,0,0,0,0,0,0,0,0,0,0,0,0,0,0,0,0,0,0,0,0,0,0,0,0,0,0,0,0,0,0,0,0,0,0,0,0,0,0,0,0,0,0,0,0,0,0,0,0,0,0,0,0,0,0,0,0,0,0,0,0,0,0,0,0,0,0,0,0,0,0,0,0,0,0,0,0,0,0,0,0,0,0,0,0,0,0,0,0,0,0,0,0,0,0,0,0,0,0,0,0,0,0,0,0,0,0,0,0,0,0,0,0,0,0,0,0,0,0,0,0,0,0,0,0,0,0,0,0,0,0,0,0,0,0,0,0,0,0,0,0,0,0,0,0,0,0,0,0,0,0,0,0,0,0,0,0,0,0,0,0,0,0,0,0,0,0,0,0,0,0,0,0,0,0,0,0,0,0,0,0,0,0,0,0,0,0,0,0,0,0,0,0,0,0,0,0,0,0,0,0,0,0,0,
0,0,0,0,0,0,0,0,0,0,0,0,0,0,0,0,0,0,0,0,0,0,0,0,0,0,0,0,0,0,0,0,0,0,0,0,0,0,0,0,0,0,0,0,0,0,0,0,0,0,0,0,0,0,0,0,0,0,0,0,0,0,0,0,0,0,0,0,0,0,0,0,0,0,0,0,0,0,0,0,0,0,0,0,0,0,0,0,0,0,0,0,0,0,0,0,0,0,0,0,0,0,0,0,0,0,0,0,0,0,0,0,0,0,0,0,0,0,0,0,0,0,0,0,0,0,0,0,0,0,0,0,0,0,0,0,0,0,0,0,0,0,0,0,0,0,0,0,0,0,0,0,0,0,0,0,0,0,0,0,0,0,0,0,0,0,0,0,0,0,0,0,0,0,0,0,0,0,0,0,0,0,0,0,0,0,0,0,0,0,0,0,0,0,0,0,0,0,0,0,0,0,0,0,0,0,0,0,0,0,0,0,0,0,0,0,0,0,0,0,0,0,0,0,0,0,0,0,0,0,0,0,0,0,0,0,0,0,0,0,0,0,0,0,0,0,0,0,0,0,0,0,0,0,0,0,
0,0,0,0,0,0,0,0,0,0,0,0,0,0,0,0,0,0,0,0,0,0,0,0,0,0,0,0,0,0,0,0,0,0,0,0,0,0,0,0,0,0,0,0,0,0,0,0,0,0,0,0,0,0,0,0,0,0,0,0,0,0,0,0,0,0,0,0,0,0,0,0,0,0,0,0,0,0,0,0,0,0,0,0,0,0,0,0,0,0,0,0,0,0,0,0,0,0,0,0,0,0,0,0,0,0,0,0,0,0,0,0,0,0,0,0,0,0,0,0,0,0,0,0,0,0,0,0,0,0,0,0,0,0,0,0,0,0,0,0,0,0,0,0,0,0,0,0,0,0,0,0,0,0,0,0,0,0,0,0,0,0,0,0,0,0,0,0,0,0,0,0,0,0,0,0,0,0,0,0,0,0,0,0,0,0,0,0,0,0,0,0,0,0,0,0,0,0,0,0,0,0,0,0,0,0,0,0,0,0,0,0,0,0,0,0,0,0,0,0,0,0,0,0,0,0,0,0,0,0,0,0,0,0,0,0,0,0,0,0,0,0,0,0,0,0,0,0,0,0,0,0,0,0,0,0,
0,0,0,0,0,0,0,0,0,0,0,0,0,0,0,0,0,0,0,0,0,0,0,0,0,0,0,0,0,0,0,0,0,0,0,0,0,0,0,0,0,0,0,0,0,0,0,0,0,0,0,0,0,0,0,0,0,0,0,0,0,0,0,0,0,0,0,0,0,0,0,0,0,0,0,0,0,0,0,0,0,0,0,0,0,0,0,0,0,0,0,0,0,0,0,0,0,0,0,0,0,0,0,0,0,0,0,0,0,0,0,0,0,0,0,0,0,0,0,0,0,0,0,0,0,0,0,0,0,0,0,0,0,0,0,0,0,0,0,0,0,0,0,0,0,0,0,0,0,0,0,0,0,0,0,0,0,0,0,0,0,0,0,0,0,0,0,0,0,0,0,0,0,0,0,0,0,0,0,0,0,0,0,0,0,0,0,0,0,0,0,0,0,0,0,0,0,0,0,0,0,0,0,0,0,0,0,0,0,0,0,0,0,0,0,0,0,0,0,0,0,0,0,0,0,0,0,0,0,0,0,0,0,0,0,0,0,0,0,0,0,0,0,0,0,0,0,0,0,0,0,0,0,0,0,0,
0,0,0,0,0,0,0,0,0,0,0,0,0,0,0,0,0,0,0,0,0,0,0,0,0,0,0,0,0,0,0,0,0,0,0,0,0,0,0,0,0,0,0,0,0,0,0,0,0,0,0,0,0,0,0,0,0,0,0,0,0,0,0,0,0,0,0,0,0,0,0,0,0,0,0,0,0,0,0,0,0,0,0,0,0,0,0,0,0,0,0,0,0,0,0,0,0,0,0,0,0,0,0,0,0,0,0,0,0,0,0,0,0,0,0,0,0,0,0,0,0,0,0,0,0,0,0,0,0,0,0,0,0,0,0,0,0,0,0,0,0,0,0,0,0,0,0,0,0,0,0,0,0,0,0,0,0,0,0,0,0,0,0,0,0,0,0,0,0,0,0,0,0,0,0,0,0,0,0,0,0,0,0,0,0,0,0,0,0,0,0,0,0,0,0,0,0,0,0,0,0,0,0,0,0,0,0,0,0,0,0,0,0,0,0,0,0,0,0,0,0,0,0,0,0,0,0,0,0,0,0,0,0,0,0,0,0,0,0,0,0,0,0,0,0,0,0,0,0,0,0,0,0,0,0,0,
0,0,0,0,0,0,0,0,0,0,0,0,0,0,0,0,0,0,0,0,0,0,0,0,0,0,0,0,0,0,0,0,0,0,0,0,0,0,0,0,0,0,0,0,0,0,0,0,0,0,0,0,0,0,0,0,0,0,0,0,0,0,0,0,0,0,0,0,0,0,0,0,0,0,0,0,0,0,0,0,0,0,0,0,0,0,0,0,0,0,0,0,0,0,0,0,0,0,0,0,0,0,0,0,0,0,0,0,0,0,0,0,0,0,0,0,0,0,0,0,0,0,0,0,0,0,0,0,0,0,0,0,0,0,0,0,0,0,0,0,0,0,0,0,0,0,0,0,0,0,0,0,0,0,0,0,0,0,0,0,0,0,0,0,0,0,0,0,0,0,0,0,0,0,0,0,0,0,0,0,0,0,0,0,0,0,0,0,0,0,0,0,0,0,0,0,0,0,0,0,0,0,0,0,0,0,0,0,0,0,0,0,0,0,0,0,0,0,0,0,0,0,0,0,0,0,0,0,0,0,0,0,0,0,0,0,0,0,0,0,0,0,0,0,0,0,0,0,0,0,0,0,0,0,0,0
</data>
 </layer>
 <layer id="6" name="over" width="256" height="128" opacity="0.99">
  <data encoding="csv">
1126,1127,1322,1323,1562,1563,1564,1562,1563,1564,1130,1131,1126,1127,1126,1127,1130,1131,1172,1173,1174,1175,1322,1323,1128,1129,1172,1173,1174,1175,1128,1129,1172,1173,1174,1175,1128,1129,1128,1129,1124,1125,1565,1566,1567,1172,1173,1174,1175,1172,1173,1174,1175,1565,1566,1567,1124,1125,1565,1566,1567,1172,1173,1174,1175,1124,1125,1562,1563,1564,1130,1131,1176,1177,1178,1179,1124,1125,1128,1129,1559,1560,1561,1565,1566,1567,1556,1557,1558,1556,1557,1558,1559,1560,1561,1126,1127,1322,1323,1562,1563,1564,1556,1557,1558,1128,1129,1565,1566,1567,1176,1177,1178,1179,1126,1127,1562,1563,1564,1124,1125,1556,1557,1558,1126,1127,1124,1125,1322,1323,1172,1173,1174,1175,1556,1557,1558,1565,1566,1567,1124,1125,1556,1557,1558,1126,1127,1559,1560,1561,1556,1557,1558,1128,1129,1130,1131,1322,1323,1128,1129,1322,1323,1128,1129,1130,1131,1128,1129,1559,1560,1561,1562,1563,1564,1556,1557,1558,1322,1323,1322,1323,1176,1177,1178,1179,1559,1560,1561,1176,1177,1178,1179,1126,1127,1124,1125,1322,1323,1176,1177,1178,1179,1559,1560,1561,1322,1323,1565,1566,1567,1559,1560,1561,1562,1563,1564,1565,1566,1567,1556,1557,1558,1130,1131,1124,1125,1128,1129,1172,1173,1174,1175,1565,1566,1567,1172,1173,1174,1175,1556,1557,1558,1556,1557,1558,1176,1177,1178,1179,1556,1557,1558,1322,1323,0,
0,0,0,0,0,0,0,0,0,0,0,0,0,0,0,0,0,0,0,0,0,0,0,0,0,0,0,0,0,0,0,0,0,0,0,0,0,0,0,0,0,0,0,0,0,0,0,0,0,0,0,0,0,0,0,0,0,0,0,0,0,0,0,0,0,0,0,0,0,0,0,0,0,0,0,0,0,0,0,0,0,0,0,0,0,0,0,0,0,0,0,0,0,0,0,0,0,0,0,0,0,0,0,0,0,0,0,0,0,0,0,0,0,0,0,0,0,0,0,0,0,0,0,0,0,0,0,0,0,0,0,0,0,0,0,0,0,0,0,0,0,0,0,0,0,0,0,0,0,0,0,0,0,0,0,0,0,0,0,0,0,0,0,0,0,0,0,0,0,0,0,0,0,0,0,0,0,0,0,0,0,0,0,0,0,0,0,0,0,0,0,0,0,0,0,0,0,0,0,0,0,0,0,0,0,0,0,0,0,0,0,0,0,0,0,0,0,0,0,0,0,0,0,0,0,0,0,0,0,0,0,0,0,0,0,0,0,0,0,0,0,0,0,0,0,0,0,0,0,0,0,0,0,0,0,0,
1172,1173,1174,1175,0,0,0,0,0,0,1556,1557,1558,1322,1323,1128,1129,0,0,0,0,0,1126,1127,1130,1131,0,0,0,0,1126,1127,0,0,0,0,1128,1129,1128,1129,1126,1127,0,0,0,0,0,0,0,0,0,0,0,0,0,0,1128,1129,0,0,0,0,0,0,0,1130,1131,0,0,0,1126,1127,0,0,0,0,1128,1129,1124,1125,0,0,0,0,0,0,0,0,0,0,0,0,0,0,0,1172,1173,1174,1175,0,0,0,0,0,0,1130,1131,0,0,0,0,0,0,0,1126,1127,0,0,0,1126,1127,0,0,0,1322,1323,1322,1323,1322,1323,0,0,0,0,0,0,0,0,0,0,1124,1125,0,0,0,1130,1131,0,0,0,0,0,0,1128,1129,1322,1323,1126,1127,1556,1557,1558,1556,1557,1558,1126,1127,1322,1323,0,0,0,0,0,0,0,0,0,1124,1125,1128,1129,0,0,0,0,0,0,0,0,0,0,0,1556,1557,1558,1126,1127,0,0,0,0,0,0,0,0,1322,1323,0,0,0,0,0,0,0,0,0,0,0,0,0,0,0,1128,1129,1176,1177,1178,1179,0,0,0,0,0,0,0,0,0,0,0,0,0,0,0,0,0,0,0,0,0,0,0,0,1322,1323,0,
0,0,0,0,1128,1129,0,1322,1323,0,0,0,0,0,0,0,0,1124,1125,0,1128,1129,0,0,0,0,1172,1173,1174,1175,0,0,1124,1125,1126,1127,0,0,0,0,0,0,0,1322,1323,1176,1177,1178,1179,1124,1125,1128,1129,1322,1323,0,0,0,1322,1323,1322,1323,1322,1323,0,0,0,1128,1129,0,0,0,1172,1173,1174,1175,0,0,0,0,1176,1177,1178,1179,1176,1177,1178,1179,1128,1129,1124,1125,1128,1129,0,0,0,0,0,1128,1129,0,0,0,0,0,0,0,0,0,0,0,0,0,0,0,0,0,0,0,0,0,0,0,0,0,0,0,0,0,1128,1129,1322,1323,1126,1127,1172,1173,1174,1175,0,0,1126,1127,0,0,0,1124,1125,1128,1129,1124,1125,0,0,0,0,0,0,0,0,0,0,0,0,0,0,0,0,0,1128,1129,1128,1129,1176,1177,1178,1179,0,0,0,0,1128,1129,1322,1323,1172,1173,1174,1175,0,1128,1129,0,0,0,0,0,1322,1323,0,0,1176,1177,1178,1179,0,0,1176,1177,1178,1179,1322,1323,1126,1127,1128,1129,0,1126,1127,1128,1129,0,0,0,0,0,0,1172,1173,1174,1175,1128,1129,1126,1127,0,0,1126,1127,0,1126,1127,1128,1129,1172,1173,1174,1175,0,0,0,0,0,0,
0,0,0,0,0,0,0,0,0,0,0,0,0,1128,1129,1126,1127,0,0,0,0,0,1176,1177,1178,1179,0,0,0,0,1322,1323,0,0,0,0,1126,1127,1176,1177,1178,1179,0,0,0,0,0,0,0,0,0,0,0,0,0,1128,1129,0,0,0,0,0,0,0,1126,1127,0,0,0,1322,1323,0,0,0,0,0,1124,1125,0,0,0,0,0,0,0,0,0,0,0,0,0,0,0,0,0,0,0,0,0,0,0,0,0,0,0,0,0,0,0,0,0,0,0,0,0,0,0,0,0,0,1124,1125,0,1176,1177,1178,1179,1322,1323,0,0,0,0,0,0,0,0,0,0,0,1128,1129,0,0,1126,1127,0,0,0,0,0,0,0,1126,1127,1176,1177,1178,1179,0,0,0,0,0,0,0,1172,1173,1174,1175,0,0,0,0,0,0,0,0,1172,1173,1174,1175,0,0,0,0,0,0,0,0,0,0,0,0,0,0,1128,1129,0,0,1124,1125,0,0,0,0,1126,1127,0,0,0,0,0,0,0,0,0,0,0,0,0,0,0,0,0,0,0,0,0,0,0,0,0,0,0,0,0,1128,1129,0,0,0,0,0,0,0,0,0,0,0,0,0,0,1559,1560,1561,
1322,1323,1130,1131,1128,1129,1128,1129,0,1124,1125,0,0,0,0,0,0,1124,1125,0,1124,1125,0,0,0,0,0,0,0,0,0,0,0,1124,1125,0,0,0,0,0,0,0,0,1124,1125,0,0,0,0,1322,1323,1124,1125,1126,1127,0,0,1322,1323,1124,1125,1126,1127,0,0,0,0,0,0,0,0,0,0,0,0,0,0,0,1128,1129,0,0,0,0,0,0,0,0,1128,1129,0,1322,1323,1176,1177,1178,1179,1176,1177,1178,1179,0,0,0,0,0,0,0,0,0,0,0,0,0,1176,1177,1178,1179,1126,1127,0,0,0,0,0,0,0,0,0,1126,1127,0,0,1124,1125,0,0,0,0,0,0,0,1124,1125,0,0,1128,1129,1172,1173,1174,1175,0,0,0,0,0,0,0,1128,1129,1322,1323,1322,1323,0,0,0,0,0,1126,1127,1128,1129,0,0,0,0,0,0,0,0,0,1124,1125,0,0,0,0,0,0,0,1126,1127,1322,1323,0,0,1126,1127,0,0,0,0,0,0,0,0,0,0,0,0,1128,1129,1124,1125,1126,1127,1126,1127,1124,1125,1176,1177,1178,1179,1128,1129,0,0,0,0,0,1176,1177,1178,1179,0,0,1172,1173,1174,1175,0,1128,1129,0,0,0,0,1128,1129,0,0,0,0,
0,0,0,0,0,0,0,0,0,0,0,1176,1177,1178,1179,1124,1125,0,0,0,0,0,0,0,0,0,1126,1127,0,1322,1323,1126,1127,0,0,1322,1323,0,0,0,0,0,0,0,0,1176,1177,1178,1179,0,0,0,0,0,0,1124,1125,0,0,0,0,0,0,0,1176,1177,1178,1179,0,0,0,1124,1125,1124,1125,1322,1323,0,0,0,1172,1173,1174,1175,1176,1177,1178,1179,0,0,0,0,0,0,0,0,0,0,0,0,0,0,0,0,0,0,0,0,0,0,0,0,1322,1323,0,0,0,0,0,0,1126,1127,0,0,0,0,0,1124,1125,0,0,0,0,0,0,1126,1127,1124,1125,1322,1323,0,0,0,0,0,0,0,0,0,0,0,0,0,0,0,0,0,0,0,0,0,0,0,0,0,0,0,0,0,0,0,0,0,1126,1127,1126,1127,0,0,0,0,0,0,0,0,1176,1177,1178,1179,1126,1127,0,0,0,0,0,0,0,0,1124,1125,1172,1173,1174,1175,1124,1125,1128,1129,0,0,0,0,0,0,0,0,0,0,0,0,0,0,0,0,0,0,1128,1129,1128,1129,0,0,0,0,0,1126,1127,0,0,0,0,0,0,0,1172,1173,1174,1175,0,0,0,0,0,0,
1124,1125,1322,1323,0,0,1128,1129,0,1322,1323,0,0,0,0,0,0,1128,1129,0,1322,1323,1322,1323,1322,1323,0,0,0,0,0,0,0,1322,1323,0,0,1172,1173,1174,1175,0,1126,1127,0,0,0,0,0,0,1172,1173,1174,1175,0,0,0,1124,1125,1322,1323,0,1128,1129,0,0,0,0,0,0,0,0,0,0,0,0,0,0,1126,1127,0,0,0,0,0,0,0,0,1126,1127,1124,1125,0,0,0,0,0,0,0,0,0,0,0,0,0,0,0,0,0,0,1322,1323,0,0,0,0,0,0,1322,1323,0,0,1322,1323,1128,1129,0,0,0,1172,1173,1174,1175,1126,1127,0,0,0,0,0,0,1128,1129,1128,1129,1128,1129,0,0,0,0,0,1176,1177,1178,1179,1128,1129,1126,1127,1176,1177,1178,1179,1126,1127,1322,1323,1322,1323,0,1128,1129,0,0,0,0,0,1126,1127,1322,1323,1124,1125,0,0,0,0,0,0,0,0,1124,1125,1128,1129,1126,1127,1322,1323,0,0,0,0,0,0,0,0,0,0,1172,1173,1174,1175,1124,1125,1128,1129,1172,1173,1174,1175,0,0,0,0,1128,1129,0,0,0,0,0,0,0,0,0,0,0,0,0,0,0,1126,1127,0,0,0,0,0,1128,1129,0,1559,1560,1561,
0,0,0,0,0,0,0,0,0,0,0,0,0,0,0,1124,1125,0,0,0,0,0,0,0,0,0,1124,1125,1124,1125,1124,1125,0,0,0,1128,1129,0,0,0,0,0,0,0,0,0,0,0,0,0,0,0,0,0,0,0,0,0,0,0,0,0,0,0,0,0,0,0,0,0,0,0,0,0,0,0,0,0,0,0,0,0,0,0,0,0,0,0,0,0,0,0,0,1322,1323,0,1126,1127,1128,1129,0,0,0,0,0,0,0,0,0,0,0,0,1172,1173,1174,1175,1124,1125,0,0,0,0,0,0,0,0,1124,1125,0,0,0,0,0,0,0,1322,1323,1322,1323,1126,1127,0,0,0,0,0,0,1322,1323,1124,1125,0,0,0,0,0,0,0,0,0,0,0,0,0,0,0,0,0,0,0,0,0,0,1176,1177,1178,1179,0,0,0,0,0,0,0,1128,1129,0,0,0,0,1322,1323,0,0,0,0,0,0,0,0,0,0,0,0,0,0,0,0,0,0,0,0,0,0,0,0,0,0,0,0,0,0,1172,1173,1174,1175,0,0,1128,1129,1128,1129,1128,1129,0,1172,1173,1174,1175,1176,1177,1178,1179,0,0,0,0,0,0,0,0,0,0,0,0,0,
1124,1125,1176,1177,1178,1179,1172,1173,1174,1175,1124,1125,0,1126,1127,0,0,1126,1127,1128,1129,0,0,1126,1127,0,0,0,0,0,0,0,1124,1125,0,0,0,0,0,0,0,1172,1173,1174,1175,1124,1125,0,0,0,0,0,0,0,1172,1173,1174,1175,1172,1173,1174,1175,1172,1173,1174,1175,0,0,0,0,0,0,0,0,0,0,0,0,1172,1173,1174,1175,1126,1127,0,0,0,1322,1323,0,1124,1125,0,0,0,0,0,0,0,0,1124,1125,0,0,0,0,0,0,0,0,1128,1129,0,0,0,0,0,0,1172,1173,1174,1175,1126,1127,0,0,0,0,0,0,0,0,0,1124,1125,0,0,0,0,0,0,0,0,1172,1173,1174,1175,0,0,0,0,0,0,0,0,0,0,1322,1323,0,0,0,0,0,0,1176,1177,1178,1179,0,1128,1129,0,0,0,0,0,0,1176,1177,1178,1179,1322,1323,0,0,1128,1129,0,0,0,0,0,1176,1177,1178,1179,1322,1323,1126,1127,1322,1323,1176,1177,1178,1179,1124,1125,0,0,0,0,0,1172,1173,1174,1175,0,0,0,0,0,0,0,0,1322,1323,0,0,0,0,0,0,0,0,0,0,0,0,0,0,0,1128,1129,0,1322,1323,0,1176,1177,1178,1179,0,0,0,
0,0,0,0,0,0,0,0,0,0,0,0,0,0,0,0,0,0,0,0,0,0,0,0,0,1128,1129,1322,1323,1322,1323,0,0,0,0,0,1124,1125,0,0,0,0,0,0,0,0,0,0,0,0,0,0,0,0,0,0,0,0,0,0,0,0,0,0,0,0,0,0,0,0,0,0,0,0,0,0,0,0,0,0,0,0,0,0,1128,1129,0,0,0,0,0,0,0,0,0,0,0,0,1322,1323,0,0,0,1322,1323,0,0,0,0,0,0,0,0,0,0,0,1322,1323,0,0,0,0,0,0,1128,1129,0,1126,1127,0,1128,1129,0,0,0,0,0,1322,1323,1128,1129,1128,1129,0,0,0,0,1124,1125,1126,1127,1172,1173,1174,1175,1126,1127,0,0,1172,1173,1174,1175,1124,1125,0,0,0,0,0,0,0,0,0,0,0,0,0,0,0,0,0,0,0,0,0,0,0,0,1176,1177,1178,1179,0,0,0,0,0,0,0,0,0,0,0,0,0,0,0,0,0,1176,1177,1178,1179,0,0,0,0,0,1128,1129,0,0,0,0,0,0,0,1176,1177,1178,1179,1126,1127,0,0,0,0,0,0,0,0,0,0,0,0,0,0,0,0,0,0,0,1322,1323,0,
1128,1129,0,0,0,0,0,0,0,0,1128,1129,0,1124,1125,1172,1173,1174,1175,0,0,0,0,1126,1127,0,0,0,0,0,0,0,1176,1177,1178,1179,0,0,1322,1323,0,0,0,0,0,1124,1125,0,0,0,0,0,0,0,0,0,0,0,0,0,0,0,0,0,0,0,0,0,0,0,0,0,0,0,0,0,0,0,0,0,0,0,0,0,0,0,0,0,0,1124,1125,0,0,0,0,0,0,0,0,0,0,1322,1323,0,0,0,0,0,0,1124,1125,0,1322,1323,1128,1129,0,0,0,0,0,0,1126,1127,0,0,0,0,0,0,0,0,1126,1127,0,1322,1323,0,0,0,0,0,0,0,0,0,0,0,0,0,0,0,0,0,0,0,0,1322,1323,0,0,0,0,0,0,0,0,0,0,1322,1323,0,1172,1173,1174,1175,1124,1125,0,0,0,0,0,1176,1177,1178,1179,1128,1129,0,0,0,0,0,0,0,0,1176,1177,1178,1179,1124,1125,0,0,0,0,1322,1323,0,0,0,0,0,0,0,0,0,0,0,0,0,0,1126,1127,1126,1127,0,0,0,0,0,0,0,1172,1173,1174,1175,0,1176,1177,1178,1179,1172,1173,1174,1175,1124,1125,0,0,0,0,0,0,0,
0,0,1172,1173,1174,1175,1124,1125,0,0,0,0,0,0,0,0,0,0,0,0,1322,1323,0,0,0,1126,1127,1172,1173,1174,1175,0,0,0,0,0,0,0,0,0,0,0,0,1128,1129,0,0,0,0,0,0,0,0,0,0,0,0,0,0,0,0,0,0,0,0,0,0,0,0,0,0,0,0,0,0,0,1128,1129,0,1128,1129,1126,1127,0,0,1124,1125,0,0,0,0,0,0,0,0,0,0,0,0,1322,1323,0,0,1126,1127,1128,1129,0,0,0,0,0,0,0,0,0,1126,1127,1322,1323,0,0,0,0,1172,1173,1174,1175,1172,1173,1174,1175,0,0,0,0,0,0,1126,1127,0,0,0,0,0,0,1128,1129,0,0,0,0,0,0,0,1128,1129,0,0,0,0,0,0,1176,1177,1178,1179,1128,1129,0,0,0,0,0,0,0,0,0,0,0,0,1128,1129,0,0,0,0,0,0,0,0,0,0,0,1128,1129,0,0,0,0,0,0,0,0,0,1322,1323,0,0,0,0,0,0,0,1172,1173,1174,1175,0,1176,1177,1178,1179,0,0,0,0,0,0,0,0,0,1322,1323,0,0,0,0,0,0,0,0,0,0,0,0,0,0,0,1322,1323,1128,1129,1128,1129,0,
1126,1127,0,0,0,0,0,0,1322,1323,0,0,1322,1323,0,0,0,0,0,0,0,0,1322,1323,0,0,0,0,0,0,0,0,0,0,0,0,0,1322,1323,0,1126,1127,0,0,0,1172,1173,1174,1175,0,0,0,0,0,0,0,0,0,0,0,0,0,0,0,0,0,0,0,0,0,0,0,0,0,0,0,0,0,0,0,0,0,0,0,0,0,0,1126,1127,1124,1125,1322,1323,0,0,0,1322,1323,0,0,0,1126,1127,0,0,0,0,0,0,0,1172,1173,1174,1175,0,0,0,0,0,0,1172,1173,1174,1175,0,0,0,0,0,0,0,0,1124,1125,1128,1129,1128,1129,0,0,0,0,0,0,1322,1323,0,0,1126,1127,0,1322,1323,0,0,0,0,1322,1323,1128,1129,1124,1125,0,0,0,0,0,0,0,0,0,0,0,0,0,0,0,0,0,0,0,0,0,0,0,0,1172,1173,1174,1175,0,1322,1323,0,0,0,0,0,0,0,0,0,0,0,0,0,0,1322,1323,0,0,1124,1125,0,0,0,0,0,0,0,0,0,1176,1177,1178,1179,1126,1127,0,1128,1129,0,0,0,0,0,0,0,0,0,0,0,0,0,0,0,1126,1127,0,0,0,0,0,0,0,
0,0,0,0,0,0,1126,1127,0,0,0,0,0,0,0,1126,1127,0,0,1128,1129,0,0,0,1128,1129,0,0,0,0,0,0,0,0,1322,1323,0,0,0,0,0,0,0,1128,1129,0,0,0,0,0,0,0,0,0,1322,1323,0,0,0,0,0,0,0,1128,1129,0,0,0,0,0,0,0,0,0,0,0,0,1128,1129,1124,1125,0,1172,1173,1174,1175,0,0,0,0,0,0,0,1124,1125,0,0,0,1126,1127,0,0,0,0,0,0,0,0,0,0,0,0,0,0,1128,1129,0,0,1322,1323,0,0,0,0,0,0,0,0,0,0,0,0,0,0,0,0,0,0,1124,1125,0,0,0,0,0,0,0,0,0,0,0,0,0,0,1128,1129,0,0,0,0,0,0,0,0,0,0,0,1124,1125,0,0,1322,1323,1124,1125,0,1322,1323,1176,1177,1178,1179,1126,1127,0,1126,1127,0,0,0,0,0,0,0,1126,1127,0,0,1176,1177,1178,1179,0,0,0,1128,1129,0,0,0,1128,1129,0,0,0,0,0,0,0,0,0,0,0,0,0,0,0,0,0,0,0,0,0,0,0,1322,1323,0,1322,1323,0,1322,1323,0,1124,1125,0,0,0,1126,1127,1124,1125,1556,1557,1558,
1124,1125,1128,1129,1128,1129,0,0,0,0,1172,1173,1174,1175,0,0,0,0,0,0,0,0,1124,1125,0,0,0,2007,2008,0,1124,1125,0,0,0,0,1322,1323,1128,1129,0,0,0,0,0,0,0,0,0,0,0,1128,1129,0,0,0,1172,1173,1174,1175,1128,1129,0,0,0,1322,1323,0,0,0,0,0,0,0,0,0,0,0,0,0,0,0,0,0,0,0,1172,1173,1174,1175,0,0,0,0,0,1124,1125,0,0,0,0,0,0,1128,1129,0,1322,1323,0,0,0,0,0,0,0,0,1124,1125,0,0,0,0,0,0,0,1126,1127,1322,1323,0,0,1172,1173,1174,1175,0,0,0,0,0,0,0,1128,1129,0,1172,1173,1174,1175,0,1128,1129,1128,1129,0,0,0,0,0,0,0,1176,1177,1178,1179,1124,1125,0,0,1126,1127,0,0,0,0,0,0,0,0,0,0,0,0,0,0,0,0,0,0,0,0,0,1126,1127,0,0,0,0,0,0,0,0,0,0,0,0,0,0,0,0,0,0,0,1126,1127,1176,1177,1178,1179,0,1322,1323,0,0,0,0,0,0,1128,1129,1172,1173,1174,1175,0,0,0,0,0,0,0,0,0,0,0,0,1126,1127,0,0,0,0,0,0,0,0,
0,0,0,0,0,0,0,0,1128,1129,0,0,0,0,0,0,0,0,0,1126,1127,0,0,0,0,0,0,0,0,0,0,0,1128,1129,0,0,0,0,0,0,1176,1177,1178,1179,1124,1125,1128,1129,0,1128,1129,0,0,0,1126,1127,0,0,0,0,0,0,0,0,0,0,0,0,0,0,0,0,0,0,0,0,0,0,1124,1125,0,0,0,0,0,0,0,0,0,0,0,0,0,0,0,0,0,0,1176,1177,1178,1179,0,0,0,0,0,0,1124,1125,1176,1177,1178,1179,0,0,0,0,0,0,0,1124,1125,1128,1129,0,0,0,0,0,0,0,0,0,0,1322,1323,0,0,0,0,0,0,0,0,0,0,0,0,0,0,0,0,0,1176,1177,1178,1179,0,1124,1125,0,0,0,0,0,0,0,0,0,0,0,0,1128,1129,0,0,0,0,0,0,0,1126,1127,1124,1125,0,1176,1177,1178,1179,0,0,0,0,0,0,0,0,0,0,0,0,1172,1173,1174,1175,0,0,0,0,0,0,0,0,0,0,0,0,0,0,0,0,1172,1173,1174,1175,0,0,0,0,0,0,0,0,1172,1173,1174,1175,0,1176,1177,1178,1179,0,0,0,0,1124,1125,1124,1125,0,0,0,0,
1130,1131,1176,1177,1178,1179,1322,1323,0,0,0,0,0,0,1172,1173,1174,1175,0,0,0,0,0,1126,1127,1322,1323,0,0,0,0,0,0,0,1172,1173,1174,1175,0,0,0,0,0,0,0,0,0,0,0,0,0,1124,1125,0,0,0,0,0,0,0,0,1126,1127,1128,1129,0,1124,1125,0,0,0,0,0,0,0,0,0,0,0,0,0,1172,1173,1174,1175,0,0,0,0,0,1124,1125,0,1126,1127,1322,1323,0,0,0,0,0,0,0,0,1322,1323,0,0,0,0,0,0,0,1128,1129,0,1176,1177,1178,1179,0,0,0,0,0,0,1322,1323,0,0,0,0,0,0,0,0,1176,1177,1178,1179,0,0,0,0,0,0,0,0,0,0,1126,1127,0,0,0,0,0,0,0,0,0,0,0,0,1176,1177,1178,1179,0,0,0,0,0,0,0,1128,1129,1128,1129,0,0,0,0,0,0,0,0,0,0,0,1176,1177,1178,1179,0,0,1176,1177,1178,1179,0,0,0,0,0,0,0,0,0,0,0,0,1128,1129,0,0,0,0,0,0,1128,1129,0,0,0,0,0,1124,1125,0,0,0,0,0,0,0,0,0,0,0,0,0,0,1322,1323,0,0,0,0,0,0,0,1124,1125,0,
0,0,0,0,0,0,0,0,1176,1177,1178,1179,0,0,0,0,0,0,0,0,0,0,0,0,0,0,0,0,0,0,0,0,0,0,0,0,0,0,1126,1127,0,0,0,0,0,0,0,1124,1125,0,0,0,0,0,0,0,0,0,0,0,0,0,0,0,0,0,0,0,0,0,0,0,0,0,0,0,0,0,0,1322,1323,0,0,0,0,1126,1127,0,0,0,0,0,0,0,0,0,0,0,0,0,0,0,0,0,0,0,0,0,1124,1125,0,0,0,0,0,0,0,0,0,0,0,1128,1129,0,0,0,0,0,0,0,0,0,0,0,0,0,0,0,0,0,0,0,0,0,0,0,0,0,1126,1127,0,0,0,0,0,0,0,0,0,0,0,0,1322,1323,0,0,0,0,0,0,0,0,0,0,0,0,0,0,0,0,0,0,1322,1323,0,0,0,0,0,0,0,0,0,0,0,0,0,0,0,0,0,0,0,0,0,0,0,0,0,0,0,0,0,0,0,0,1322,1323,0,1322,1323,0,0,0,0,0,0,0,0,0,0,0,0,0,0,0,0,0,0,0,0,0,0,0,0,0,1172,1173,1174,1175,0,0,0,0,0,0,
1126,1127,0,0,0,0,1128,1129,0,0,0,0,1124,1125,0,0,0,0,0,0,0,0,0,0,0,0,0,0,0,0,0,0,0,0,0,0,0,0,0,0,0,0,0,0,0,0,0,0,0,0,0,0,0,0,0,0,0,0,0,0,0,0,0,0,0,1126,1127,0,0,0,0,0,0,0,0,0,0,0,0,0,0,0,0,0,0,0,0,0,0,0,0,0,0,0,0,0,0,0,0,0,0,0,0,0,0,0,0,0,0,0,1176,1177,1178,1179,1124,1125,0,0,0,0,0,0,0,0,0,0,0,0,0,0,0,0,0,0,0,0,0,0,0,0,0,0,0,0,0,0,0,0,0,0,0,1176,1177,1178,1179,0,0,0,0,0,0,0,0,0,0,0,0,0,0,0,0,0,0,0,0,0,0,0,0,0,0,0,0,0,0,0,0,0,0,1322,1323,0,0,0,0,0,0,0,0,0,0,0,0,0,0,0,0,0,0,0,0,0,0,0,0,0,0,0,0,0,0,0,0,0,0,0,0,0,0,0,0,0,0,0,0,0,0,0,1124,1125,1176,1177,1178,1179,1322,1323,0,0,0,0,1124,1125,0,1565,1566,1567,
0,0,1126,1127,1322,1323,0,0,0,0,0,0,0,0,0,1172,1173,1174,1175,0,0,0,0,0,0,0,0,0,0,0,0,0,0,0,0,0,0,0,0,0,0,0,0,0,0,0,0,0,0,0,0,0,0,0,0,0,0,0,0,0,0,0,0,0,0,0,0,0,0,0,0,0,0,0,0,0,0,0,0,0,0,0,0,0,0,0,0,0,0,0,0,0,0,0,0,0,0,0,0,0,0,0,0,0,0,0,0,0,0,0,0,0,0,0,0,0,0,0,0,0,0,0,0,0,0,0,0,0,0,0,0,0,0,0,0,0,0,0,0,0,0,0,0,0,0,0,0,0,0,0,0,0,0,0,0,0,0,0,0,0,0,0,0,0,0,0,0,0,0,0,0,0,0,0,0,0,0,0,0,0,0,0,0,0,0,0,0,0,0,0,0,0,0,0,0,0,0,0,0,0,0,0,0,0,0,0,0,0,0,0,0,0,0,0,0,0,0,0,0,0,0,0,0,0,0,0,0,0,0,0,0,0,0,0,0,0,0,0,0,0,0,0,0,0,0,0,0,0,0,0,0,0,0,0,0,0,
1130,1131,0,0,0,0,0,1172,1173,1174,1175,1172,1173,1174,1175,0,0,0,0,0,0,0,0,0,0,0,0,0,0,0,0,0,0,0,0,0,0,0,0,0,0,0,0,0,0,0,0,0,0,0,0,0,0,0,0,0,0,0,0,0,0,0,0,0,0,0,0,0,0,0,0,0,0,0,0,0,0,0,0,0,0,0,0,0,0,0,0,0,0,0,0,0,0,0,0,0,0,0,0,0,0,0,0,0,0,0,0,0,0,0,0,0,0,0,0,0,0,0,0,0,0,0,0,0,0,0,0,0,0,0,0,0,0,0,0,0,0,0,0,0,0,0,0,0,0,0,0,0,0,0,0,0,0,0,0,0,0,0,0,0,0,0,0,0,0,0,0,0,0,0,0,0,0,0,0,0,0,0,0,0,0,0,0,0,0,0,0,0,0,0,0,0,0,0,0,0,0,0,0,0,0,0,0,0,0,0,0,0,0,0,0,0,0,0,0,0,0,0,0,0,0,0,0,0,0,0,0,0,0,0,0,0,0,0,0,0,0,0,0,0,0,0,0,0,1176,1177,1178,1179,1126,1127,1126,1127,0,0,0,0,
0,0,1176,1177,1178,1179,0,0,0,0,0,0,0,0,0,0,0,0,0,0,0,0,0,0,0,0,0,0,0,0,0,0,0,0,0,0,0,0,0,0,0,0,0,0,0,0,0,0,0,0,0,0,0,0,0,0,0,0,0,0,0,0,0,0,0,0,0,0,0,0,0,0,0,0,0,0,0,0,0,0,0,0,0,0,0,0,0,0,0,0,0,0,0,0,0,0,0,0,0,0,0,0,0,0,0,0,0,0,0,0,0,0,0,0,0,0,0,0,0,0,0,0,0,0,0,0,0,0,0,0,0,0,0,0,0,0,0,0,0,0,0,0,0,0,0,0,0,0,0,0,0,0,0,0,0,0,0,0,0,0,0,0,0,0,0,0,0,0,0,0,0,0,0,0,0,0,0,0,0,0,0,0,0,0,0,0,0,0,0,0,0,0,0,0,0,0,0,0,0,0,0,0,0,0,0,0,0,0,0,0,0,0,0,0,0,0,0,0,0,0,0,0,0,0,0,0,0,0,0,0,0,0,0,0,0,0,0,0,0,1124,1125,0,1124,1125,0,0,0,0,0,0,0,0,0,1562,1563,1564,
1322,1323,0,0,0,0,0,0,0,0,0,0,0,0,0,0,0,0,0,0,0,0,0,0,0,0,0,0,0,0,0,0,0,0,0,0,0,0,0,0,0,0,0,0,0,0,0,0,0,0,0,0,0,0,0,0,0,0,0,0,0,0,0,0,0,0,0,0,0,0,0,0,0,0,0,0,0,0,0,0,0,0,0,0,0,0,0,0,0,0,0,0,0,0,0,0,0,0,0,0,0,0,0,0,0,0,0,0,0,0,0,0,0,0,0,0,0,0,0,0,0,0,0,0,0,0,0,0,0,0,0,0,0,0,0,0,0,0,0,0,0,0,0,0,0,0,0,0,0,0,0,0,0,0,0,0,0,0,0,0,0,0,0,0,0,0,0,0,0,0,0,0,0,0,0,0,0,0,0,0,0,0,0,0,0,0,0,0,0,0,0,0,0,0,0,0,0,0,0,0,0,0,0,0,0,0,0,0,0,0,0,0,0,0,0,0,0,0,0,0,0,0,0,0,0,0,0,0,0,0,0,0,0,0,0,0,0,0,0,0,0,0,0,0,0,0,0,0,1128,1129,1124,1125,0,0,0,0,
0,0,0,0,0,0,1126,1127,1128,1129,0,1124,1125,1322,1323,1322,1323,0,1126,1127,0,0,0,0,0,0,0,0,0,0,0,0,0,0,0,0,0,0,0,0,0,0,0,0,0,0,0,0,0,0,0,0,0,0,0,0,0,0,0,0,0,0,0,0,0,0,0,0,0,0,0,0,0,0,0,0,0,0,0,0,0,0,0,0,0,0,0,1322,1323,0,0,0,1124,1125,0,0,0,0,0,0,0,0,0,1322,1323,0,0,0,0,0,0,0,0,0,0,0,0,0,0,0,0,0,0,0,0,0,0,0,0,0,0,0,0,0,0,0,0,0,0,0,0,0,0,0,0,0,0,0,0,0,0,0,0,0,0,0,0,0,0,0,0,0,0,0,0,0,0,0,0,0,0,0,0,0,0,0,0,0,0,0,0,0,0,0,0,0,0,0,0,0,0,0,0,0,0,0,0,0,0,0,0,0,0,0,0,0,0,0,0,0,0,0,0,0,0,0,2007,2008,0,0,0,0,0,0,0,0,0,0,0,0,0,0,0,0,0,0,1124,1125,1128,1129,1322,1323,1126,1127,1124,1125,0,0,0,0,0,0,0,0,0,0,
1565,1566,1567,1128,1129,0,0,0,0,0,0,0,0,0,0,0,0,0,0,0,0,0,0,0,0,0,0,0,0,0,0,0,0,0,0,0,0,0,0,0,0,0,0,0,0,0,0,0,0,0,0,0,0,0,0,0,0,0,0,0,0,0,0,0,0,0,0,0,0,0,0,0,0,0,0,0,0,0,0,0,0,0,0,0,0,0,0,0,0,0,0,0,0,0,0,0,0,0,0,0,0,0,0,0,0,0,0,0,0,0,0,0,0,0,0,0,0,0,0,0,0,0,0,0,0,0,0,0,0,0,0,0,0,0,0,0,0,0,0,0,0,0,0,0,0,0,0,0,0,0,0,0,0,0,0,0,0,0,0,0,0,0,0,1124,1125,0,0,0,0,0,0,0,0,0,0,0,0,0,0,0,0,0,0,0,0,0,0,0,0,0,0,0,0,0,0,0,0,0,0,0,0,0,0,0,0,0,0,0,0,0,0,0,0,0,0,0,0,0,0,0,0,0,0,0,0,0,0,0,0,0,0,0,0,0,0,0,0,0,0,0,0,0,0,0,0,0,1172,1173,1174,1175,1128,1129,0,1559,1560,1561,
0,0,0,0,0,0,1322,1323,1322,1323,1176,1177,1178,1179,0,0,0,0,0,0,0,0,0,0,0,0,0,0,0,0,0,0,2007,2008,0,0,0,0,0,0,0,0,0,0,0,0,0,0,0,0,0,0,0,0,0,0,0,0,0,0,0,0,0,0,0,0,0,0,0,0,0,0,0,0,0,0,0,0,0,0,0,0,0,0,0,0,0,0,0,0,0,0,0,0,0,0,0,0,0,0,0,0,0,0,0,0,0,0,0,0,0,0,0,0,0,0,0,0,0,0,0,0,0,0,0,0,0,0,0,0,0,0,0,0,0,0,0,0,0,0,0,0,0,0,0,0,0,0,0,0,0,0,0,0,0,0,0,0,0,0,0,0,0,0,0,0,0,0,0,0,0,0,0,0,0,0,0,0,0,0,0,0,0,0,0,0,0,0,0,0,0,0,0,0,0,0,0,0,0,0,0,0,0,0,0,0,0,0,0,0,0,0,0,0,0,0,0,0,0,0,0,0,0,0,0,0,0,0,0,0,0,0,0,0,0,0,0,0,1126,1127,1322,1323,1126,1127,0,0,0,0,0,0,0,0,0,0,0,0,
0,0,0,1128,1129,0,0,0,0,0,0,0,0,0,0,1128,1129,0,0,0,0,0,0,0,0,0,0,0,0,0,0,0,0,0,0,0,0,0,0,0,0,0,1124,1125,0,0,0,0,0,0,0,0,0,0,0,0,0,0,0,0,0,0,0,0,0,0,0,0,0,0,0,0,0,0,0,0,0,0,0,0,0,0,0,0,0,0,0,0,0,0,0,0,0,0,0,0,0,0,0,0,0,0,0,0,0,0,0,0,0,0,0,0,0,0,0,0,0,0,0,0,0,0,0,0,0,0,0,0,2007,2008,0,0,0,0,0,0,0,0,0,0,0,0,0,0,0,0,0,0,0,0,0,0,0,0,0,0,1322,1323,0,0,0,0,0,0,0,0,0,0,0,0,0,0,0,0,0,0,0,0,0,0,0,0,0,0,0,0,0,0,0,0,0,0,0,0,0,0,0,0,2007,2008,0,0,0,0,0,0,0,0,0,0,0,0,0,0,0,0,0,0,0,0,0,0,1322,1323,0,0,0,0,0,0,0,0,0,0,0,0,0,0,0,0,0,0,0,0,1126,1127,0,0,0,0,1126,1127,0,0,0,0,
1565,1566,1567,0,0,1124,1125,1126,1127,0,0,0,0,0,0,0,0,0,0,0,0,0,0,0,0,0,0,0,0,0,0,0,0,0,0,0,0,0,0,0,0,0,0,0,0,0,0,0,0,0,0,0,0,0,0,0,0,0,0,0,0,0,0,0,0,0,0,0,0,0,0,0,0,0,0,0,0,0,0,0,1322,1323,0,0,0,0,0,0,0,0,0,0,0,0,0,0,0,0,0,0,0,1322,1323,0,0,0,0,0,0,0,0,0,0,0,0,0,0,1322,1323,0,0,0,0,0,0,0,0,0,0,0,0,0,0,0,0,0,0,0,0,0,0,0,0,0,0,0,2007,2008,0,0,0,0,0,0,0,0,0,0,0,0,0,0,0,0,0,0,0,0,0,0,0,0,0,0,0,0,0,0,0,1322,1323,0,1322,1323,0,0,0,0,0,0,0,0,0,0,1322,1323,0,0,0,0,0,0,0,0,0,0,0,0,0,0,0,0,0,0,0,0,0,0,2007,2008,0,0,0,0,0,0,0,0,1322,1323,0,0,0,0,0,0,0,1172,1173,1174,1175,1124,1125,0,0,0,1126,1127,1124,1125,0,0,0,1124,1125,0,
0,0,0,1128,1129,0,0,0,0,1176,1177,1178,1179,0,0,0,1322,1323,0,0,0,0,0,0,0,0,0,0,0,0,0,0,0,0,0,0,0,0,0,0,0,0,0,0,0,0,0,0,0,0,0,0,0,0,0,0,0,0,0,0,0,0,0,0,0,0,0,0,0,0,0,0,0,0,0,0,0,0,0,0,0,0,0,0,0,0,0,0,0,0,0,0,0,0,0,0,0,0,0,0,0,0,0,0,0,0,0,0,0,0,0,0,0,0,0,0,0,0,0,2007,2008,0,0,0,0,0,0,0,0,0,0,0,0,0,0,0,0,0,0,0,0,0,0,0,0,0,0,0,0,0,0,0,0,0,0,0,0,0,0,0,0,0,0,0,0,0,0,0,0,0,0,0,0,0,0,0,0,0,0,0,0,0,0,0,0,0,0,0,0,0,2007,2008,0,0,0,0,0,0,0,0,0,0,0,0,0,0,0,0,0,0,0,0,0,0,0,0,0,0,0,0,0,0,0,0,0,0,0,0,0,0,0,0,0,0,0,0,0,0,0,0,0,0,0,0,0,0,0,0,0,0,1322,1323,0,0,0,0,
0,0,0,0,0,1176,1177,1178,1179,0,0,0,0,0,0,0,0,0,0,0,0,0,0,0,0,0,0,0,0,0,0,0,2007,2008,0,0,0,0,0,0,0,0,0,0,0,0,0,0,0,0,0,0,0,0,0,0,0,0,0,0,0,0,0,0,0,0,0,0,0,0,0,0,0,0,0,0,0,0,0,0,0,0,0,0,0,0,0,0,0,0,0,0,0,0,0,0,0,0,0,0,0,0,0,0,0,0,0,0,0,0,0,0,0,0,0,0,0,0,0,0,0,0,0,0,0,0,0,0,0,0,0,0,0,0,0,0,0,0,0,0,0,0,0,0,0,0,0,0,0,0,0,0,0,0,0,0,0,0,0,0,0,0,0,0,0,0,0,0,0,0,0,0,0,0,0,0,0,0,0,0,0,0,0,0,0,0,0,0,0,0,0,0,0,0,0,0,0,0,0,0,0,0,0,0,0,0,0,0,0,0,0,0,0,0,0,0,0,0,0,0,0,0,0,0,0,0,0,0,0,0,0,0,0,0,0,0,0,0,0,0,0,1128,1129,0,0,0,1128,1129,1124,1125,0,0,0,1128,1129,0,
1559,1560,1561,0,0,0,0,0,0,0,0,0,0,0,0,0,0,0,0,0,0,0,0,0,0,0,0,0,0,0,0,0,0,0,0,0,0,0,0,0,0,0,0,0,0,0,0,0,0,0,0,0,0,0,0,0,0,0,0,0,0,0,0,0,0,0,0,0,0,0,0,0,0,0,0,0,0,0,0,0,0,0,0,0,0,0,0,0,0,0,0,0,0,0,0,0,0,0,0,0,0,0,0,0,0,0,0,0,0,0,0,0,0,0,0,0,0,0,0,0,0,0,0,0,0,0,0,0,0,0,0,0,0,0,0,0,0,0,0,0,0,0,0,0,0,0,0,0,0,0,0,0,0,0,0,0,0,0,0,0,0,2007,2008,0,0,0,0,0,0,0,0,0,0,0,0,0,0,0,0,0,0,0,0,0,0,0,0,0,0,0,0,0,0,0,0,0,0,0,0,0,0,0,0,0,0,0,0,0,1124,1125,0,0,0,0,0,0,0,0,0,0,0,0,0,0,0,0,0,0,0,0,0,0,0,0,0,0,0,0,1126,1127,0,0,0,0,0,0,0,0,0,0,1124,1125,0,0,0,0,
0,0,0,1322,1323,0,0,0,0,0,0,0,0,0,0,0,0,0,0,0,0,0,0,0,0,0,0,0,0,0,0,0,0,0,0,0,0,0,0,0,0,0,0,0,0,0,0,0,0,0,0,0,0,0,0,0,0,0,0,0,0,0,0,0,0,0,0,0,0,0,0,0,0,0,0,0,0,0,0,0,0,0,0,0,0,0,0,0,0,0,0,0,0,0,0,0,0,0,0,0,0,0,0,0,0,0,0,0,0,0,0,0,0,0,0,0,0,0,0,0,0,0,0,0,0,0,0,0,0,0,0,0,0,0,0,0,0,0,0,0,0,0,0,0,0,0,0,0,0,0,0,0,0,0,0,0,0,0,0,0,0,0,0,0,0,0,0,0,0,0,0,0,0,0,0,0,0,0,0,0,0,0,0,0,0,0,0,0,0,0,0,0,0,0,0,0,0,0,0,1322,1323,0,0,0,0,0,0,0,0,0,0,0,0,0,0,0,0,0,0,0,0,0,0,0,0,0,0,0,0,0,0,0,0,0,0,0,0,0,0,0,0,1322,1323,1322,1323,0,0,1322,1323,0,0,0,0,1559,1560,1561,
0,0,0,0,0,0,0,1176,1177,1178,1179,0,0,0,0,0,0,0,0,0,0,0,0,0,0,0,0,0,0,0,0,0,0,0,0,0,0,2007,2008,0,0,0,0,0,0,0,0,0,0,0,0,0,0,0,0,0,0,0,0,0,0,0,0,0,0,0,0,0,0,0,0,0,0,0,0,0,0,0,0,0,0,0,0,0,0,0,0,0,0,0,0,0,0,0,0,0,0,0,0,0,0,0,0,0,0,0,0,0,0,0,0,0,0,0,0,0,0,0,0,0,0,0,0,0,0,0,0,0,0,0,0,0,0,0,0,0,0,0,0,0,0,0,0,0,0,0,0,0,0,0,0,0,0,0,0,0,0,0,0,0,0,0,0,0,0,0,0,0,0,0,0,0,0,0,0,0,0,0,0,0,0,0,0,0,0,0,0,0,0,0,0,0,0,2007,2008,0,0,0,0,0,0,0,0,0,0,0,0,0,0,0,0,0,0,0,0,0,0,0,0,0,0,0,0,0,0,0,0,0,0,0,0,0,0,0,0,0,1128,1129,1126,1127,0,0,0,0,0,1126,1127,0,0,0,1128,1129,0,0,0,0,
1172,1173,1174,1175,1128,1129,0,0,0,0,0,0,0,0,0,0,1176,1177,1178,1179,0,0,0,0,0,0,0,0,0,0,0,0,0,0,0,0,0,0,0,0,0,0,0,0,0,0,0,0,0,0,0,0,0,0,0,0,0,0,0,0,0,0,0,0,0,0,0,0,0,0,0,0,0,2007,2008,0,0,0,0,0,0,0,0,0,0,0,0,0,0,0,0,0,0,0,0,0,0,0,0,0,0,0,0,0,0,0,0,0,0,0,0,0,0,0,0,0,0,0,0,0,0,0,0,0,0,0,0,0,0,0,0,0,0,0,0,0,0,0,0,0,0,0,0,0,0,0,0,0,0,0,0,0,0,0,0,0,0,0,0,0,0,0,0,0,0,0,0,0,0,0,0,0,0,0,0,0,0,0,0,0,0,0,0,0,0,0,0,0,0,0,0,0,0,0,0,0,0,0,0,0,0,0,0,0,0,0,0,0,0,0,0,0,0,0,0,0,0,0,0,0,0,0,0,0,0,0,0,0,0,0,0,0,0,0,0,0,0,0,0,0,1126,1127,0,1124,1125,0,0,1128,1129,0,0,0,0,0,0,0,
0,0,0,0,0,0,0,0,0,0,0,0,0,0,0,0,0,0,0,0,0,0,0,0,0,0,0,0,0,0,0,0,0,0,0,0,0,0,0,0,0,0,0,0,0,0,0,0,0,0,0,0,0,0,0,0,0,0,0,0,0,0,0,0,0,0,0,0,0,0,0,0,0,0,0,0,0,0,0,0,0,0,0,0,0,0,0,0,0,0,0,0,0,0,0,0,0,0,0,0,0,0,0,0,0,0,0,0,0,0,0,0,0,0,0,0,0,0,0,0,0,0,0,0,0,0,0,0,0,0,0,0,0,0,0,0,0,0,0,0,0,0,0,0,0,0,0,0,0,0,0,0,0,0,0,0,0,0,0,0,0,0,0,0,0,0,0,0,0,0,0,0,0,0,0,0,0,0,0,0,0,0,0,0,0,0,0,0,0,0,0,0,0,0,0,0,0,0,0,0,0,0,0,0,0,0,0,0,0,0,0,0,0,0,0,0,0,0,0,0,0,0,0,0,0,0,0,0,0,0,0,0,0,0,0,0,0,0,0,0,0,0,0,0,0,1124,1125,0,0,1322,1323,1322,1323,1559,1560,1561,
0,0,0,0,0,0,0,0,0,0,0,0,0,0,0,0,0,0,0,0,0,0,0,0,0,0,0,0,0,0,0,0,0,0,0,0,0,0,0,0,0,0,0,0,0,0,0,0,0,0,0,0,0,0,0,0,0,0,0,0,0,0,0,0,0,0,0,0,0,0,1322,1323,0,0,0,0,0,0,0,0,1322,1323,0,0,0,0,0,0,0,0,0,0,0,0,0,0,0,0,0,0,0,0,0,0,0,0,0,0,0,0,0,0,0,0,0,0,0,0,0,0,1124,1125,0,0,0,2007,2008,0,0,0,0,0,0,0,0,0,0,0,0,0,0,0,0,0,0,0,0,0,0,0,0,0,0,0,0,0,0,0,0,0,0,0,0,0,0,0,0,0,0,0,0,0,0,0,0,0,0,0,0,0,0,0,0,0,0,0,0,0,0,0,0,0,0,0,0,0,0,0,0,0,0,0,0,0,0,0,0,0,0,0,0,0,0,0,0,0,0,0,0,0,0,0,0,0,0,0,0,0,0,0,0,0,0,0,0,0,0,0,0,0,0,0,0,1124,1125,0,0,1322,1323,0,0,0,0,0,0,0,
1559,1560,1561,1322,1323,0,0,0,0,0,0,0,0,0,0,0,1172,1173,1174,1175,0,0,0,0,0,0,0,0,0,0,0,0,0,0,0,0,0,0,0,0,0,0,0,0,0,0,0,0,0,0,0,0,0,0,0,0,0,0,0,0,0,0,0,0,0,0,0,0,0,0,0,0,0,0,0,0,0,0,0,0,0,0,0,0,0,0,0,0,0,0,0,0,0,0,0,0,0,0,0,0,0,0,0,0,0,0,0,0,0,0,0,0,0,0,0,0,0,0,0,0,0,0,0,0,0,0,0,0,0,0,0,0,0,2007,2008,0,0,0,0,0,0,0,1322,1323,0,0,0,0,0,0,0,0,0,0,0,0,0,0,0,0,0,0,0,0,0,0,0,0,0,0,0,0,0,0,0,0,0,0,0,0,0,0,0,0,0,0,0,0,0,0,0,0,0,0,0,0,0,0,0,0,0,0,0,0,0,0,0,0,0,0,0,0,0,0,0,1322,1323,0,0,0,0,0,0,0,0,0,0,0,0,0,0,0,0,0,0,0,0,0,0,0,0,0,0,0,0,0,0,0,0,1126,1127,1124,1125,0,0,0,
0,0,0,0,0,0,0,0,0,0,0,0,0,0,0,0,0,0,0,0,0,0,0,0,0,0,0,0,0,0,0,0,0,0,0,0,0,0,0,0,0,0,0,0,0,0,0,0,0,0,0,0,0,0,0,0,0,0,0,0,0,0,0,0,0,0,0,0,0,0,0,0,0,0,0,0,0,0,0,0,0,0,0,0,0,0,0,0,0,0,0,0,0,0,0,0,0,0,0,0,0,0,0,0,0,0,0,0,0,0,0,0,0,0,0,0,0,0,0,0,0,0,0,0,0,0,0,0,0,0,0,0,0,0,0,0,0,0,0,0,0,0,0,0,0,0,0,0,0,0,0,0,0,0,0,0,0,0,0,0,0,0,0,0,0,0,0,0,0,0,0,2007,2008,0,0,0,0,0,0,0,0,0,0,0,0,0,0,0,0,0,0,0,0,0,0,0,0,0,0,0,0,0,0,0,0,0,0,0,0,0,0,0,0,0,0,0,0,0,0,0,0,0,0,0,0,0,0,0,0,0,0,0,0,0,0,0,0,0,0,0,0,0,0,1128,1129,1322,1323,1124,1125,0,0,0,0,1562,1563,1564,
0,0,0,1126,1127,0,0,0,0,0,0,0,0,0,0,0,0,0,0,0,0,0,0,0,0,0,0,0,0,0,0,0,0,0,0,0,0,0,0,0,0,0,0,0,0,0,0,0,0,0,0,0,0,0,0,0,0,0,0,0,0,0,0,0,0,0,0,0,0,0,0,0,0,0,0,0,0,0,0,0,0,0,0,0,0,0,0,0,0,0,0,0,0,0,0,0,0,0,0,0,0,0,0,0,0,0,0,0,0,0,0,0,0,0,0,0,0,0,0,0,0,0,0,0,0,0,0,0,0,0,0,0,0,0,0,0,2007,2008,0,0,0,0,0,0,0,0,0,0,0,0,0,0,0,0,0,0,0,0,0,0,0,0,0,0,0,0,0,0,2007,2008,0,0,0,0,0,0,0,0,0,0,0,0,0,0,0,0,0,0,0,0,0,0,0,0,0,0,0,0,0,0,0,0,0,0,0,0,0,0,0,0,0,0,0,0,0,0,0,0,0,0,0,1322,1323,0,0,0,0,0,0,0,0,0,0,0,0,0,0,1176,1177,1178,1179,0,0,0,0,0,0,0,0,1128,1129,1128,1129,0,0,0,
1565,1566,1567,0,0,0,0,0,0,0,0,0,0,0,0,0,0,0,0,0,0,0,0,0,0,0,0,0,0,0,0,0,0,0,0,0,0,0,0,0,0,0,0,0,0,0,0,0,0,0,0,0,0,0,0,0,0,0,0,0,0,0,0,0,0,0,0,0,0,0,0,0,0,0,0,0,0,0,0,0,0,0,0,0,0,0,0,0,0,0,0,0,0,0,0,0,0,0,0,0,0,0,0,0,0,0,0,0,0,0,0,0,0,0,0,0,0,0,0,0,0,0,0,0,0,0,0,0,0,0,0,0,0,0,0,0,0,0,0,0,0,0,0,0,0,0,0,0,0,0,0,0,0,0,0,0,0,0,0,0,0,0,0,0,0,0,0,0,0,0,0,0,0,0,0,0,0,0,0,0,0,0,0,0,0,0,0,0,0,0,0,0,0,0,0,0,0,0,0,0,0,0,0,0,0,0,0,0,0,0,0,0,0,0,0,0,0,0,0,0,0,0,0,0,0,0,0,0,0,0,0,0,0,0,0,0,0,0,0,0,0,0,1176,1177,1178,1179,1126,1127,0,0,0,0,0,0,0,0,
0,0,0,0,0,0,0,0,0,0,0,0,0,0,0,0,0,0,0,0,0,0,0,0,0,0,0,0,0,0,0,0,0,0,0,0,1322,1323,0,0,2007,2008,0,0,0,0,0,0,0,0,0,0,0,0,0,0,0,0,0,0,0,0,0,0,0,0,0,0,0,0,0,0,0,0,0,0,0,0,0,0,0,0,0,0,0,0,0,0,0,0,0,0,0,0,0,0,0,0,0,0,0,0,0,0,0,0,0,0,0,0,0,0,0,0,0,0,0,0,0,0,0,0,0,0,0,0,0,0,0,0,0,0,0,0,0,0,0,0,0,0,0,1124,1125,0,0,0,0,0,0,0,0,0,0,0,0,0,0,0,0,0,0,0,0,0,0,0,0,0,0,0,0,0,0,0,0,0,0,0,0,0,0,0,0,0,0,0,0,0,0,0,0,0,2007,2008,0,0,0,0,0,0,0,0,0,0,0,0,0,0,0,0,0,0,0,0,0,0,0,0,0,0,0,0,0,0,0,0,0,0,0,0,0,0,0,0,0,0,0,0,0,0,0,0,0,0,0,0,0,0,0,1172,1173,1174,1175,1128,1129,0,
0,0,0,0,0,0,0,0,0,0,0,0,0,0,0,0,0,0,0,0,0,0,0,0,0,0,0,0,0,0,0,0,0,0,0,0,0,0,0,0,0,0,0,0,0,0,0,0,0,0,0,0,0,0,0,0,0,0,0,0,0,0,0,0,0,0,0,0,0,0,0,0,0,1124,1125,0,0,0,0,0,0,0,0,0,0,0,0,0,0,0,0,0,0,0,0,0,0,0,0,0,0,0,0,0,0,0,0,0,0,0,0,0,0,0,0,0,0,0,0,0,0,0,0,0,0,0,0,0,0,0,0,0,0,0,0,0,0,0,0,0,0,0,0,0,0,0,0,0,0,0,0,0,0,0,0,0,0,0,0,0,0,0,0,0,0,0,0,0,0,0,0,0,0,0,0,0,0,0,0,0,0,0,0,0,0,0,0,0,0,0,0,0,0,0,0,0,0,0,0,0,0,0,0,0,0,0,0,0,0,0,0,0,0,0,0,0,0,0,0,0,0,0,0,0,0,0,0,0,0,0,0,0,0,0,0,0,0,0,0,1124,1125,0,0,0,0,0,1124,1125,0,0,0,0,0,0,0,0,
1172,1173,1174,1175,0,0,0,0,0,0,0,0,0,0,0,0,0,0,0,0,0,0,0,0,0,0,0,0,0,0,0,0,0,0,0,0,0,0,0,0,0,0,0,0,0,0,0,0,0,0,0,0,0,0,0,0,0,0,0,0,0,1124,1125,0,0,0,0,0,0,0,0,0,0,0,0,0,0,0,0,0,0,0,0,0,0,0,0,0,0,0,0,0,0,0,0,0,0,0,0,0,0,0,0,0,0,0,0,0,0,0,0,0,0,0,0,0,0,0,0,0,0,0,0,0,0,0,0,0,0,0,0,0,0,0,0,0,0,0,0,0,0,0,0,0,0,0,0,0,0,0,0,0,0,0,0,0,0,0,0,0,0,0,0,0,0,0,0,0,0,0,0,0,0,0,0,0,0,0,0,0,0,0,0,0,0,0,0,0,0,0,0,0,0,0,0,0,0,0,0,0,0,0,0,0,0,0,0,0,0,0,0,0,0,0,0,0,0,0,0,0,0,0,0,0,0,0,0,0,0,0,0,0,0,0,0,0,0,1124,1125,0,0,0,0,1124,1125,0,0,0,0,0,0,0,0,1130,1131,0,
0,0,0,0,0,0,0,0,0,0,0,0,0,0,0,0,0,0,0,0,0,0,0,0,0,0,0,0,0,0,0,0,0,0,0,0,0,0,0,0,0,0,0,0,0,0,0,0,0,0,0,0,0,0,0,0,0,0,0,0,0,0,0,0,0,0,0,0,0,0,0,0,0,0,0,0,0,0,0,0,0,0,0,0,0,0,0,0,0,0,0,0,0,0,0,0,0,0,0,0,0,0,0,0,0,0,0,0,0,0,0,0,0,0,0,0,0,0,0,0,0,0,0,0,0,0,0,0,0,0,0,0,0,0,0,0,0,0,0,2007,2008,0,0,0,0,0,0,0,0,0,0,0,0,0,0,0,0,0,0,0,0,0,0,0,0,0,0,0,0,0,0,0,0,0,0,0,0,0,0,0,0,0,0,0,0,0,0,0,0,0,0,0,0,0,0,0,0,0,0,0,0,0,0,0,0,0,0,0,0,0,0,0,0,0,0,0,0,0,0,0,0,0,0,0,0,0,0,1322,1323,0,0,0,0,0,0,0,0,0,0,0,0,1124,1125,0,0,1176,1177,1178,1179,1172,1173,1174,1175,0,0,0,
0,0,0,0,0,0,0,0,0,0,0,0,0,0,0,0,0,0,0,0,0,0,0,0,0,0,0,0,0,0,0,0,0,0,0,0,0,0,0,0,0,0,0,0,0,0,0,0,0,0,0,0,0,0,0,0,0,0,0,0,0,0,0,0,0,0,0,0,0,0,0,0,0,0,0,0,0,0,0,0,0,0,0,0,0,0,0,0,0,0,0,0,0,0,0,0,0,0,0,0,0,0,0,0,0,0,0,0,0,0,0,0,0,0,0,0,0,0,0,0,0,0,0,0,0,0,0,0,0,0,0,0,0,0,0,0,0,0,0,0,0,0,0,0,0,0,0,0,0,0,0,0,0,0,0,0,0,0,0,0,0,0,0,0,0,0,0,0,0,0,0,0,0,0,0,0,0,0,0,0,0,0,0,0,0,0,0,0,0,1124,1125,0,0,0,0,0,0,0,0,0,0,0,0,0,0,0,0,0,0,0,0,0,0,0,0,0,0,0,0,0,0,0,0,0,0,0,0,0,0,0,0,0,0,0,0,0,1124,1125,0,1322,1323,0,0,1124,1125,0,0,0,0,0,0,0,0,1556,1557,1558,
1562,1563,1564,0,0,0,0,0,0,0,0,0,0,0,0,0,0,0,0,0,0,0,0,0,0,0,0,0,0,0,0,0,0,0,0,0,0,0,0,0,0,0,0,0,0,0,0,0,0,0,0,0,0,0,0,0,0,0,0,0,0,0,0,0,0,0,0,0,0,0,0,0,0,0,0,0,0,0,0,0,0,0,0,0,0,0,0,0,0,0,0,0,0,0,0,0,0,0,0,0,0,0,0,0,0,0,0,0,0,0,0,0,0,0,0,0,0,0,0,0,0,0,0,0,0,0,0,0,0,0,0,0,0,0,0,0,0,0,0,0,0,0,0,0,0,0,0,0,0,0,0,0,0,0,0,0,0,0,0,0,0,0,0,0,0,0,0,0,0,0,0,0,0,0,0,0,0,0,0,0,0,0,0,0,0,0,0,0,0,0,0,0,0,0,0,0,0,0,0,0,0,0,0,0,0,0,0,0,0,0,0,0,0,0,0,0,0,0,0,0,0,0,0,0,0,0,0,0,0,0,0,0,0,0,0,0,0,0,0,0,0,1124,1125,0,0,0,0,0,0,0,0,0,0,0,0,0,
0,0,0,0,0,0,0,0,0,0,0,0,0,0,0,0,0,0,0,0,0,0,0,0,0,0,0,0,0,0,0,0,0,0,0,0,0,0,0,0,0,0,0,0,0,0,0,0,0,0,0,0,0,0,0,0,0,0,0,0,0,0,0,0,0,0,0,0,0,0,0,0,0,0,0,0,0,0,0,0,0,0,0,0,0,0,0,0,0,0,0,0,0,0,0,0,0,0,0,0,0,0,0,0,0,0,0,0,0,0,0,0,0,0,0,0,0,0,0,0,0,0,0,0,0,0,0,0,0,0,0,0,0,0,0,0,0,0,0,0,0,0,0,0,0,0,0,0,0,0,0,0,0,0,0,0,0,0,0,0,0,0,0,0,0,0,0,0,0,0,0,0,0,0,0,0,0,0,0,0,0,0,0,0,0,0,0,0,0,0,0,0,0,0,0,0,0,0,0,0,0,0,0,0,0,0,0,0,0,0,0,0,0,0,0,0,0,0,0,0,0,0,0,0,0,0,0,0,0,0,0,0,0,0,0,0,0,1322,1323,0,0,0,0,0,0,1176,1177,1178,1179,0,0,0,0,0,0,0,
0,0,0,0,0,0,0,0,0,0,0,0,0,0,0,0,0,0,0,0,0,0,0,0,0,0,0,0,0,0,0,0,0,0,0,0,0,0,0,0,0,0,0,0,0,0,0,0,0,0,0,0,0,0,0,0,0,0,0,0,0,0,0,0,0,0,0,0,1124,1125,0,0,0,0,0,0,0,0,0,0,0,0,0,0,0,0,0,0,0,0,0,0,0,0,0,0,0,0,0,0,0,0,0,0,0,0,0,0,0,0,0,0,0,0,0,0,0,0,0,0,0,0,0,0,0,0,0,0,1322,1323,0,0,0,0,0,0,0,0,0,0,0,0,0,0,0,0,0,0,0,0,0,0,0,0,0,0,0,0,0,0,0,0,0,0,0,0,0,0,0,0,0,0,0,0,0,0,0,0,0,0,0,0,0,0,0,0,0,0,0,0,0,0,0,0,0,0,0,0,0,0,0,0,0,0,0,0,0,0,0,0,0,0,0,0,0,0,0,0,0,1322,1323,0,0,0,0,0,0,0,0,0,0,0,0,0,0,0,0,0,0,1128,1129,0,1128,1129,0,0,0,0,0,0,0,0,0,1556,1557,1558,
1176,1177,1178,1179,0,0,0,0,0,0,0,0,0,0,0,0,0,0,0,0,0,0,0,0,0,0,0,0,0,0,0,0,0,0,0,0,0,0,0,0,0,0,0,0,0,0,0,0,0,0,0,0,0,0,0,0,0,0,0,0,0,0,0,0,0,0,0,0,0,0,0,0,0,0,0,0,0,0,0,0,0,0,0,0,0,0,0,0,0,0,0,0,0,0,0,0,0,0,0,0,0,0,0,0,0,0,0,0,0,0,0,0,0,0,0,0,0,0,0,0,0,0,0,0,0,0,0,0,0,0,0,0,0,0,0,0,0,0,0,0,0,0,0,0,0,0,0,0,0,0,0,0,0,0,0,0,0,0,0,0,0,2007,2008,0,0,0,0,0,0,0,0,0,0,0,0,0,0,0,0,0,0,0,0,0,0,0,0,0,0,0,0,0,0,0,0,0,0,0,0,0,0,0,0,0,0,0,0,0,0,0,0,0,2007,2008,0,0,0,0,0,0,0,0,0,0,0,0,0,0,0,0,0,0,0,0,0,0,0,1128,1129,0,0,0,0,0,0,0,0,0,0,0,0,0,0,0,0,0,
0,0,0,0,0,0,0,0,0,0,0,0,0,0,0,0,0,0,0,0,0,0,0,0,0,0,0,0,0,0,0,0,0,0,0,0,0,0,0,0,0,0,0,0,0,0,0,0,0,0,0,0,0,0,0,0,0,0,0,0,0,0,0,0,0,0,0,0,0,0,0,0,0,0,0,0,0,0,0,0,0,0,0,0,0,0,0,0,0,0,0,0,0,0,0,0,0,0,0,0,0,0,0,0,0,0,0,0,0,0,0,0,0,0,0,0,0,0,0,0,0,0,0,0,0,0,0,0,0,0,0,0,0,0,1124,1125,0,0,0,0,0,0,0,0,0,0,0,0,0,0,0,0,0,0,0,0,2007,2008,0,0,0,0,0,0,0,0,0,0,0,0,0,0,0,0,0,0,0,0,0,0,0,0,0,0,0,0,0,0,0,0,0,0,0,0,0,0,0,0,0,0,0,0,0,0,0,0,0,0,0,0,0,0,0,0,0,0,0,0,0,0,0,0,0,0,0,0,0,0,0,0,0,0,0,0,0,0,0,0,0,0,1176,1177,1178,1179,1176,1177,1178,1179,1126,1127,0,0,0,0,0,0,
0,0,0,0,0,0,0,0,0,0,0,0,0,0,0,1176,1177,1178,1179,0,0,0,0,0,0,0,0,0,0,0,0,0,0,0,0,0,0,0,0,0,0,0,0,0,0,0,0,0,0,0,0,0,0,0,0,0,0,0,0,0,0,0,0,0,0,0,0,0,0,0,0,0,0,0,0,0,0,0,0,0,0,0,0,0,0,0,0,0,0,2007,2008,0,0,0,0,0,0,0,0,0,0,0,0,0,0,0,0,0,0,0,0,0,0,0,0,0,0,0,0,0,0,0,0,0,0,0,0,0,0,0,0,0,0,0,0,0,0,0,0,0,0,0,0,0,0,0,0,0,0,0,0,0,0,0,0,0,0,0,0,0,0,0,0,0,0,0,0,0,0,0,0,0,0,0,0,0,0,0,0,0,0,0,0,0,0,0,0,0,0,0,0,0,0,0,0,0,0,0,0,0,0,0,0,0,0,0,0,0,0,0,0,0,0,0,0,0,0,0,0,0,0,0,0,0,0,0,0,0,0,0,0,0,0,0,0,0,0,0,1126,1127,0,0,0,0,0,0,0,0,0,0,0,0,0,1322,1323,0,
1128,1129,1565,1566,1567,0,0,0,0,0,0,0,0,0,0,0,0,0,0,0,0,0,0,0,0,0,0,0,0,0,0,0,0,0,0,0,0,0,0,0,0,0,0,0,0,0,0,0,0,0,0,0,0,0,0,0,0,0,0,0,0,0,0,0,0,0,0,0,0,0,0,0,0,0,0,0,0,0,0,0,0,0,0,0,0,0,0,0,0,0,0,0,0,0,0,0,0,0,0,0,0,0,0,0,0,0,0,0,0,0,0,0,0,0,0,0,0,0,0,0,0,0,0,0,0,0,0,0,0,0,0,0,0,0,0,0,0,0,0,0,0,0,0,0,0,0,0,0,0,0,0,0,0,0,0,1322,1323,0,0,2007,2008,0,0,0,0,0,0,0,0,0,0,0,0,0,0,0,0,0,0,0,0,0,0,0,0,0,0,0,0,0,0,0,0,0,0,0,0,0,0,0,0,0,0,0,0,0,0,0,0,0,0,0,0,0,0,0,0,0,0,0,0,0,0,0,0,0,0,0,0,0,0,0,0,0,0,0,0,0,0,0,0,0,0,0,0,0,0,0,1176,1177,1178,1179,0,0,0,0,
0,0,0,0,0,1128,1129,0,0,0,0,0,0,1124,1125,0,0,0,0,0,0,0,0,0,0,0,0,0,0,0,0,0,0,0,0,0,0,0,0,0,0,0,0,0,0,0,0,0,0,0,0,0,0,0,0,0,0,0,0,0,0,0,0,0,0,0,0,0,0,0,0,0,0,0,0,0,0,0,0,0,0,0,0,0,0,0,0,0,0,0,0,0,0,0,0,0,0,0,0,0,0,0,0,0,0,0,0,0,0,0,0,0,0,0,0,0,0,2007,2008,0,0,0,0,0,0,0,0,0,0,0,0,0,0,0,0,0,0,0,0,0,0,0,0,0,0,0,0,0,0,0,0,0,0,0,0,0,0,0,0,0,0,0,0,0,0,0,0,0,0,0,0,0,0,0,0,0,0,0,0,0,0,0,0,0,0,0,0,0,0,0,0,0,0,0,0,0,0,0,0,0,0,0,0,0,0,0,0,0,0,0,0,0,0,0,0,0,0,0,0,0,0,0,0,0,0,0,0,0,0,0,0,0,0,0,0,0,0,0,1126,1127,0,1126,1127,0,1128,1129,1128,1129,0,0,0,0,0,1130,1131,0,
1126,1127,0,0,0,0,0,1176,1177,1178,1179,0,0,0,0,0,1322,1323,0,0,0,0,0,0,0,0,0,0,0,0,0,0,0,0,0,0,0,0,0,0,0,0,0,0,0,0,0,0,0,0,0,0,0,0,0,0,0,0,0,0,0,0,0,0,0,0,0,0,0,0,0,0,0,0,0,0,0,0,0,0,0,0,0,0,0,0,0,0,0,0,0,0,2007,2008,0,0,0,0,0,0,0,0,0,0,0,0,0,0,0,0,0,0,0,0,0,0,0,0,0,0,0,0,0,0,0,0,0,0,0,0,0,0,0,0,0,0,0,0,0,0,0,0,0,0,0,0,0,0,0,0,0,0,0,0,0,0,0,0,0,0,0,0,0,0,0,0,0,0,0,0,0,0,0,0,0,0,0,0,0,0,0,0,0,0,0,0,0,0,0,0,0,0,0,0,0,0,0,0,0,0,0,0,0,0,0,0,0,0,0,0,0,0,0,0,0,0,0,0,0,0,0,0,0,0,0,0,0,0,0,0,0,0,0,0,0,0,0,0,0,0,0,0,0,0,0,0,0,0,0,0,0,0,0,0,0,0,
0,0,1176,1177,1178,1179,0,0,0,0,0,1172,1173,1174,1175,0,0,0,0,0,0,0,0,0,0,0,0,0,0,0,0,0,0,0,0,0,0,0,0,0,0,0,0,0,0,0,0,0,0,0,0,0,0,0,0,0,0,0,0,1124,1125,0,0,0,0,0,0,0,0,0,0,0,0,0,0,0,0,0,1124,1125,0,0,0,0,0,0,0,0,0,0,0,0,0,0,0,0,0,0,0,0,0,0,0,0,0,0,0,0,0,0,0,0,0,0,0,0,0,0,0,0,0,0,0,0,0,0,0,0,0,0,0,0,0,0,0,0,0,0,0,0,0,0,0,0,0,0,0,0,0,0,0,0,0,0,0,0,0,0,0,0,0,0,0,0,0,0,0,2007,2008,0,0,0,0,0,0,0,0,0,0,0,0,0,0,0,0,0,0,0,0,0,0,0,0,0,0,0,0,0,0,0,0,0,0,0,0,0,0,0,0,0,0,0,0,1322,1323,0,0,0,0,0,1124,1125,0,0,0,0,0,0,0,0,0,0,0,0,0,0,0,0,1128,1129,1126,1127,0,1126,1127,0,1176,1177,1178,1179,1126,1127,0,1128,1129,0,
1124,1125,0,0,0,0,0,0,0,0,0,0,0,0,0,0,1176,1177,1178,1179,0,0,0,0,0,0,0,0,0,0,0,0,0,0,0,0,0,0,0,0,0,0,0,0,0,0,0,0,0,0,0,0,0,0,0,0,0,0,0,0,0,0,0,0,0,0,0,0,0,0,0,0,0,0,0,0,0,0,0,0,0,0,0,0,0,0,0,0,0,0,0,0,0,0,2007,2008,0,0,0,0,0,0,0,0,0,0,0,0,0,0,0,0,0,0,0,0,0,0,0,0,0,0,0,0,0,0,0,0,0,0,0,0,0,0,0,2007,2008,0,0,0,0,0,0,0,0,0,0,0,0,0,0,0,0,0,1322,1323,0,0,0,0,0,0,0,0,0,0,0,0,0,0,0,0,0,0,0,0,0,0,0,0,0,0,0,0,0,0,0,0,0,0,0,0,0,0,0,0,0,0,0,0,0,0,0,0,0,0,0,0,0,0,0,0,0,0,0,0,0,0,0,0,0,0,0,0,0,0,0,0,0,0,0,0,0,0,0,0,0,0,0,0,0,0,0,0,0,0,0,0,0,0,0,0,0,0,0,0,
0,0,0,0,0,0,1124,1125,1128,1129,0,0,0,0,0,0,0,0,0,0,0,0,0,0,0,0,0,0,0,0,0,0,0,0,0,0,0,0,0,0,0,0,0,0,0,0,0,0,0,0,0,0,0,0,0,0,0,0,0,0,0,0,0,0,0,0,0,0,0,0,0,0,0,0,0,0,0,0,0,0,0,0,0,1322,1323,0,0,0,0,0,0,0,0,0,0,0,0,0,0,0,0,0,0,0,0,0,0,0,0,1322,1323,0,0,0,0,0,0,0,0,0,0,0,0,0,0,0,0,0,0,0,0,0,0,0,0,0,0,2007,2008,0,0,0,0,0,0,0,0,0,0,0,0,0,0,0,0,0,0,0,0,0,0,0,0,0,0,0,0,0,0,0,0,0,0,0,0,0,0,0,0,0,0,0,0,0,0,0,0,0,0,0,0,0,0,0,0,0,0,0,0,0,0,0,0,0,0,0,0,0,0,0,0,0,0,0,0,0,0,0,0,0,0,0,0,0,0,0,0,0,0,0,0,0,0,0,0,0,0,0,0,0,0,1176,1177,1178,1179,0,0,0,0,0,0,0,0,1130,1131,0,
1124,1125,1130,1131,1322,1323,0,0,0,0,0,1126,1127,0,1124,1125,0,0,0,0,0,0,0,0,1124,1125,0,0,0,0,0,0,0,0,0,0,0,0,0,0,0,0,0,1124,1125,0,0,0,0,0,0,0,0,0,0,0,0,0,0,0,0,0,0,0,0,0,0,0,0,0,0,0,0,0,0,0,0,0,0,0,0,0,0,0,0,0,0,0,0,0,0,0,0,0,0,0,0,0,0,0,0,0,0,0,0,0,0,0,0,0,0,0,0,0,0,0,0,0,0,0,0,0,0,0,0,0,0,0,0,0,0,0,0,0,0,0,0,0,0,0,0,0,0,0,2007,2008,0,0,0,0,0,0,1124,1125,0,0,0,0,0,0,0,0,0,0,0,0,0,0,0,0,0,0,0,0,0,0,0,0,0,0,0,0,0,0,0,0,0,0,0,0,0,0,0,0,0,0,0,0,0,0,0,0,0,0,0,0,0,0,0,0,0,0,0,0,0,0,0,0,0,0,0,0,0,0,0,0,0,0,0,0,0,0,0,0,0,0,1126,1127,0,1322,1323,0,0,0,0,1322,1323,1176,1177,1178,1179,0,0,0,0,0,
0,0,0,0,0,0,0,1322,1323,1124,1125,0,0,0,0,0,1128,1129,0,0,0,0,0,0,0,0,0,0,0,0,0,0,0,0,0,0,0,0,0,0,0,0,0,0,0,0,0,0,0,0,0,0,0,0,0,0,1322,1323,0,0,0,0,0,0,0,0,0,0,0,0,0,0,0,0,0,0,0,0,0,0,0,0,0,0,0,0,0,0,0,0,0,0,0,0,0,0,0,0,0,0,0,0,0,0,0,0,0,0,0,0,0,0,0,0,0,0,0,0,0,0,0,0,0,0,0,0,0,0,0,0,0,0,0,0,0,0,0,0,0,0,0,0,0,0,0,0,0,0,0,0,2007,2008,0,0,0,0,0,0,0,0,0,0,0,0,0,0,0,0,0,0,0,0,0,0,0,0,0,0,0,0,0,0,0,0,0,0,0,0,0,0,0,0,0,0,0,0,0,0,0,0,0,0,0,0,0,0,0,0,0,0,0,0,0,0,0,0,0,0,0,0,0,0,0,0,0,0,0,0,0,0,0,2007,2008,0,0,0,0,0,0,0,0,0,0,0,0,0,0,0,0,0,0,0,0,1130,1131,0,
1128,1129,1130,1131,1128,1129,0,0,0,0,0,0,0,1128,1129,0,0,0,0,0,0,0,0,0,0,0,0,0,0,0,0,0,0,0,0,0,0,0,0,0,0,0,0,0,0,0,0,0,0,0,0,0,0,0,0,0,0,0,0,0,0,0,0,0,0,0,0,0,1124,1125,0,2007,2008,0,0,0,0,0,0,0,0,0,0,0,0,0,0,0,0,0,0,0,0,0,0,1124,1125,0,0,0,0,0,0,0,0,0,0,0,0,0,0,0,0,0,0,0,0,0,0,0,0,0,0,0,0,0,0,0,0,0,0,0,0,0,0,0,0,0,0,0,0,0,0,0,0,0,0,0,2007,2008,0,0,0,0,0,0,0,0,0,0,0,0,0,0,0,0,0,0,0,0,0,0,0,0,0,0,0,0,0,0,0,0,0,0,0,0,0,0,0,0,0,0,0,0,0,0,0,0,0,0,0,0,0,0,0,0,0,0,0,0,2007,2008,0,0,0,0,0,0,0,0,0,0,0,0,0,0,0,0,0,0,0,0,0,0,0,0,0,0,1172,1173,1174,1175,1128,1129,1322,1323,0,0,0,0,0,0,0,0,0,0,
0,0,0,0,0,0,1176,1177,1178,1179,1126,1127,0,0,0,1124,1125,0,0,0,0,0,0,0,0,0,0,0,0,0,0,0,0,0,0,0,0,0,0,0,0,0,0,0,0,0,0,0,0,0,0,0,0,0,0,0,0,0,0,0,0,0,0,0,0,0,0,0,0,0,0,0,0,0,0,0,0,0,0,0,0,0,0,0,0,0,0,0,0,0,0,0,0,0,0,0,0,0,0,0,0,0,0,0,0,0,0,0,0,0,0,0,0,0,0,0,0,0,0,0,0,0,0,0,0,0,0,0,0,0,0,0,0,0,0,0,0,0,0,0,0,0,0,0,0,0,0,0,0,0,0,0,0,0,0,0,0,0,0,0,0,0,1322,1323,0,0,0,0,0,0,0,0,0,0,0,0,0,0,0,0,0,0,0,0,0,0,0,0,0,0,0,0,0,0,0,0,0,0,0,0,0,0,0,0,0,0,0,0,0,0,0,0,0,0,0,0,0,0,0,0,0,0,0,0,0,0,0,0,0,0,0,0,0,0,0,0,0,0,0,0,0,0,0,0,0,0,0,0,0,0,0,0,0,1124,1125,0,
1126,1127,1128,1129,1128,1129,0,0,0,0,0,0,0,1126,1127,0,0,1172,1173,1174,1175,0,0,0,0,0,0,0,0,0,0,0,0,0,0,0,0,0,0,0,0,0,0,0,0,0,0,0,0,0,0,0,0,0,0,0,0,0,0,0,0,0,0,0,0,0,0,0,0,0,0,0,0,0,0,0,0,0,0,0,0,0,0,0,0,0,0,0,0,0,0,0,0,0,0,0,0,0,0,0,0,0,0,0,0,0,0,0,0,0,0,0,0,0,0,0,0,0,0,0,0,0,0,0,0,0,0,0,0,0,0,0,0,0,0,0,0,0,0,0,0,0,1124,1125,0,2007,2008,0,0,0,0,0,0,0,0,0,0,0,0,0,0,0,0,0,0,0,0,0,0,0,0,0,0,0,0,0,0,0,0,0,0,0,0,0,0,0,0,0,0,0,0,0,0,0,0,0,0,0,0,0,0,0,0,0,0,0,0,0,0,0,0,0,0,0,0,0,0,0,0,0,0,0,0,0,0,0,0,0,0,0,0,0,0,0,0,0,0,0,0,0,0,0,0,0,1322,1323,1172,1173,1174,1175,1124,1125,0,0,0,0,
0,0,0,0,0,0,0,0,0,0,0,0,0,0,0,0,0,0,0,0,0,0,0,0,0,0,0,0,0,0,0,0,0,0,0,0,0,0,0,0,0,0,0,0,0,0,0,0,0,0,0,0,0,0,0,0,0,2274,2275,2276,0,1859,1860,1861,0,0,0,0,2007,2008,0,0,0,0,0,0,0,0,0,0,0,0,0,0,0,0,0,0,0,0,0,0,0,0,0,0,0,0,0,0,0,0,0,0,0,0,0,0,0,0,0,0,0,0,0,0,0,0,0,0,0,0,0,0,0,0,0,0,0,0,0,0,0,0,0,0,0,0,0,2007,2008,0,0,0,0,0,0,0,0,0,0,0,0,0,0,0,0,0,0,1124,1125,0,0,0,0,0,0,0,0,0,0,0,0,0,0,0,0,0,0,0,1322,1323,0,0,0,0,0,0,0,0,0,0,0,0,0,0,0,0,0,0,0,0,1322,1323,0,0,0,0,0,0,0,0,0,0,0,0,0,0,0,0,0,0,0,0,0,0,0,0,0,0,0,0,0,0,0,1128,1129,0,0,1124,1125,0,0,0,0,0,0,0,0,0,0,0,0,1556,1557,1558,
1562,1563,1564,1128,1129,1128,1129,1124,1125,0,1128,1129,1172,1173,1174,1175,0,0,0,0,0,0,0,0,0,0,0,0,0,0,0,0,0,0,0,0,0,0,0,0,0,0,0,0,0,0,0,0,0,0,0,0,0,0,0,0,0,0,0,0,0,0,0,0,0,0,0,0,0,0,0,0,0,0,0,0,0,0,0,0,0,0,0,0,0,0,0,0,0,0,0,0,0,0,0,0,0,0,0,0,0,0,0,0,0,0,0,0,0,0,0,0,0,0,0,0,0,0,0,0,0,0,0,0,0,0,0,0,0,0,0,0,0,0,0,0,0,0,0,0,0,0,0,0,0,0,0,0,0,0,0,0,0,0,0,0,0,0,0,0,0,0,0,0,0,0,0,0,0,0,0,0,0,0,0,0,0,0,0,0,0,0,0,0,0,0,0,0,0,0,0,0,0,0,0,0,0,0,0,0,0,0,0,0,0,0,0,0,0,0,0,0,0,0,0,0,0,0,1322,1323,0,0,0,0,0,0,0,0,0,0,0,0,0,0,0,0,0,0,0,0,0,1176,1177,1178,1179,0,0,0,0,0,1128,1129,0,0,0,0,
0,0,0,0,0,0,0,0,0,0,0,0,0,0,0,0,0,0,0,0,0,0,0,0,0,0,0,0,0,0,0,0,0,0,0,0,0,0,0,0,0,0,0,0,0,0,0,0,0,0,0,0,0,0,0,0,0,0,0,0,0,0,0,0,0,0,0,0,0,0,0,0,0,0,0,0,0,0,0,0,0,0,0,0,0,0,0,0,0,0,0,0,0,0,0,0,0,0,0,0,0,0,0,0,0,0,0,0,0,0,0,0,0,0,1322,1323,0,0,0,0,0,0,0,0,0,0,0,0,0,0,0,0,0,0,0,0,0,0,0,0,0,0,0,0,0,0,0,0,0,0,0,0,0,0,0,0,0,0,0,0,0,0,0,0,0,0,0,0,0,0,0,0,1124,1125,0,0,0,0,0,0,0,0,0,0,0,0,0,0,0,0,0,0,0,0,0,0,0,0,0,0,0,0,0,0,0,0,0,0,0,0,0,0,0,0,0,0,0,0,0,0,0,0,0,0,0,0,0,0,0,0,0,0,0,0,0,0,0,1172,1173,1174,1175,0,0,0,0,0,0,1124,1125,0,0,0,0,0,0,0,
0,0,0,0,1128,1129,1124,1125,1176,1177,1178,1179,0,0,0,0,1124,1125,0,0,0,0,0,0,0,0,0,0,0,0,0,0,0,0,0,0,0,0,0,0,0,0,0,0,0,0,0,0,0,0,0,0,0,0,0,0,0,0,0,0,0,0,0,0,0,0,0,0,2007,2008,0,0,0,0,0,0,0,0,0,0,0,0,0,0,0,0,0,0,0,0,0,0,0,0,0,0,0,0,0,0,0,1322,1323,0,0,0,0,0,0,0,0,0,0,0,0,0,0,1322,1323,0,0,0,0,0,0,0,0,0,0,0,0,0,0,0,0,0,0,0,0,0,0,0,0,0,0,0,0,0,0,0,0,0,0,0,0,0,0,0,0,0,0,0,0,0,0,0,0,1322,1323,0,0,0,0,0,0,0,0,0,0,0,0,0,0,0,0,0,0,0,0,0,0,0,0,0,0,0,0,0,0,0,0,0,0,0,0,0,0,0,0,0,0,0,0,0,0,0,0,0,0,0,0,0,0,0,0,0,0,0,0,0,0,0,0,0,0,0,0,0,0,0,0,0,0,0,0,1322,1323,0,0,1124,1125,0,0,1128,1129,0,
1172,1173,1174,1175,0,0,0,0,0,0,0,0,0,0,0,0,0,0,0,0,0,2274,2275,2276,0,0,0,0,0,0,0,0,0,0,0,0,0,0,0,0,0,1651,1652,1653,0,0,0,0,0,0,0,0,0,0,0,0,0,0,0,0,0,0,0,0,0,0,0,0,0,0,0,0,0,0,0,0,0,0,0,0,0,0,0,0,0,0,0,0,0,0,0,0,0,0,0,0,0,0,0,0,0,0,0,0,0,0,0,0,0,0,0,0,0,0,0,0,0,0,0,0,0,0,0,0,0,0,0,0,0,0,0,0,0,0,0,0,0,0,0,0,0,0,0,0,0,0,0,0,0,0,0,0,0,0,0,0,0,0,0,0,0,0,0,0,0,0,0,0,0,0,0,0,0,0,0,0,0,0,0,0,0,0,0,0,0,0,0,0,0,0,0,0,0,0,0,0,0,0,0,0,0,0,0,0,0,0,0,0,0,0,0,0,0,0,0,0,0,0,0,0,0,0,0,0,2007,2008,0,0,0,0,0,0,0,0,0,0,0,0,0,0,0,1176,1177,1178,1179,0,0,1128,1129,0,0,1128,1129,0,0,0,
0,0,0,0,1172,1173,1174,1175,0,0,0,0,0,0,0,0,1126,1127,0,0,0,0,0,0,0,0,0,0,0,0,0,0,0,0,0,0,0,0,0,0,0,0,0,0,0,0,0,0,0,0,0,0,0,0,0,0,0,0,0,0,0,0,0,0,0,0,0,0,0,0,0,0,0,0,0,0,1628,1629,1630,1631,0,0,0,0,0,0,0,0,0,0,0,0,0,0,0,2007,2008,0,0,0,0,0,0,0,0,0,0,0,0,0,0,0,0,0,0,0,0,0,0,0,0,0,0,0,0,0,0,0,0,0,0,0,0,0,0,0,0,0,0,0,0,0,0,0,0,0,0,0,0,0,0,0,0,0,0,0,0,0,0,0,0,0,0,0,0,0,0,0,0,0,0,0,0,0,0,0,0,0,0,0,0,0,0,0,0,0,0,0,0,0,0,0,0,0,0,0,0,0,0,1632,1633,1634,1635,0,0,0,0,0,0,0,0,0,0,0,0,0,0,0,0,0,0,0,0,0,0,0,0,0,0,0,0,0,0,0,0,0,0,1124,1125,0,0,0,0,0,0,0,0,0,0,1126,1127,0,0,1562,1563,1564,
0,0,0,0,0,0,0,0,0,0,0,0,0,0,0,0,0,0,0,0,0,0,0,0,0,0,0,0,0,0,0,0,0,0,0,0,0,0,0,0,0,0,0,0,0,0,0,0,0,0,0,0,0,0,0,0,0,0,0,0,0,0,0,0,0,0,0,0,0,0,0,0,0,0,0,0,0,0,0,0,0,0,0,0,0,0,0,0,0,0,0,0,0,0,0,0,0,0,0,0,0,0,0,0,0,0,0,0,0,0,0,0,0,0,0,0,0,0,0,0,0,0,0,0,0,0,0,0,0,0,0,0,0,0,0,0,0,0,0,0,0,0,0,0,0,0,0,0,0,0,0,0,0,0,0,0,0,0,0,0,0,0,0,0,0,0,0,0,0,0,0,0,0,0,0,0,0,0,0,0,0,0,0,0,0,0,0,0,0,0,0,0,0,0,0,0,0,0,0,0,0,0,0,0,0,0,0,0,0,0,0,0,0,0,0,0,0,0,0,0,0,0,0,0,0,0,0,0,0,0,0,0,0,0,0,0,0,0,0,1126,1127,0,0,0,0,1322,1323,0,0,0,0,1126,1127,0,0,0,
1556,1557,1558,0,0,0,0,0,1128,1129,0,0,0,0,0,0,0,1176,1177,1178,1179,0,0,0,0,0,0,0,0,0,0,0,0,0,0,0,0,0,0,0,0,0,0,0,0,0,0,0,0,0,0,0,0,0,0,0,0,0,0,0,0,0,0,0,0,0,0,0,0,0,0,0,0,0,0,0,0,0,0,0,0,0,2007,2008,0,0,0,0,0,0,0,0,0,0,0,0,0,0,0,0,0,0,0,0,0,0,0,0,0,0,0,0,0,0,0,0,0,0,0,0,0,0,0,0,0,0,0,0,0,0,0,0,0,0,0,0,0,0,0,0,0,0,0,0,0,0,0,0,0,0,0,0,0,0,0,0,0,0,0,0,0,0,0,0,0,0,0,0,0,0,0,0,0,0,0,0,0,0,0,0,0,0,0,0,0,0,0,0,0,0,0,0,0,0,0,0,0,0,0,0,0,0,0,0,0,0,0,0,0,0,0,0,0,0,0,0,0,0,0,0,0,0,0,0,0,0,0,0,0,0,0,0,0,0,0,0,0,0,0,0,0,0,0,1322,1323,0,0,1322,1323,1126,1127,0,0,0,0,0,
0,0,0,1322,1323,1322,1323,0,0,0,0,0,1128,1129,0,1124,1125,0,0,0,0,0,0,0,0,0,0,0,0,0,0,0,0,0,0,0,0,0,0,0,0,0,0,0,0,0,0,0,0,0,0,0,0,0,0,0,0,0,0,0,0,0,0,0,0,0,0,0,0,0,0,0,0,0,0,0,0,0,0,0,0,0,0,0,0,0,0,0,0,0,0,0,0,0,0,0,0,0,0,0,0,2274,2275,2276,0,0,0,0,0,0,0,0,0,0,0,0,0,0,0,0,0,0,0,0,0,0,1632,1633,1634,1635,0,0,0,0,0,0,0,0,0,0,0,0,0,0,0,0,0,0,0,0,0,0,0,0,0,0,0,0,0,0,0,0,0,0,0,0,0,0,0,0,0,0,0,0,0,0,0,0,0,0,0,0,0,0,0,0,0,0,1124,1125,0,0,0,1322,1323,0,0,0,0,0,0,0,0,0,0,0,0,0,0,0,0,0,0,0,0,0,1859,1860,1861,0,0,0,0,0,0,0,0,0,0,2007,2008,0,0,0,0,1176,1177,1178,1179,1128,1129,1124,1125,0,0,1126,1127,0,0,0,0,1128,1129,1562,1563,1564,
0,0,0,0,0,0,0,0,0,0,0,0,0,0,0,0,0,0,0,0,0,0,0,0,0,0,0,0,0,0,0,0,0,0,0,0,0,0,0,0,0,0,0,0,0,0,0,0,0,0,0,0,0,0,0,0,0,0,0,0,0,0,0,0,0,0,0,0,0,0,0,0,0,0,0,0,0,0,0,0,0,0,0,0,0,0,0,0,0,0,0,0,0,0,0,0,0,0,0,0,0,0,0,0,0,0,0,0,0,0,0,0,0,0,0,0,0,0,0,0,2115,2116,2117,2118,0,0,0,0,0,0,0,0,0,0,0,0,0,0,0,0,0,0,0,0,0,0,0,0,0,0,0,0,0,0,0,0,0,0,0,0,0,0,0,0,0,0,0,0,0,0,0,0,0,0,0,0,0,0,0,0,0,0,0,0,0,0,0,0,0,0,0,0,0,0,0,0,0,0,0,0,0,0,0,0,0,0,0,0,0,0,0,0,0,0,0,0,0,0,0,0,0,0,0,0,0,0,0,0,0,0,0,2007,2008,0,0,0,0,0,0,0,0,0,0,0,0,0,0,0,1124,1125,0,0,0,0,0,0,
1562,1563,1564,0,1172,1173,1174,1175,1124,1125,0,0,1176,1177,1178,1179,0,1126,1127,0,0,0,0,0,0,0,0,0,0,0,0,0,0,0,0,0,0,0,0,0,0,0,0,0,0,0,0,0,0,0,2007,2008,0,0,0,0,0,0,0,0,0,0,0,0,0,0,0,0,0,0,0,0,0,0,0,0,0,0,0,0,0,0,0,0,0,0,0,0,0,0,0,0,0,0,0,0,0,0,0,0,0,0,0,0,0,0,0,0,0,0,0,0,0,0,0,1322,1323,0,0,0,2148,2149,2150,2151,0,0,0,0,0,0,0,0,0,0,0,0,0,0,0,0,0,0,0,0,0,0,0,1124,1125,0,0,0,0,0,0,0,0,0,0,0,0,0,0,0,0,2007,2008,0,0,0,0,0,0,0,0,0,1632,1633,1634,1635,0,0,0,0,0,0,0,0,0,0,0,0,0,0,0,0,0,0,0,0,0,0,0,0,0,0,0,0,0,0,0,0,0,0,0,0,0,0,0,0,0,0,0,0,0,0,0,0,0,0,0,0,0,0,0,0,0,0,0,1172,1173,1174,1175,1322,1323,1124,1125,0,0,0,0,1124,1125,0,0,0,
0,0,0,0,0,0,0,0,0,0,1124,1125,0,0,0,0,0,0,0,0,0,0,0,0,0,0,0,0,0,0,0,0,0,0,0,0,0,0,0,0,0,0,0,0,0,0,0,0,0,0,0,0,0,0,0,0,0,0,0,0,0,0,0,0,0,0,0,0,0,0,0,0,0,0,0,0,0,0,0,0,0,0,0,0,0,0,0,0,0,0,0,0,0,0,0,0,0,0,0,0,0,0,0,0,0,0,0,0,0,0,0,0,0,0,0,0,0,0,0,0,0,0,0,0,0,0,0,0,0,0,0,0,2274,2275,2276,0,0,0,0,0,0,0,0,0,0,0,0,0,0,0,0,0,0,0,0,0,0,0,0,0,0,0,0,0,0,0,0,0,0,0,0,0,0,0,0,0,0,0,0,0,0,0,0,0,0,0,0,0,0,0,0,0,0,0,0,0,0,0,0,0,0,0,0,0,0,0,0,0,0,0,0,0,0,0,0,0,0,0,0,0,0,0,0,0,0,0,0,0,0,0,0,0,0,0,0,0,0,0,0,0,0,0,0,0,0,0,0,1322,1323,1128,1129,0,0,1130,1131,0,
0,0,0,0,0,0,0,0,1128,1129,0,0,0,0,0,0,0,0,0,0,0,0,0,0,0,0,0,0,0,0,0,0,0,0,0,0,0,0,0,0,0,0,0,0,0,0,0,0,0,0,0,0,0,0,0,0,0,0,0,0,0,0,0,0,0,0,0,0,0,0,0,0,0,0,0,0,0,0,0,0,0,0,0,0,0,0,0,0,0,0,0,0,0,0,0,0,0,0,0,0,0,0,0,0,0,0,0,0,0,0,0,0,0,0,0,0,0,0,0,0,0,0,0,0,0,0,0,0,0,0,0,0,0,0,0,0,0,0,0,0,0,0,0,0,0,0,0,0,0,0,0,0,0,0,0,0,0,0,0,0,0,0,0,0,0,0,0,0,0,0,0,0,0,0,0,0,0,0,0,0,0,0,0,0,0,0,0,0,0,0,0,0,0,0,0,0,0,0,0,0,0,0,0,0,0,0,0,0,0,0,0,0,0,0,0,0,0,0,0,0,0,0,0,0,0,0,0,0,1322,1323,0,0,0,0,0,0,0,0,0,0,0,0,0,1128,1129,1126,1127,0,0,0,0,0,0,0,0,0,
1176,1177,1178,1179,1124,1125,0,0,0,0,0,0,0,0,0,0,0,0,0,0,0,0,0,0,0,0,0,0,0,0,0,0,0,0,0,0,0,0,0,0,0,0,0,0,0,0,0,0,0,0,0,0,0,0,0,0,0,0,0,0,0,0,0,0,0,0,0,0,0,0,0,0,0,0,0,0,0,0,1124,1125,0,0,0,0,0,0,0,0,0,0,0,0,0,0,0,0,0,0,0,0,0,0,0,0,0,0,0,0,0,0,0,0,0,0,0,0,0,0,0,0,0,0,0,0,0,0,0,0,0,0,0,0,0,0,0,0,0,0,0,0,0,0,0,0,0,0,0,0,0,0,1789,1790,1791,0,0,0,0,0,0,0,0,0,0,0,1322,1323,0,0,0,0,0,0,0,0,0,0,0,0,0,0,0,0,0,0,0,0,0,0,0,0,0,0,0,0,0,0,0,0,0,0,0,0,0,0,0,0,0,0,0,0,0,0,0,0,0,0,0,0,0,0,0,0,0,0,0,0,0,0,0,0,0,0,0,0,0,0,0,0,1322,1323,1128,1129,0,0,0,0,0,0,0,1322,1323,1128,1129,1124,1125,0,
0,0,0,0,0,0,1322,1323,0,0,0,0,0,0,0,0,0,0,0,0,0,0,0,0,0,0,0,0,0,0,0,0,0,0,0,0,0,0,0,0,0,0,0,0,0,0,0,0,0,0,0,0,0,0,0,0,0,0,2274,2275,2276,0,0,0,0,0,0,0,0,0,0,0,0,0,0,0,0,0,0,0,0,0,0,0,0,0,0,0,0,0,0,0,0,0,0,0,0,0,0,0,0,0,0,0,0,0,0,0,0,0,0,0,0,0,0,0,0,0,0,0,0,0,0,0,0,0,0,0,0,0,0,0,0,0,0,0,0,0,0,0,0,0,1124,1125,0,0,0,0,0,0,1822,1823,1824,0,0,0,0,0,0,0,0,0,0,0,0,0,0,0,0,0,0,0,0,0,0,0,0,0,0,0,0,0,0,0,0,0,0,0,0,0,0,0,0,0,0,0,0,0,0,0,0,0,0,0,0,0,0,0,0,0,0,0,0,0,0,0,0,0,0,0,0,0,0,0,0,0,0,0,0,0,0,0,0,0,0,0,1126,1127,0,0,0,0,1176,1177,1178,1179,1124,1125,0,0,0,0,0,0,0,0,
0,0,0,0,0,0,0,0,0,0,0,0,0,0,0,0,0,0,0,0,0,0,0,0,0,0,0,0,0,0,0,0,0,0,0,0,0,0,0,0,0,0,0,0,0,0,0,0,0,0,0,0,0,0,0,0,0,0,0,0,0,0,0,0,0,0,0,0,0,0,0,0,0,0,0,0,0,0,0,0,0,0,0,0,0,0,0,0,0,0,0,0,0,0,0,0,0,0,0,0,0,0,0,0,0,0,0,0,0,0,0,0,0,0,0,0,0,0,0,0,0,0,0,0,0,0,0,0,0,0,0,0,0,0,0,0,1322,1323,0,0,0,0,0,0,0,0,0,0,0,0,0,0,0,0,0,0,0,0,0,2007,2008,0,0,0,0,0,0,0,0,0,0,0,0,0,0,0,0,0,0,0,0,0,0,0,0,0,0,0,0,0,0,0,0,0,0,0,0,0,0,0,0,0,0,0,0,0,0,0,0,0,0,0,0,0,0,0,0,0,0,0,0,0,0,0,0,0,0,0,0,0,0,0,0,0,0,0,0,0,1172,1173,1174,1175,0,0,0,0,0,0,1172,1173,1174,1175,0,1128,1129,0,
1128,1129,0,0,0,0,0,0,0,0,0,0,0,0,0,0,0,0,0,0,0,0,0,0,0,0,0,0,0,0,0,0,0,0,2274,2275,2276,0,0,0,0,0,0,0,0,0,0,0,0,0,0,0,0,0,0,0,0,0,0,0,0,0,0,0,0,0,0,0,0,0,0,0,0,0,0,0,0,0,0,0,0,0,0,0,1632,1633,1634,1635,0,0,0,0,0,0,0,0,0,0,0,0,0,0,0,0,0,0,0,0,0,0,0,0,0,0,0,0,0,0,0,0,0,0,0,0,0,0,0,0,0,0,0,0,0,0,0,0,0,0,0,0,1322,1323,0,0,0,0,0,0,0,0,0,0,0,0,0,0,0,0,0,0,0,0,0,0,0,0,0,0,0,0,0,0,0,0,0,0,0,0,0,0,0,0,0,0,0,0,0,0,0,0,0,0,0,0,0,0,0,0,0,0,0,0,0,0,0,0,0,0,0,0,0,0,0,1322,1323,0,0,0,0,0,0,0,0,0,0,0,0,0,0,0,0,0,0,0,0,0,1126,1127,0,0,0,0,0,0,0,0,1124,1125,0,0,0,0,0,0,0,0,
0,0,0,0,0,0,0,0,0,0,0,0,0,0,0,1124,1125,0,1124,1125,0,0,0,0,0,0,0,0,0,0,0,0,0,0,0,0,0,0,0,0,0,0,0,0,0,0,0,0,0,0,0,0,0,0,0,0,0,0,0,0,0,0,0,0,0,2007,2008,0,0,0,0,0,0,0,0,0,0,0,0,0,0,0,0,0,0,0,0,0,0,0,0,0,0,0,0,0,0,0,0,0,0,0,0,0,0,0,0,0,0,0,0,0,0,0,0,0,0,0,0,0,0,0,0,0,0,0,0,0,0,0,0,0,0,0,0,0,0,0,0,0,0,0,0,0,0,0,0,0,0,0,0,0,0,0,0,0,0,0,0,0,0,0,0,0,0,0,0,0,0,0,0,0,0,0,0,0,0,0,0,0,0,0,0,0,0,0,0,0,1884,1885,1886,1887,0,0,0,0,0,0,0,0,0,0,0,0,0,0,0,0,0,0,0,0,0,0,0,0,0,0,0,0,0,0,0,0,0,0,0,0,0,0,0,0,0,0,0,0,0,0,0,0,0,0,1126,1127,0,0,0,0,0,0,0,0,0,0,0,0,
0,0,0,0,0,0,0,0,0,0,0,0,0,0,0,0,0,0,0,0,0,1884,1885,1886,1887,0,0,0,0,0,0,0,0,0,0,0,0,0,0,0,0,0,0,0,0,0,0,0,0,0,0,0,0,0,0,0,0,0,0,0,0,0,0,0,0,0,0,0,0,0,0,0,0,0,0,0,0,0,0,0,0,0,0,0,0,0,0,0,0,0,0,0,0,0,0,0,0,0,0,0,0,0,0,0,0,0,0,0,0,0,0,0,0,0,0,0,0,0,0,0,0,0,0,0,0,0,0,0,0,0,0,0,0,0,0,0,0,0,0,0,0,0,0,0,0,0,0,0,0,0,0,0,0,0,0,0,0,0,0,1859,1860,1861,0,0,0,0,0,0,0,0,0,0,0,0,0,0,0,0,0,0,0,0,0,0,0,0,0,0,1917,1918,1919,1920,0,0,0,0,0,0,0,0,0,0,0,0,0,0,0,0,0,0,0,0,0,0,0,0,0,0,0,0,0,0,0,0,0,0,0,0,0,0,1859,1860,1861,0,0,0,0,0,1124,1125,0,0,0,0,1128,1129,1322,1323,0,0,0,0,0,0,0,0,
0,0,0,0,0,0,0,0,0,0,0,0,1176,1177,1178,1179,1124,1125,1126,1127,0,1917,1918,1919,1920,0,0,0,0,0,0,0,0,0,0,0,0,0,0,0,0,0,0,0,0,0,0,0,0,0,0,0,0,0,0,0,0,0,0,0,0,0,0,0,0,0,0,0,0,0,0,0,0,0,0,0,0,0,0,0,0,0,0,0,0,0,0,0,0,0,0,0,0,0,0,0,0,0,0,0,0,0,0,0,0,0,0,0,0,0,0,0,0,0,0,0,0,0,0,0,0,0,0,0,0,0,0,0,0,0,0,0,0,0,0,0,0,0,0,0,0,0,0,0,0,0,1124,1125,0,0,0,0,0,0,0,0,0,0,0,0,0,0,0,0,0,0,0,0,0,0,0,0,0,0,0,0,0,0,0,0,0,0,0,0,0,0,0,0,0,0,0,0,0,0,0,0,0,0,0,0,0,0,0,0,0,0,0,0,0,0,0,0,0,0,0,0,0,0,0,0,0,0,0,0,0,0,0,0,0,0,0,0,0,0,0,0,0,0,0,0,0,1126,1127,0,0,0,0,0,0,0,0,0,0,0,0,0,
0,0,0,0,0,0,0,0,1124,1125,1126,1127,0,0,0,0,0,0,0,0,0,0,0,0,0,0,0,0,0,0,0,0,0,0,0,0,0,0,0,0,0,1884,1885,1886,1887,0,0,0,0,0,0,0,0,0,0,0,0,0,0,0,0,0,0,0,0,0,0,0,0,0,0,0,0,0,0,0,0,0,0,0,0,0,0,0,0,0,0,0,0,0,0,0,0,0,0,0,0,0,0,0,0,0,0,0,0,0,0,0,0,0,0,0,0,0,0,1124,1125,0,0,0,0,0,0,0,0,0,0,0,0,0,0,0,0,0,0,0,0,0,0,0,0,1632,1633,1634,1635,0,0,0,0,0,0,0,0,0,0,0,0,0,0,0,0,0,0,0,0,0,1322,1323,0,0,0,0,0,0,0,0,0,0,0,0,0,0,0,0,0,0,0,0,0,0,0,0,0,0,0,0,0,0,0,0,0,0,0,0,0,0,0,0,0,0,0,0,0,0,0,0,0,0,0,0,0,0,0,0,0,0,0,0,0,0,0,0,0,0,0,0,0,0,1128,1129,0,0,0,0,0,0,0,0,0,0,0,0,0,0,0,0,
0,0,0,0,0,0,1322,1323,0,0,0,0,0,0,0,0,0,0,0,0,0,0,0,0,0,0,0,0,0,0,0,0,0,0,0,0,0,0,0,0,0,1917,1918,1919,1920,0,0,0,0,0,0,0,0,0,0,0,0,0,0,0,0,0,0,0,0,0,0,0,0,0,0,0,0,0,0,0,1651,1652,1653,0,0,0,0,0,0,0,0,0,0,0,0,0,0,0,0,0,0,0,0,0,0,0,0,0,0,0,0,0,0,2274,2275,2276,0,0,0,0,0,0,0,0,0,0,0,0,0,0,0,0,0,0,0,0,0,0,0,0,0,0,0,0,0,0,0,0,0,0,0,0,0,0,0,0,0,0,0,0,0,0,0,0,0,0,2007,2008,0,0,0,0,0,0,0,0,0,0,0,0,0,0,0,0,0,0,0,0,0,0,0,0,0,0,0,0,0,0,0,0,0,0,1628,1629,1630,1631,0,0,0,0,0,0,0,0,0,0,0,0,0,0,0,0,0,0,0,0,0,0,0,0,0,0,0,0,0,0,0,0,0,0,0,0,0,0,0,0,0,0,0,0,0,0,0,0,0,0,0,0,0,0,
0,0,0,0,0,0,0,0,1126,1127,0,0,1124,1125,0,0,1172,1173,1174,1175,0,0,0,0,0,0,0,0,0,0,0,0,0,0,0,0,0,0,0,0,0,0,0,0,0,0,0,0,0,0,0,0,0,0,0,0,0,0,0,0,0,0,0,0,0,0,0,0,0,0,0,0,0,0,0,0,0,0,0,0,0,0,0,0,0,0,0,0,0,0,0,0,0,0,0,0,0,0,0,0,0,0,0,0,0,0,0,0,0,0,0,0,0,0,0,0,0,0,0,0,0,0,0,0,0,0,0,0,2410,0,0,0,0,0,0,0,0,0,0,0,0,0,0,0,0,0,0,0,0,0,0,0,0,0,0,0,0,0,0,0,0,0,0,0,0,0,0,0,0,0,0,0,0,0,0,0,0,0,0,0,0,0,0,0,0,0,0,0,0,0,0,0,0,0,0,0,0,0,0,0,0,0,0,0,0,0,0,0,0,0,0,0,0,0,0,0,0,0,0,0,0,0,0,0,0,0,0,0,0,0,0,0,0,0,0,0,0,0,0,0,0,0,0,0,0,0,0,0,0,0,0,0,0,1128,1129,0,
1562,1563,1564,1128,1129,1322,1323,0,0,0,1124,1125,0,0,1126,1127,0,0,0,0,0,0,0,0,0,0,0,0,0,0,0,0,0,0,0,0,0,0,0,0,0,0,0,0,0,0,0,0,0,0,0,0,0,0,0,0,0,0,0,0,0,0,0,0,0,0,0,0,0,0,0,0,0,0,0,0,0,0,0,0,0,0,0,0,0,0,0,0,0,0,0,0,0,0,0,0,0,0,0,0,0,0,0,0,0,0,0,0,0,0,0,0,0,0,0,0,0,0,0,0,0,0,0,0,0,0,0,0,0,0,0,0,0,0,0,0,0,0,0,0,0,0,0,0,0,0,0,0,0,0,0,0,0,0,0,0,0,0,0,0,0,0,0,0,0,0,0,0,0,0,0,0,0,0,0,0,0,0,0,0,0,0,0,0,0,0,0,0,0,0,0,0,0,0,0,0,0,0,0,0,0,0,0,0,0,0,0,0,0,0,0,0,0,0,0,0,0,0,0,0,0,0,0,0,0,0,0,0,0,0,0,0,0,0,0,0,0,0,0,0,0,0,0,0,0,0,0,0,0,0,0,1126,1127,0,0,0,
0,0,0,0,0,0,0,0,0,0,0,0,0,0,0,0,0,0,0,0,0,0,0,0,0,0,0,0,0,0,0,0,0,0,0,0,0,0,0,0,0,0,0,0,0,0,0,0,0,0,0,0,0,0,0,0,0,0,0,0,0,0,0,0,0,0,0,0,0,0,0,0,0,0,0,0,0,0,0,0,0,0,0,0,0,0,0,0,0,0,0,0,0,0,0,0,0,0,0,0,0,0,0,0,0,0,0,0,0,0,0,0,0,0,0,1654,1655,1656,0,0,0,0,0,0,0,0,0,0,0,0,0,0,0,0,0,0,0,0,0,0,0,0,0,0,0,0,0,0,0,0,0,1859,1860,1861,0,0,0,0,0,0,0,0,0,0,0,0,0,0,0,0,0,0,0,0,0,0,0,0,0,1884,1885,1886,1887,0,0,0,0,0,0,0,0,0,0,0,0,0,0,0,0,0,0,0,0,0,0,0,0,0,0,0,0,0,0,0,0,0,0,0,0,0,0,0,0,0,0,0,0,0,0,0,0,0,0,0,0,0,0,0,0,0,0,0,0,0,0,0,0,0,0,0,0,0,0,1556,1557,1558,
0,0,0,0,1322,1323,1172,1173,1174,1175,1322,1323,1126,1127,0,1172,1173,1174,1175,0,0,0,0,0,0,0,0,0,0,0,0,0,0,0,0,0,0,0,0,0,0,0,0,0,0,0,0,0,0,0,0,0,0,0,0,0,0,0,0,0,0,0,0,0,0,0,0,0,0,0,0,0,0,0,0,0,0,0,0,0,0,0,0,0,0,0,0,0,0,0,0,0,0,0,0,0,0,0,1884,1885,1886,1887,0,0,0,0,0,0,0,0,0,0,0,0,0,0,0,0,0,0,0,0,0,0,0,0,0,0,0,0,0,0,0,0,0,0,0,0,0,0,0,0,0,0,0,0,0,0,0,0,0,0,0,0,0,0,0,0,0,0,0,0,0,0,0,0,0,0,0,0,0,0,0,0,0,0,0,0,0,1917,1918,1919,1920,0,0,0,0,0,0,0,0,0,0,0,0,0,0,0,0,0,0,0,0,0,0,0,0,0,0,0,0,0,0,0,0,0,0,0,0,0,0,0,0,0,0,0,0,0,0,0,0,0,0,0,0,0,0,0,0,0,0,0,0,0,0,0,1322,1323,0,1176,1177,1178,1179,0,0,0,
1172,1173,1174,1175,0,0,0,0,0,0,0,0,0,0,0,0,0,0,0,0,0,0,0,0,0,0,0,0,0,0,0,0,0,0,0,0,2007,2008,0,0,0,0,0,0,0,0,0,0,0,0,0,0,0,0,0,2007,2008,0,0,0,0,0,0,0,0,0,0,0,0,0,0,0,0,0,0,0,0,0,0,0,0,0,0,0,0,0,0,0,0,0,0,0,0,0,0,0,0,0,1917,1918,1919,1920,0,0,0,0,0,0,0,0,0,0,0,0,0,0,0,0,0,0,0,0,0,0,0,0,0,0,0,0,0,0,0,0,0,0,0,0,0,0,0,0,0,0,0,0,0,0,0,0,0,0,0,0,0,0,0,0,0,0,0,0,0,0,0,0,0,0,0,0,0,0,0,0,0,0,0,0,0,0,0,0,0,0,0,0,0,0,0,0,0,0,0,0,0,0,0,0,0,0,0,0,0,0,0,0,0,0,0,0,1884,1885,1886,1887,0,0,0,0,0,0,0,0,0,0,0,0,0,0,0,0,0,0,0,0,0,0,0,0,0,0,0,0,0,0,1322,1323,0,0,0,0,0,0,0,0,0,0,
0,0,0,0,1124,1125,0,0,0,0,1322,1323,1124,1125,0,0,0,0,0,0,0,0,0,0,0,0,0,0,0,0,0,0,0,0,0,0,0,0,0,0,0,0,0,0,0,0,0,0,0,0,0,0,0,0,0,0,0,0,0,0,0,0,0,0,0,0,0,0,0,0,0,0,0,0,0,0,0,0,0,0,0,0,0,0,0,0,0,0,0,0,0,0,0,0,0,0,0,0,0,0,0,0,0,0,0,0,0,0,0,0,0,0,0,0,0,0,0,0,0,0,0,0,0,0,0,0,0,0,0,0,0,0,0,0,0,0,0,0,0,0,0,0,0,0,0,0,0,0,0,0,0,0,0,0,0,0,0,0,0,0,0,0,0,0,0,0,0,0,0,0,0,0,0,0,0,0,0,0,0,0,0,0,0,0,0,0,0,0,0,0,0,1124,1125,0,0,0,0,0,0,0,0,0,0,0,0,0,0,0,0,0,1917,1918,1919,1920,0,0,0,0,0,0,0,0,0,0,0,0,0,0,0,0,0,0,0,0,0,0,0,0,0,0,0,0,0,0,0,0,1128,1129,0,0,0,0,0,1124,1125,0,
0,0,0,0,0,0,1128,1129,0,0,0,0,0,0,0,0,0,1124,1125,0,0,0,0,0,0,0,0,0,0,0,0,0,0,0,0,0,0,0,0,0,0,0,0,0,0,0,0,0,0,0,0,0,0,0,0,0,0,0,0,0,0,0,0,0,0,0,0,0,0,0,0,0,0,0,0,0,0,0,0,0,0,0,0,0,0,0,0,0,0,0,0,0,0,0,0,0,0,0,0,0,0,0,0,0,0,0,0,0,0,0,0,0,0,0,0,0,0,0,0,0,0,0,0,0,0,0,0,0,0,0,0,0,0,0,0,0,0,0,0,0,0,0,0,0,0,0,0,0,0,0,0,0,0,0,0,0,0,0,0,0,0,0,0,0,0,0,0,0,0,0,0,0,0,0,0,0,0,0,0,0,0,0,0,0,0,0,0,0,0,0,0,0,0,0,0,0,0,0,0,0,0,0,0,0,0,0,0,0,0,0,0,0,0,0,0,0,0,0,0,0,0,0,0,0,0,0,0,0,0,0,0,0,0,0,0,0,0,0,0,1126,1127,0,0,1322,1323,0,0,0,1172,1173,1174,1175,0,0,0,0,
1556,1557,1558,1126,1127,0,0,0,1126,1127,1172,1173,1174,1175,0,0,0,0,0,0,0,0,0,0,0,0,0,0,0,0,0,0,0,0,0,0,0,0,0,0,0,0,0,0,0,0,0,0,0,0,0,0,0,0,0,0,0,0,0,0,0,0,0,0,0,0,0,0,0,0,0,0,0,0,0,0,0,0,0,0,0,0,0,0,0,0,0,0,0,0,0,0,0,0,0,0,0,0,0,0,0,0,0,0,0,0,0,0,0,0,0,0,0,0,0,0,0,0,0,0,0,0,0,0,0,0,0,0,0,0,0,0,0,0,0,0,0,0,0,0,0,0,0,0,0,0,0,0,0,0,0,0,0,0,0,0,0,0,0,0,0,0,0,0,0,0,0,0,0,0,0,0,0,0,0,0,0,0,0,0,0,0,0,0,0,0,0,0,0,0,0,0,0,0,0,0,0,0,0,0,0,0,0,0,0,0,0,0,0,0,0,0,0,0,0,0,0,0,0,0,0,0,0,0,0,0,0,0,0,0,0,0,0,0,0,0,0,0,0,0,0,1124,1125,0,0,1128,1129,0,0,0,0,0,0,1559,1560,1561,
0,0,0,0,0,1126,1127,0,0,0,0,0,0,0,0,0,0,0,1172,1173,1174,1175,0,0,0,0,0,0,2007,2008,0,0,0,0,0,0,0,0,0,0,0,0,0,0,0,0,0,0,0,0,0,0,0,0,0,0,0,0,0,0,0,0,0,0,0,0,0,0,0,0,0,0,0,0,0,0,0,0,0,0,0,0,0,0,0,0,0,0,0,0,0,0,0,0,0,0,0,0,0,0,0,0,0,0,0,0,0,0,0,0,0,0,0,0,0,0,0,0,0,0,0,0,0,0,0,0,0,0,0,0,0,0,0,0,0,0,0,0,0,0,0,0,0,0,0,0,0,0,0,0,0,0,0,0,0,0,0,0,0,0,0,0,0,0,0,0,0,0,0,0,0,0,0,0,0,0,0,0,0,0,0,0,0,0,0,0,0,0,0,0,0,0,0,0,0,0,0,0,0,0,0,0,0,0,0,0,0,0,0,0,0,0,0,0,0,0,0,0,0,0,0,0,0,0,0,0,0,0,0,0,0,0,0,0,0,0,0,0,1128,1129,0,0,0,1128,1129,0,0,0,0,0,0,0,0,0,0,0,
0,0,0,0,0,0,0,1126,1127,0,0,0,0,0,1176,1177,1178,1179,0,0,0,0,0,0,0,0,0,0,0,0,0,0,0,0,0,0,0,0,0,0,0,0,0,0,0,0,0,0,0,0,0,0,0,0,0,0,0,1654,1655,1656,0,0,0,0,0,0,0,0,0,0,0,0,0,0,0,0,0,0,0,0,0,0,0,0,0,0,0,0,0,0,0,0,0,0,0,0,0,0,0,0,0,0,0,0,0,0,0,0,0,0,0,0,0,0,0,0,0,0,0,0,0,0,0,0,0,0,0,0,0,0,1322,1323,0,0,0,0,0,0,0,0,0,0,0,0,0,0,0,0,0,0,0,0,0,0,0,0,0,0,0,0,0,0,0,0,0,0,0,0,0,0,0,0,0,0,0,0,0,0,0,0,0,0,0,0,0,0,0,0,0,0,0,0,0,0,0,0,0,0,0,0,0,0,0,0,0,0,0,0,0,0,0,0,0,0,0,0,0,0,0,0,0,0,0,0,0,0,0,0,0,0,0,0,0,0,0,0,0,0,0,0,1322,1323,0,0,0,0,1128,1129,1176,1177,1178,1179,0,0,0,0,
1126,1127,1124,1125,0,1322,1323,0,0,0,1172,1173,1174,1175,0,0,0,0,0,0,0,0,0,0,0,0,0,0,0,0,0,0,0,0,0,0,0,0,0,0,0,0,0,0,0,0,0,0,0,0,0,0,0,0,0,0,0,0,0,0,0,0,0,0,0,0,0,0,0,0,0,0,0,0,0,0,0,0,0,0,0,0,0,0,0,0,0,0,0,0,0,0,0,0,0,0,0,0,0,0,0,0,0,0,0,0,0,0,0,0,0,0,1322,1323,0,0,0,0,0,0,0,0,0,0,0,0,0,0,0,0,0,0,0,0,0,0,0,0,0,0,0,0,0,0,0,0,0,0,0,0,0,0,0,0,0,0,0,0,0,0,0,0,0,0,0,0,0,0,0,2007,2008,0,0,0,0,0,0,0,0,0,0,0,0,0,0,0,0,0,0,0,0,0,0,0,0,0,0,0,0,0,0,0,0,0,0,0,0,0,0,0,0,0,0,0,0,0,0,0,0,0,0,0,0,0,0,0,0,0,0,0,0,0,0,0,0,0,0,0,0,0,0,0,0,0,0,0,0,0,0,0,0,0,0,1322,1323,0,
0,0,0,0,0,0,0,0,1128,1129,0,0,0,0,0,0,0,0,0,0,0,0,0,0,0,0,0,0,0,0,0,0,0,0,1859,1860,1861,0,0,0,0,0,0,0,0,0,0,0,0,0,0,0,0,0,0,0,0,0,0,0,0,0,0,0,0,0,0,0,0,0,0,0,0,0,0,0,0,0,0,0,0,0,0,0,0,0,0,0,0,0,0,0,0,0,0,0,0,0,0,0,0,0,0,0,0,0,0,0,0,0,0,0,0,0,0,0,0,0,0,0,0,0,0,0,0,0,0,0,0,0,0,0,0,0,0,0,0,0,0,0,0,0,0,0,0,0,0,0,0,0,0,0,0,0,0,0,0,0,0,0,0,0,0,0,0,0,0,0,0,0,0,0,0,0,0,0,1654,1655,1656,0,0,0,0,0,0,0,0,0,0,0,0,0,0,0,0,0,0,0,0,0,1124,1125,0,0,0,0,0,0,0,0,0,0,0,0,0,0,0,0,0,0,0,0,0,0,0,0,0,0,0,0,0,0,0,0,0,0,0,1176,1177,1178,1179,0,1176,1177,1178,1179,0,0,0,0,0,0,0,0,0,0,
1556,1557,1558,0,1322,1323,1124,1125,0,0,0,0,0,0,1172,1173,1174,1175,0,0,0,0,0,0,0,0,0,0,0,0,0,0,0,0,0,0,0,0,0,0,0,0,0,0,0,0,0,0,0,0,0,0,0,0,0,0,0,0,0,0,0,0,0,0,0,0,0,0,0,0,0,0,0,0,0,0,0,0,0,0,0,0,0,0,0,0,0,0,0,0,0,0,0,0,0,0,0,0,0,0,0,0,0,0,0,0,0,0,0,0,0,0,0,0,0,0,0,0,0,2007,2008,0,0,0,0,0,0,0,0,0,0,0,0,0,0,0,0,0,0,0,0,0,0,0,0,0,0,0,0,0,0,0,0,0,0,0,0,0,0,0,0,0,0,0,0,0,0,0,0,0,0,0,0,0,0,0,0,0,0,0,0,0,0,0,0,0,0,0,0,0,0,0,0,0,0,0,0,0,0,0,0,0,0,0,0,0,0,0,0,0,0,0,0,0,0,0,0,0,0,0,0,0,0,0,0,0,0,0,0,0,0,1654,1655,1656,0,0,0,0,0,0,0,0,0,0,0,0,1172,1173,1174,1175,0,0,0,1126,1127,0,
0,0,0,0,0,0,0,0,1176,1177,1178,1179,0,0,0,0,0,0,0,0,0,0,0,0,0,0,0,0,0,0,0,0,0,0,0,0,0,0,0,0,0,0,0,0,0,0,0,0,0,0,0,0,0,0,0,0,0,0,0,0,0,0,0,0,0,0,0,0,0,0,0,0,0,0,0,0,0,0,0,0,0,0,0,0,0,0,0,0,0,0,0,0,0,0,0,0,0,0,0,0,0,0,0,0,0,0,0,0,0,0,0,0,0,0,0,0,0,0,0,0,0,0,0,0,0,0,0,0,0,0,2274,2275,2276,0,0,0,0,0,0,0,0,0,0,0,0,0,0,0,0,0,0,0,0,0,0,0,0,0,0,0,0,0,0,0,0,0,0,0,0,0,0,0,0,0,0,0,0,0,0,0,0,0,0,0,0,0,0,0,0,0,0,0,0,0,0,0,0,0,0,0,0,0,0,0,0,0,0,0,0,0,0,0,0,0,0,0,0,0,0,1124,1125,0,0,0,0,0,0,0,0,0,0,0,0,0,0,0,0,0,0,0,0,0,0,0,0,0,0,0,0,0,0,0,0,0,0,0,
0,0,0,1322,1323,0,0,0,0,0,0,0,1124,1125,0,0,0,0,0,0,0,0,0,0,0,0,0,0,0,0,0,0,0,0,0,0,0,0,0,0,0,0,0,0,0,0,0,0,0,0,0,0,0,0,0,0,0,0,0,0,0,0,0,0,0,2007,2008,0,0,0,0,0,0,0,0,0,0,0,0,0,0,0,0,0,0,0,0,0,0,0,0,0,0,0,0,0,0,0,0,0,0,0,0,0,0,0,0,0,0,0,0,0,0,0,0,0,0,0,0,0,0,0,1322,1323,0,0,0,0,0,0,0,0,0,0,0,0,0,0,0,0,0,0,0,0,0,0,0,0,0,0,0,0,0,0,0,0,0,0,0,0,0,0,0,0,0,0,0,0,0,0,0,0,0,0,0,0,0,0,0,0,0,0,0,0,0,0,0,0,0,0,0,0,0,0,0,0,0,0,0,1124,1125,0,0,0,0,0,0,0,0,0,0,0,0,0,0,0,0,0,0,0,0,0,0,0,0,0,0,0,0,0,0,0,0,0,0,0,0,0,1124,1125,0,0,0,1128,1129,0,0,0,0,0,1322,1323,0,1124,1125,0,
1562,1563,1564,0,0,1322,1323,0,0,0,0,0,0,0,0,0,1176,1177,1178,1179,0,0,0,0,0,0,0,0,0,0,0,0,0,0,0,0,0,0,0,0,0,0,0,0,0,0,0,0,0,0,0,0,0,0,0,0,0,0,0,0,0,0,0,0,0,0,0,0,0,0,0,0,0,0,0,0,0,0,0,0,0,0,0,0,0,0,0,0,0,0,0,0,0,0,0,0,1628,1629,1630,1631,0,0,0,0,0,0,0,0,0,0,0,0,0,0,0,0,0,0,0,0,0,0,0,0,0,0,0,0,0,0,0,0,0,0,0,0,0,0,0,0,0,0,0,0,0,0,0,0,0,0,0,0,0,0,0,0,0,0,0,0,0,0,0,1651,1652,1653,0,0,0,0,0,0,0,0,0,0,0,0,0,0,0,0,0,0,0,0,0,0,0,0,0,0,0,0,0,0,0,0,0,0,0,0,0,0,0,0,0,0,0,0,0,0,0,0,0,0,0,0,0,0,0,0,0,0,0,0,0,0,0,0,0,0,0,0,0,0,0,0,0,0,0,1126,1127,0,0,1172,1173,1174,1175,0,0,0,0,0,0,0,
0,0,0,1126,1127,0,0,1322,1323,1322,1323,1128,1129,0,0,0,0,0,0,0,0,0,0,0,0,0,0,0,0,0,0,0,0,0,0,0,0,0,0,0,0,0,0,0,0,0,0,0,0,0,0,0,0,0,0,0,0,0,0,0,0,0,0,0,0,0,0,0,0,0,0,0,0,0,0,0,0,0,0,0,0,0,0,0,0,1322,1323,0,0,0,0,0,0,0,0,0,0,0,0,0,0,0,0,0,0,2007,2008,0,0,0,0,0,1322,1323,0,0,0,0,0,0,0,0,0,0,1322,1323,0,0,0,0,0,0,0,0,0,0,0,0,0,0,0,0,0,0,0,0,0,0,0,0,0,0,0,0,0,0,0,0,0,0,0,0,0,0,0,0,0,0,0,0,0,0,0,0,0,0,0,0,0,0,0,0,0,2007,2008,0,0,0,0,0,0,0,0,0,0,0,0,0,0,0,0,0,0,0,0,0,0,0,0,0,0,0,0,0,0,0,0,0,0,0,0,0,0,0,0,0,0,0,0,0,0,0,0,0,0,0,1128,1129,0,0,0,0,0,1322,1323,0,0,0,0,1124,1125,1322,1323,1556,1557,1558,
0,0,0,0,0,1124,1125,0,0,0,0,0,0,1128,1129,0,0,0,0,0,0,0,0,0,0,1124,1125,0,0,0,0,0,0,0,0,0,0,0,0,0,0,0,0,0,0,0,0,0,0,0,0,0,0,0,0,0,0,0,0,0,0,0,0,0,0,0,0,0,0,0,0,0,0,0,0,0,0,0,0,0,0,0,0,0,0,0,0,0,2007,2008,0,0,0,0,0,0,0,0,0,0,0,0,0,0,0,0,0,0,0,0,0,0,0,0,0,0,0,0,0,1322,1323,0,0,0,0,0,0,0,0,0,0,0,0,0,0,0,0,0,0,0,0,0,0,0,0,0,0,0,0,0,0,0,0,0,0,0,0,0,0,0,0,0,0,0,0,0,0,0,0,0,0,0,0,0,0,0,0,0,0,0,0,0,0,0,0,0,0,0,0,0,0,0,0,0,0,0,0,0,0,0,0,0,0,0,0,0,0,0,0,0,0,0,0,0,0,0,0,0,0,0,0,0,0,0,0,0,0,0,0,0,0,0,0,0,0,0,0,0,0,0,0,0,0,0,0,0,0,0,0,0,0,0,0,0,0,0,
1176,1177,1178,1179,0,0,0,1128,1129,1176,1177,1178,1179,0,0,0,1176,1177,1178,1179,0,0,0,0,0,0,0,0,0,0,0,0,0,0,0,0,0,0,0,0,0,0,0,0,0,0,0,0,0,0,0,0,0,0,0,0,0,0,0,0,0,0,0,0,0,0,0,0,0,0,0,0,0,0,0,0,0,0,0,0,0,0,0,0,0,0,0,0,0,0,0,0,0,0,0,0,0,0,0,0,0,0,0,0,0,0,0,0,0,0,0,0,0,0,0,0,0,0,0,0,0,0,0,0,0,0,0,0,0,0,0,0,0,0,0,0,0,0,0,0,1322,1323,0,0,0,0,0,0,0,0,0,0,0,0,0,0,0,0,0,0,0,0,0,0,0,0,0,0,0,0,0,0,0,0,0,0,0,0,0,0,0,0,0,0,0,0,0,0,0,0,0,0,0,0,0,0,0,0,0,0,0,0,0,0,0,0,0,0,0,0,0,0,0,0,0,0,0,0,0,0,0,0,0,0,0,0,0,0,0,0,0,0,0,0,0,0,0,1176,1177,1178,1179,1124,1125,0,1322,1323,1126,1127,1128,1129,1322,1323,0,0,0,0,
0,0,0,0,1126,1127,0,0,0,0,0,0,0,0,0,0,0,0,0,0,0,0,0,0,0,0,0,0,0,0,0,0,0,0,0,0,0,0,0,0,0,0,0,0,0,0,0,0,0,0,0,0,0,0,0,0,0,0,0,0,0,0,0,0,0,0,0,0,0,0,0,0,0,0,0,0,0,0,2274,2275,2276,0,0,0,0,0,0,0,0,0,0,0,0,0,0,0,0,0,0,0,0,0,0,0,0,0,0,0,0,0,0,0,0,0,0,0,0,0,0,0,0,0,0,0,0,1124,1125,0,0,0,0,0,0,0,0,0,0,0,0,0,0,0,0,0,0,0,0,0,0,0,0,0,0,0,1632,1633,1634,1635,0,0,0,0,0,0,0,0,0,0,0,0,2007,2008,0,0,0,0,0,0,0,0,0,0,0,0,0,0,0,0,0,0,0,0,0,0,0,0,0,0,0,0,0,0,0,0,0,0,0,0,0,0,0,0,0,0,0,0,0,0,0,0,0,0,0,0,0,0,0,0,0,0,0,0,0,0,0,0,0,0,0,0,0,0,0,0,0,0,0,0,0,0,0,0,0,1556,1557,1558,
0,0,0,0,0,0,1128,1129,0,0,0,0,0,1126,1127,0,0,0,0,0,0,0,0,0,0,0,0,0,0,0,0,0,0,0,0,0,0,0,0,0,0,0,0,0,0,0,0,0,0,0,0,0,0,0,0,0,0,0,0,0,0,0,0,0,0,0,0,0,0,0,0,0,0,0,0,0,0,0,0,0,0,0,0,0,0,0,0,0,0,0,0,0,0,0,0,0,0,0,0,0,0,0,0,0,0,0,0,0,0,0,0,0,0,0,0,0,0,0,0,0,0,0,0,0,0,0,0,0,0,0,0,0,0,0,0,0,0,0,0,0,0,0,0,0,0,0,0,0,0,0,0,0,0,0,0,0,0,0,0,0,0,0,0,0,0,0,0,0,0,0,0,0,0,0,0,0,0,0,0,0,0,0,0,0,0,0,0,0,0,0,0,0,0,0,0,0,0,0,0,0,0,0,0,0,0,0,0,0,0,0,0,0,0,1124,1125,0,0,0,0,0,0,0,0,0,0,0,0,0,0,0,0,0,0,0,0,1126,1127,0,0,0,0,0,0,0,1172,1173,1174,1175,0,1176,1177,1178,1179,0,0,0,
1126,1127,1126,1127,1322,1323,0,0,1124,1125,0,1322,1323,0,0,0,0,0,0,0,0,0,0,0,0,0,0,0,0,0,0,0,0,0,0,0,0,0,0,0,0,0,0,0,0,0,0,0,0,0,0,0,0,1124,1125,0,0,0,0,0,0,0,0,0,0,0,0,0,0,0,0,0,0,0,0,0,0,0,0,0,0,0,0,0,0,0,0,2007,2008,0,0,0,0,0,0,0,0,0,0,0,0,0,0,0,0,0,0,0,0,0,0,0,0,0,0,0,0,0,0,0,0,0,0,0,0,0,0,0,0,0,0,0,0,0,0,0,0,0,0,0,0,0,0,0,0,0,0,0,0,0,0,0,0,0,0,0,0,0,0,0,0,0,0,0,0,0,0,0,0,0,0,0,0,0,0,0,0,0,0,0,0,0,0,0,0,0,0,0,0,0,1124,1125,0,0,0,0,0,0,0,0,0,0,0,0,0,0,0,0,0,0,0,0,0,0,0,0,0,0,0,0,0,0,0,0,0,0,0,1322,1323,0,0,0,0,0,0,0,0,1176,1177,1178,1179,1126,1127,0,0,0,0,0,0,0,0,0,0,0,0,0,
0,0,0,0,0,0,1128,1129,0,0,0,0,0,1176,1177,1178,1179,0,0,0,0,0,0,0,0,0,0,0,0,0,0,0,0,0,0,0,0,0,0,0,0,0,0,0,0,0,0,0,0,0,0,0,0,0,0,0,0,0,0,0,0,0,0,0,0,0,0,0,0,0,0,0,1124,1125,0,0,0,0,0,0,0,0,0,0,0,0,0,0,0,0,0,0,0,0,0,0,0,0,0,0,0,0,0,0,0,0,0,0,0,0,0,0,0,0,0,0,0,0,1124,1125,0,0,0,0,0,0,0,0,0,0,0,0,0,0,2007,2008,0,0,0,0,0,0,0,0,0,0,0,0,0,0,0,0,0,0,0,0,0,0,0,0,0,0,0,0,0,0,0,0,0,0,0,0,0,0,0,1172,1173,1174,1175,0,0,0,0,0,1176,1177,1178,1179,0,0,0,0,0,0,0,0,0,0,0,0,0,0,0,0,0,0,0,0,0,0,0,0,0,0,0,0,0,0,0,0,0,0,0,0,0,0,0,0,0,0,0,0,0,0,0,0,0,0,0,0,0,0,0,0,0,0,0,0,0,0,0,0,0,1565,1566,1567,
1172,1173,1174,1175,1124,1125,0,0,1172,1173,1174,1175,0,0,0,0,0,0,1176,1177,1178,1179,0,0,0,0,0,0,0,0,0,0,0,0,0,0,0,0,0,0,0,0,0,0,0,0,0,0,1124,1125,0,0,0,1322,1323,0,0,0,0,0,0,0,0,0,0,0,0,0,1172,1173,1174,1175,0,0,0,0,0,0,0,0,0,0,0,0,0,0,0,0,0,0,0,0,0,0,0,0,0,0,0,0,0,0,0,0,0,0,0,0,0,1176,1177,1178,1179,0,0,0,0,0,0,0,0,0,0,0,1124,1125,1124,1125,1128,1129,0,0,0,0,0,0,0,0,0,1176,1177,1178,1179,1322,1323,1126,1127,0,1128,1129,0,0,0,1124,1125,0,0,1322,1323,0,0,0,0,0,0,0,1322,1323,0,1126,1127,0,0,0,0,0,0,0,0,0,0,0,0,0,0,0,0,0,0,0,1172,1173,1174,1175,0,0,0,0,0,0,0,1124,1125,0,1124,1125,0,0,0,0,0,0,0,0,1322,1323,0,0,0,0,1322,1323,0,0,1124,1125,0,0,0,0,0,0,1126,1127,0,0,0,0,0,0,0,1128,1129,0,0,1124,1125,0,0,1126,1127,1126,1127,0,0,0,
0,0,0,0,0,0,0,0,0,0,0,0,0,0,0,0,0,0,0,0,0,0,0,0,0,1322,1323,0,0,0,0,0,0,0,0,0,0,0,0,0,1176,1177,1178,1179,0,0,0,0,0,0,1126,1127,0,0,0,0,0,0,0,0,0,0,1172,1173,1174,1175,0,0,0,0,0,0,0,0,0,0,0,1322,1323,0,0,0,0,0,0,0,0,0,0,0,0,0,0,0,0,0,0,0,0,0,0,0,0,0,0,0,0,0,0,0,0,0,0,1176,1177,1178,1179,0,1128,1129,1126,1127,0,0,0,0,0,0,0,0,0,0,0,0,0,0,0,0,0,0,0,0,0,0,0,0,0,0,0,0,0,0,0,0,0,0,0,0,0,0,0,0,0,0,0,0,0,0,0,0,0,1176,1177,1178,1179,0,0,0,0,1322,1323,0,0,0,0,0,0,0,1126,1127,0,0,0,0,1322,1323,0,0,0,0,0,0,0,0,0,0,1124,1125,0,0,0,0,0,0,0,0,0,0,0,0,0,0,0,0,0,0,1124,1125,0,0,1322,1323,0,0,0,0,0,1128,1129,1322,1323,0,0,1126,1127,0,0,1126,1127,0,0,0,0,0,0,0,
0,0,0,0,0,0,1128,1129,0,0,0,0,1124,1125,1126,1127,1322,1323,0,0,0,0,0,0,0,0,0,1124,1125,1322,1323,0,0,0,0,0,0,0,0,0,0,0,0,0,0,1128,1129,0,0,0,0,0,0,0,0,1128,1129,0,0,0,0,0,0,0,0,0,0,0,0,0,0,0,0,0,0,0,0,0,0,1126,1127,0,0,0,0,0,0,0,0,0,0,0,0,0,0,0,0,0,0,0,0,0,0,0,0,0,0,0,0,0,0,0,0,0,0,0,0,0,0,0,0,0,0,0,1172,1173,1174,1175,0,0,0,0,0,0,0,0,0,0,0,0,0,0,0,0,0,1126,1127,1126,1127,1128,1129,0,0,1176,1177,1178,1179,1126,1127,0,0,1128,1129,1172,1173,1174,1175,1124,1125,0,0,0,0,0,0,1176,1177,1178,1179,0,0,1172,1173,1174,1175,0,0,0,0,0,0,0,0,0,0,0,1322,1323,1176,1177,1178,1179,0,1126,1127,0,0,0,1172,1173,1174,1175,0,0,0,1172,1173,1174,1175,0,0,0,1128,1129,0,0,0,0,1124,1125,0,0,0,0,0,0,0,0,0,0,0,1126,1127,0,0,0,0,0,0,1128,1129,1124,1125,1562,1563,1564,
1128,1129,1176,1177,1178,1179,0,0,1322,1323,1128,1129,0,0,0,0,0,0,0,0,0,0,0,0,0,0,0,0,0,0,0,0,0,0,0,0,0,0,0,0,0,0,0,0,0,0,0,1124,1125,1322,1323,1172,1173,1174,1175,0,0,0,1172,1173,1174,1175,0,0,0,0,0,1126,1127,1172,1173,1174,1175,1176,1177,1178,1179,0,0,0,0,1176,1177,1178,1179,0,0,0,0,0,0,0,0,0,0,0,0,0,0,0,0,0,0,0,0,0,0,0,0,0,0,0,0,0,0,0,0,0,0,0,0,0,0,0,0,0,0,0,0,0,0,0,0,0,0,0,0,0,0,0,0,0,0,0,0,0,0,0,0,0,0,0,0,0,0,0,0,0,0,0,0,0,0,0,0,0,0,0,0,0,0,0,0,0,0,0,0,0,0,1126,1127,0,0,0,0,0,0,0,0,0,0,1322,1323,0,0,0,0,0,0,0,0,0,0,0,0,0,0,0,0,0,0,0,1128,1129,0,0,0,0,0,1124,1125,0,0,0,0,1322,1323,0,0,0,1172,1173,1174,1175,1128,1129,0,0,0,0,0,0,0,1124,1125,1126,1127,0,0,0,0,0,0,0,0,0,
0,0,0,0,0,0,1128,1129,0,0,0,0,0,1176,1177,1178,1179,0,1128,1129,0,0,0,0,0,0,1126,1127,1176,1177,1178,1179,0,0,0,0,0,0,0,0,0,0,0,1176,1177,1178,1179,0,0,0,0,0,0,0,0,0,0,0,0,0,0,0,0,0,0,0,0,0,0,0,0,0,0,0,0,0,0,1126,1127,1128,1129,0,0,0,0,1126,1127,0,0,0,0,0,0,0,0,1128,1129,0,0,0,0,0,0,0,0,0,0,0,0,0,0,0,0,0,1322,1323,0,1172,1173,1174,1175,0,0,0,0,0,0,0,0,0,0,0,0,0,0,0,0,0,0,0,0,0,0,0,1322,1323,1128,1129,1128,1129,0,1322,1323,0,0,0,0,1172,1173,1174,1175,0,0,0,0,0,0,1128,1129,0,0,1172,1173,1174,1175,0,0,0,0,0,0,0,0,0,0,0,0,0,0,0,0,0,0,0,1176,1177,1178,1179,0,0,0,0,0,0,0,0,0,0,0,0,0,0,0,0,0,0,0,0,0,0,0,1124,1125,0,0,0,0,0,1322,1323,0,0,0,0,0,0,1322,1323,1128,1129,1128,1129,0,0,0,0,0,1128,1129,1322,1323,1126,1127,0,0,0,
1126,1127,0,0,0,0,0,0,0,1128,1129,1128,1129,0,0,0,0,0,0,0,0,0,0,0,0,0,0,0,0,0,0,0,0,0,0,0,0,0,0,0,0,0,0,0,0,0,0,1176,1177,1178,1179,0,0,0,0,0,1128,1129,0,0,0,0,1176,1177,1178,1179,0,0,0,0,0,0,0,0,0,0,0,0,0,0,0,0,0,0,0,0,0,1172,1173,1174,1175,1176,1177,1178,1179,0,0,0,0,0,0,0,0,0,0,0,0,0,0,0,1322,1323,0,0,0,0,0,0,0,0,0,1176,1177,1178,1179,0,1322,1323,1126,1127,0,0,0,0,0,0,0,0,0,0,0,0,0,0,0,0,0,0,0,0,0,0,0,1172,1173,1174,1175,0,0,0,0,1172,1173,1174,1175,1126,1127,0,0,0,0,0,0,0,0,1128,1129,1124,1125,1176,1177,1178,1179,0,1126,1127,1172,1173,1174,1175,1128,1129,1124,1125,0,0,0,0,0,1176,1177,1178,1179,1124,1125,1126,1127,0,0,1124,1125,1124,1125,0,1124,1125,1322,1323,0,1128,1129,0,0,0,0,1322,1323,0,0,0,0,0,0,0,1124,1125,0,0,0,0,0,0,0,1124,1125,1126,1127,0,0,0,0,0,0,1126,1127,0,
0,0,1128,1129,1172,1173,1174,1175,0,0,0,0,0,0,0,0,0,0,1124,1125,0,0,0,0,0,0,0,0,0,0,0,0,0,0,0,0,0,0,1176,1177,1178,1179,0,0,0,0,0,0,0,0,0,0,0,1124,1125,0,0,0,1124,1125,0,0,0,0,0,0,1128,1129,0,1322,1323,1124,1125,1126,1127,0,0,0,0,1126,1127,0,1126,1127,1128,1129,0,0,0,0,0,0,0,0,0,0,0,1126,1127,0,0,0,0,0,0,0,0,0,0,0,0,0,0,0,0,0,0,0,0,0,0,0,0,0,0,0,0,0,0,0,0,0,0,0,0,0,0,0,0,0,0,0,0,0,0,0,0,1126,1127,0,1126,1127,0,0,0,0,0,0,0,0,0,0,0,0,0,0,0,1124,1125,1126,1127,0,0,0,0,0,0,0,0,0,0,0,0,0,0,0,0,0,0,0,0,0,0,0,0,0,0,0,0,0,0,0,0,0,0,0,0,1126,1127,0,0,0,0,0,0,0,0,0,0,0,0,1176,1177,1178,1179,0,0,0,1322,1323,0,1128,1129,0,0,0,0,0,1128,1129,0,1124,1125,0,0,0,0,1124,1125,0,1128,1129,0,0,0,0,
1126,1127,0,0,0,0,0,0,0,1124,1125,0,1322,1323,1126,1127,1128,1129,0,0,0,0,0,0,0,0,0,0,0,0,0,0,0,0,0,0,0,0,0,0,0,0,0,1128,1129,0,0,0,0,0,0,1128,1129,0,0,0,1322,1323,0,0,1126,1127,0,0,0,0,0,0,0,0,0,0,0,0,0,1126,1127,1124,1125,0,0,0,0,0,0,0,0,0,0,0,0,0,0,0,0,1126,1127,0,0,1128,1129,1124,1125,0,0,0,0,0,0,0,1176,1177,1178,1179,1124,1125,1128,1129,1126,1127,0,0,0,0,0,1124,1125,1128,1129,0,0,0,0,0,0,0,0,0,0,0,0,0,0,0,0,0,0,0,0,0,0,0,0,0,0,0,0,0,0,1128,1129,0,0,0,0,1126,1127,0,0,0,0,1124,1125,0,1126,1127,1124,1125,0,0,0,0,0,0,0,0,0,0,0,0,1172,1173,1174,1175,0,1124,1125,0,0,0,0,0,0,1172,1173,1174,1175,0,0,1124,1125,0,0,1322,1323,0,1176,1177,1178,1179,0,0,0,0,0,0,1126,1127,0,0,0,0,0,1124,1125,1322,1323,0,0,0,0,0,0,0,1128,1129,0,0,0,0,0,0,0,1130,1131,0,
0,0,1322,1323,0,0,0,0,0,0,0,0,0,0,0,0,0,0,1124,1125,0,0,0,0,0,0,0,0,0,0,0,0,0,0,0,0,0,0,0,0,0,0,0,0,0,1124,1125,1126,1127,1126,1127,0,0,1124,1125,0,0,0,1322,1323,0,0,1322,1323,1128,1129,0,1172,1173,1174,1175,0,0,0,0,0,0,0,0,0,1172,1173,1174,1175,1126,1127,1124,1125,0,1128,1129,1322,1323,0,0,0,0,0,0,0,0,0,0,0,0,0,0,0,0,0,0,0,0,0,0,0,0,0,0,0,1176,1177,1178,1179,0,0,0,0,0,0,0,0,0,0,0,0,0,0,0,0,0,0,0,0,0,0,0,1124,1125,0,0,1126,1127,1172,1173,1174,1175,0,0,0,0,0,1128,1129,0,0,0,0,0,0,0,0,0,0,0,0,0,0,0,1126,1127,0,1172,1173,1174,1175,1128,1129,0,0,0,0,0,0,0,0,0,1126,1127,0,1126,1127,0,0,0,0,0,0,0,0,0,1128,1129,0,0,0,0,0,0,0,0,0,0,0,0,0,0,0,1128,1129,1322,1323,0,0,0,0,0,1172,1173,1174,1175,1128,1129,0,0,0,0,1172,1173,1174,1175,1124,1125,0,0,0,
1126,1127,0,0,0,0,1172,1173,1174,1175,1176,1177,1178,1179,1172,1173,1174,1175,0,0,0,0,0,0,0,0,0,0,0,0,0,0,0,0,0,0,0,0,0,0,0,1172,1173,1174,1175,0,0,0,0,0,0,0,0,0,0,1126,1127,0,0,0,1128,1129,0,0,0,0,0,0,0,0,0,1124,1125,1322,1323,0,1124,1125,1322,1323,0,0,0,0,0,0,0,0,0,0,0,0,0,1176,1177,1178,1179,1322,1323,1172,1173,1174,1175,1128,1129,0,0,0,0,0,0,0,0,0,1322,1323,1176,1177,1178,1179,0,0,0,0,0,0,1126,1127,1322,1323,0,0,0,0,0,0,0,0,0,0,0,0,0,0,0,0,0,0,0,1126,1127,0,0,0,0,0,0,1322,1323,1124,1125,0,0,0,0,1128,1129,1322,1323,1176,1177,1178,1179,0,0,0,0,0,0,0,0,0,0,0,0,0,0,0,1126,1127,0,0,0,0,1124,1125,0,0,0,0,0,0,0,0,0,0,0,0,0,0,0,0,0,0,0,0,0,0,0,0,1128,1129,0,0,0,0,0,0,0,0,0,0,1126,1127,0,1126,1127,0,0,0,0,0,0,0,1322,1323,0,0,0,0,0,0,0,1556,1557,1558,
0,0,1126,1127,1322,1323,0,0,0,0,0,0,0,0,0,0,0,0,1128,1129,0,0,0,0,0,0,0,0,0,0,0,0,0,0,0,1322,1323,0,0,0,0,0,0,0,0,1128,1129,0,0,0,1176,1177,1178,1179,0,0,0,1322,1323,0,0,0,1124,1125,0,1128,1129,0,0,0,0,0,0,0,0,0,0,0,0,0,0,0,0,0,1124,1125,1124,1125,1126,1127,1126,1127,0,0,0,0,0,0,0,0,0,0,0,0,0,0,0,0,0,1124,1125,1126,1127,0,0,0,0,0,0,0,0,0,0,0,1128,1129,0,0,0,0,0,0,0,0,0,0,0,0,0,0,0,0,0,0,0,0,0,1322,1323,0,0,1124,1125,0,0,0,0,0,0,0,0,1322,1323,1322,1323,0,0,0,0,0,0,0,0,0,0,0,0,0,0,0,0,0,0,0,0,0,1322,1323,0,0,0,1322,1323,0,0,0,1322,1323,1126,1127,0,1172,1173,1174,1175,0,0,0,0,0,0,0,1126,1127,1322,1323,0,1322,1323,0,0,0,0,0,0,0,0,0,0,0,0,0,0,0,0,0,0,0,0,0,0,0,0,0,0,0,0,0,0,0,0,1124,1125,0,0,0,
1128,1129,0,0,0,0,0,0,0,0,0,0,0,0,0,0,0,0,0,0,0,0,0,0,0,0,0,0,0,0,0,0,0,1126,1127,0,0,1176,1177,1178,1179,0,0,0,0,0,0,1322,1323,0,0,0,0,0,1128,1129,0,0,0,1322,1323,0,0,0,0,0,0,0,1126,1127,0,0,0,0,0,0,0,1128,1129,0,1172,1173,1174,1175,0,0,0,0,0,0,0,0,0,0,0,0,0,1126,1127,0,0,0,0,0,1128,1129,0,0,0,0,0,0,0,1124,1125,0,0,0,0,0,0,0,0,0,0,0,0,1322,1323,0,0,0,0,0,0,0,0,0,0,0,0,0,0,0,0,0,0,0,0,1128,1129,0,0,1128,1129,1124,1125,1322,1323,0,0,0,0,0,0,0,0,1322,1323,0,0,0,0,0,0,0,0,0,0,0,0,0,0,0,1322,1323,0,0,0,1128,1129,0,0,1124,1125,0,0,0,0,0,0,0,0,0,0,0,0,0,0,0,0,0,0,0,0,0,0,0,0,1172,1173,1174,1175,0,0,0,0,0,0,0,0,0,0,1126,1127,0,1322,1323,0,1128,1129,0,0,1124,1125,0,0,1128,1129,1322,1323,0,0,0,0,0,
0,0,1124,1125,1322,1323,1128,1129,0,0,1172,1173,1174,1175,1322,1323,1176,1177,1178,1179,0,0,0,0,0,0,0,0,0,0,0,0,0,0,0,1126,1127,0,0,0,0,0,1322,1323,1322,1323,0,0,0,0,0,0,0,0,0,0,1126,1127,0,0,0,1172,1173,1174,1175,1128,1129,0,0,0,0,0,0,0,0,0,0,0,0,0,0,0,0,0,1322,1323,1322,1323,0,0,1322,1323,1172,1173,1174,1175,0,0,0,1176,1177,1178,1179,0,0,0,0,0,0,0,1128,1129,0,0,0,0,1322,1323,0,0,1126,1127,0,0,0,1322,1323,0,0,0,0,0,0,0,0,0,0,0,0,0,0,0,0,0,0,0,0,0,0,0,0,1124,1125,0,0,0,0,0,0,1172,1173,1174,1175,0,1322,1323,0,0,0,1322,1323,0,0,0,0,0,0,0,0,0,0,0,1322,1323,0,0,0,1124,1125,0,0,0,0,0,0,1128,1129,0,1322,1323,0,0,0,0,0,0,0,0,0,0,0,0,0,0,1124,1125,1124,1125,0,0,0,0,0,0,0,0,0,0,0,0,0,0,0,0,0,0,0,0,0,0,0,0,0,0,0,0,0,0,0,0,0,1124,1125,1565,1566,1567,
1322,1323,0,0,0,0,0,0,1322,1323,0,0,0,0,0,0,0,0,0,0,0,0,0,0,0,0,0,0,0,0,0,0,1124,1125,0,0,0,0,0,0,0,0,0,0,0,0,0,1126,1127,0,1124,1125,1322,1323,0,0,0,0,0,0,0,0,0,0,0,0,0,1124,1125,1124,1125,0,0,0,0,1126,1127,1322,1323,0,0,0,0,0,0,0,0,0,1128,1129,0,0,0,0,0,0,1124,1125,0,0,0,0,0,0,1126,1127,1322,1323,1128,1129,0,0,1176,1177,1178,1179,0,0,1124,1125,0,0,1128,1129,0,0,0,1172,1173,1174,1175,0,0,0,0,0,0,0,0,0,0,0,0,0,0,0,0,0,1322,1323,0,0,0,1126,1127,0,1126,1127,0,0,0,0,0,0,0,0,1124,1125,0,0,0,0,0,0,0,0,0,0,0,0,0,0,0,0,1322,1323,0,0,0,1176,1177,1178,1179,1124,1125,0,0,0,0,0,1128,1129,1322,1323,0,0,0,0,0,0,0,0,0,0,0,0,0,0,0,0,0,0,0,0,0,0,0,0,0,0,0,1126,1127,1322,1323,1126,1127,1176,1177,1178,1179,0,1128,1129,1322,1323,1124,1125,1124,1125,0,0,0,0,0,0,
0,0,1559,1560,1561,0,1124,1125,0,0,0,0,0,0,1322,1323,0,0,0,0,0,0,0,0,0,0,1176,1177,1178,1179,0,0,0,0,0,1176,1177,1178,1179,1124,1125,1322,1323,0,1128,1129,0,0,0,0,0,0,0,0,1124,1125,1322,1323,0,1322,1323,0,0,0,0,0,0,0,0,0,0,0,0,0,0,0,0,0,0,1172,1173,1174,1175,0,1126,1127,1126,1127,0,0,1126,1127,0,0,0,0,0,0,0,0,0,0,0,0,0,0,0,0,0,0,1124,1125,0,0,0,0,1124,1125,0,0,1124,1125,0,0,0,1124,1125,0,0,0,0,0,0,0,0,0,0,0,0,0,0,0,0,0,0,0,0,0,0,0,1322,1323,0,0,0,0,0,0,0,0,0,0,0,1128,1129,0,0,0,1126,1127,0,1172,1173,1174,1175,0,0,0,0,0,0,0,0,0,0,0,0,1126,1127,0,0,0,0,0,0,1124,1125,1128,1129,0,0,0,0,0,0,0,0,0,0,0,0,0,0,0,0,1128,1129,0,1128,1129,1172,1173,1174,1175,0,0,0,0,0,0,0,0,0,0,0,0,0,0,0,0,0,0,0,0,0,0,0,0,0,0,0,0,0,0,0,0,
1322,1323,0,0,0,0,0,0,1322,1323,1124,1125,1124,1125,0,0,1126,1127,1126,1127,0,0,2007,2008,0,0,0,0,0,0,1124,1125,1128,1129,0,0,0,0,0,0,0,0,0,0,0,0,0,0,1322,1323,1124,1125,1126,1127,0,0,0,0,0,0,0,1128,1129,0,1128,1129,1124,1125,1126,1127,0,0,0,0,1322,1323,1124,1125,0,0,0,0,0,0,0,0,0,0,0,0,0,0,1128,1129,0,0,1128,1129,1128,1129,1322,1323,1124,1125,0,1322,1323,0,1128,1129,0,0,0,0,0,0,0,0,1126,1127,0,0,1322,1323,0,0,0,0,0,0,0,0,0,0,0,0,0,0,0,0,0,0,0,0,0,0,0,0,0,0,0,0,1124,1125,1128,1129,1124,1125,1126,1127,1322,1323,0,0,0,1126,1127,0,0,0,0,0,0,0,0,1126,1127,0,0,0,0,1124,1125,1126,1127,1124,1125,0,0,0,0,0,0,1322,1323,0,0,0,0,1322,1323,0,1126,1127,0,1128,1129,0,0,0,0,0,0,0,0,0,0,0,0,0,0,0,0,0,1124,1125,1128,1129,1322,1323,1322,1323,1322,1323,1128,1129,0,0,0,0,0,0,1126,1127,0,1128,1129,1128,1129,0,1124,1125,0,1559,1560,1561,
0,0,0,0,0,0,0,0,0,0,0,0,0,0,0,0,0,0,0,0,0,0,0,0,0,0,0,0,0,0,0,0,0,0,0,0,0,0,0,0,0,0,0,0,0,0,0,0,0,0,0,0,0,0,0,0,0,0,0,0,0,0,0,0,0,0,0,0,0,0,0,0,0,0,0,0,0,0,0,0,0,0,0,0,0,0,0,0,0,0,0,0,0,0,0,0,0,0,0,0,0,0,0,0,0,0,0,0,0,0,0,0,0,0,0,0,0,0,0,0,0,0,0,0,0,0,0,0,0,0,0,0,0,0,0,0,0,0,0,0,0,0,0,0,0,0,0,0,0,0,0,0,0,0,0,0,0,0,0,0,0,0,0,0,0,0,0,0,0,0,0,0,0,0,0,0,0,0,0,0,0,0,0,0,0,0,0,0,0,0,0,0,0,0,0,0,0,0,0,0,0,0,0,0,0,0,0,0,0,0,0,0,0,0,0,0,0,0,0,0,0,0,0,0,0,0,0,0,0,0,0,0,0,0,0,0,0,0,0,0,0,0,0,0,0,0,0,0,0,0,0,0,0,0,0,0,
1128,1129,1128,1129,1322,1323,1565,1566,1567,1322,1323,1565,1566,1567,1562,1563,1564,1172,1173,1174,1175,1565,1566,1567,1128,1129,1562,1563,1564,1556,1557,1558,1322,1323,1128,1129,1176,1177,1178,1179,1176,1177,1178,1179,1126,1127,1565,1566,1567,1176,1177,1178,1179,1565,1566,1567,1559,1560,1561,1559,1560,1561,1559,1560,1561,1322,1323,1559,1560,1561,1130,1131,1130,1131,1130,1131,1565,1566,1567,1559,1560,1561,1126,1127,1130,1131,1128,1129,1124,1125,1172,1173,1174,1175,1565,1566,1567,1562,1563,1564,1172,1173,1174,1175,1130,1131,1126,1127,1130,1131,1130,1131,1176,1177,1178,1179,1565,1566,1567,1126,1127,1556,1557,1558,1128,1129,1556,1557,1558,1130,1131,1559,1560,1561,1130,1131,1556,1557,1558,1556,1557,1558,1172,1173,1174,1175,1172,1173,1174,1175,1176,1177,1178,1179,1172,1173,1174,1175,1126,1127,1559,1560,1561,1130,1131,1130,1131,1176,1177,1178,1179,1322,1323,1124,1125,1176,1177,1178,1179,1562,1563,1564,1124,1125,1562,1563,1564,1130,1131,1556,1557,1558,1172,1173,1174,1175,1128,1129,1124,1125,1559,1560,1561,1559,1560,1561,1126,1127,1322,1323,1124,1125,1559,1560,1561,1128,1129,1172,1173,1174,1175,1556,1557,1558,1322,1323,1322,1323,1176,1177,1178,1179,1176,1177,1178,1179,1130,1131,1565,1566,1567,1130,1131,1126,1127,1322,1323,1562,1563,1564,1124,1125,0,0,0,0,
0,0,0,0,0,0,0,0,0,0,0,0,0,0,0,0,0,0,0,0,0,0,0,0,0,0,0,0,0,0,0,0,0,0,0,0,0,0,0,0,0,0,0,0,0,0,0,0,0,0,0,0,0,0,0,0,0,0,0,0,0,0,0,0,0,0,0,0,0,0,0,0,0,0,0,0,0,0,0,0,0,0,0,0,0,0,0,0,0,0,0,0,0,0,0,0,0,0,0,0,0,0,0,0,0,0,0,0,0,0,0,0,0,0,0,0,0,0,0,0,0,0,0,0,0,0,0,0,0,0,0,0,0,0,0,0,0,0,0,0,0,0,0,0,0,0,0,0,0,0,0,0,0,0,0,0,0,0,0,0,0,0,0,0,0,0,0,0,0,0,0,0,0,0,0,0,0,0,0,0,0,0,0,0,0,0,0,0,0,0,0,0,0,0,0,0,0,0,0,0,0,0,0,0,0,0,0,0,0,0,0,0,0,0,0,0,0,0,0,0,0,0,0,0,0,0,0,0,0,0,0,0,0,0,0,0,0,0,0,0,0,0,0,0,0,0,0,0,0,0,0,0,1130,1131,1130,1131,
0,0,0,0,0,0,0,0,0,0,0,0,0,0,0,0,0,0,0,0,0,0,0,0,0,0,0,0,0,0,0,0,0,0,0,0,0,0,0,0,0,0,0,0,0,0,0,0,0,0,0,0,0,0,0,0,0,0,0,0,0,0,0,0,0,0,0,0,0,0,0,0,0,0,0,0,0,0,0,0,0,0,0,0,0,0,0,0,0,0,0,0,0,0,0,0,0,0,0,0,0,0,0,0,0,0,0,0,0,0,0,0,0,0,0,0,0,0,0,0,0,0,0,0,0,0,0,0,0,0,0,0,0,0,0,0,0,0,0,0,0,0,0,0,0,0,0,0,0,0,0,0,0,0,0,0,0,0,0,0,0,0,0,0,0,0,0,0,0,0,0,0,0,0,0,0,0,0,0,0,0,0,0,0,0,0,0,0,0,0,0,0,0,0,0,0,0,0,0,0,0,0,0,0,0,0,0,0,0,0,0,0,0,0,0,0,0,0,0,0,0,0,0,0,0,0,0,0,0,0,0,0,0,0,0,0,0,0,0,0,0,0,0,0,0,0,0,0,0,0,0,0,0,0,0,0
</data>
 </layer>
 <objectgroup id="7" name="interactions">
  <object id="5" name="LOST_CORK_TAVERN_DOOR" x="1936" y="1216" width="16" height="16">
   <properties>
    <property name="obj_type" value="exit"/>
    <property name="to_map" value="LOST_CORK_TAVERN"/>
    <property name="destination_entry_point" value="Door"/>
   </properties>
  </object>
  <object id="7" name="STABLE_DOOR" x="2128" y="1216" width="16" height="16">
   <properties>
    <property name="obj_type" value="exit"/>
    <property name="to_map" value="JACOBS_CHAMBER"/>
    <property name="destination_entry_point" value="Door"/>
   </properties>
  </object>
  <object id="10" name="SMITHY_DOOR" x="2416" y="1264" width="16" height="16">
   <properties>
    <property name="obj_type" value="exit"/>
    <property name="to_map" value="JACOBS_CHAMBER"/>
    <property name="destination_entry_point" value="Door"/>
   </properties>
  </object>
  <object id="13" name="HAMMER_HOAXHEART_DOOR" x="2832" y="1568" width="16" height="16">
   <properties>
    <property name="obj_type" value="exit"/>
    <property name="to_map" value="JACOBS_CHAMBER"/>
    <property name="destination_entry_point" value="Door"/>
   </properties>
  </object>
  <object id="16" name="POTIONEER_PUZZLEMINT_DOOR" x="560" y="1568" width="16" height="16">
   <properties>
    <property name="obj_type" value="exit"/>
    <property name="to_map" value="JACOBS_CHAMBER"/>
    <property name="destination_entry_point" value="Door"/>
   </properties>
  </object>
  <object id="19" name="BART_DOOR" x="1552" y="1632" width="16" height="16">
   <properties>
    <property name="obj_type" value="exit"/>
    <property name="to_map" value="JACOBS_CHAMBER"/>
    <property name="destination_entry_point" value="Door"/>
   </properties>
  </object>
  <object id="22" name="JOHNY_DOOR" x="2480" y="1696" width="16" height="16">
   <properties>
    <property name="obj_type" value="exit"/>
    <property name="to_map" value="JACOBS_CHAMBER"/>
    <property name="destination_entry_point" value="Door"/>
   </properties>
  </object>
  <object id="40" name="wies_polnoc_02_DOOR" x="352" y="1360" width="16" height="16">
   <properties>
    <property name="obj_type" value="exit"/>
    <property name="to_map" value="JACOBS_CHAMBER"/>
    <property name="destination_entry_point" value="Door"/>
   </properties>
  </object>
  <object id="43" name="wies_polnoc_04_DOOR" x="560" y="1296" width="16" height="16">
   <properties>
    <property name="obj_type" value="exit"/>
    <property name="to_map" value="JACOBS_CHAMBER"/>
    <property name="destination_entry_point" value="Door"/>
   </properties>
  </object>
  <object id="45" name="wies_polnoc_05_DOOR" x="672" y="1392" width="16" height="16">
   <properties>
    <property name="obj_type" value="exit"/>
    <property name="to_map" value="JACOBS_CHAMBER"/>
    <property name="destination_entry_point" value="Door"/>
   </properties>
  </object>
  <object id="48" name="wies_polnoc_07_DOOR" x="928" y="1536" width="16" height="16">
   <properties>
    <property name="obj_type" value="exit"/>
    <property name="to_map" value="JACOBS_CHAMBER"/>
    <property name="destination_entry_point" value="Door"/>
   </properties>
  </object>
  <object id="51" name="wies_polnoc_09_DOOR" x="1264" y="1696" width="16" height="16">
   <properties>
    <property name="obj_type" value="exit"/>
    <property name="to_map" value="JACOBS_CHAMBER"/>
    <property name="destination_entry_point" value="Door"/>
   </properties>
  </object>
  <object id="54" name="wies_polnoc_11_DOOR" x="1584" y="1472" width="16" height="16">
   <properties>
    <property name="obj_type" value="exit"/>
    <property name="to_map" value="JACOBS_CHAMBER"/>
    <property name="destination_entry_point" value="Door"/>
   </properties>
  </object>
  <object id="57" name="wies_polnoc_13_DOOR" x="1760" y="1376" width="16" height="16">
   <properties>
    <property name="obj_type" value="exit"/>
    <property name="to_map" value="JACOBS_CHAMBER"/>
    <property name="destination_entry_point" value="Door"/>
   </properties>
  </object>
  <object id="59" name="wies_polnoc_14_DOOR" x="1856" y="1424" width="16" height="16">
   <properties>
    <property name="obj_type" value="exit"/>
    <property name="to_map" value="JACOBS_CHAMBER"/>
    <property name="destination_entry_point" value="Door"/>
   </properties>
  </object>
  <object id="62" name="wies_polnoc_16_DOOR" x="2096" y="1600" width="16" height="16">
   <properties>
    <property name="obj_type" value="exit"/>
    <property name="to_map" value="JACOBS_CHAMBER"/>
    <property name="destination_entry_point" value="Door"/>
   </properties>
  </object>
  <object id="65" name="wies_polnoc_18_DOOR" x="2624" y="1632" width="16" height="16">
   <properties>
    <property name="obj_type" value="exit"/>
    <property name="to_map" value="JACOBS_CHAMBER"/>
    <property name="destination_entry_point" value="Door"/>
   </properties>
  </object>
  <object id="67" name="wies_polnoc_19_DOOR" x="2880" y="1456" width="16" height="16">
   <properties>
    <property name="obj_type" value="exit"/>
    <property name="to_map" value="JACOBS_CHAMBER"/>
    <property name="destination_entry_point" value="Door"/>
   </properties>
  </object>
  <object id="69" name="wies_polnoc_20_DOOR" x="3024" y="1344" width="16" height="16">
   <properties>
    <property name="obj_type" value="exit"/>
    <property name="to_map" value="JACOBS_CHAMBER"/>
    <property name="destination_entry_point" value="Door"/>
   </properties>
  </object>
  <object id="72" name="wies_polnoc_22_DOOR" x="3184" y="1376" width="16" height="16">
   <properties>
    <property name="obj_type" value="exit"/>
    <property name="to_map" value="JACOBS_CHAMBER"/>
    <property name="destination_entry_point" value="Door"/>
   </properties>
  </object>
  <object id="75" name="wies_polnoc_24_DOOR" x="3376" y="1488" width="16" height="16">
   <properties>
    <property name="obj_type" value="exit"/>
    <property name="to_map" value="JACOBS_CHAMBER"/>
    <property name="destination_entry_point" value="Door"/>
   </properties>
  </object>
  <object id="78" name="wies_polnoc_26_DOOR" x="3712" y="1584" width="16" height="16">
   <properties>
    <property name="obj_type" value="exit"/>
    <property name="to_map" value="JACOBS_CHAMBER"/>
    <property name="destination_entry_point" value="Door"/>
   </properties>
  </object>
  <object id="81" name="wies_poludnie_28_DOOR" x="352" y="1104" width="16" height="16">
   <properties>
    <property name="obj_type" value="exit"/>
    <property name="to_map" value="JACOBS_CHAMBER"/>
    <property name="destination_entry_point" value="Door"/>
   </properties>
  </object>
  <object id="84" name="wies_poludnie_30_DOOR" x="672" y="1104" width="16" height="16">
   <properties>
    <property name="obj_type" value="exit"/>
    <property name="to_map" value="JACOBS_CHAMBER"/>
    <property name="destination_entry_point" value="Door"/>
   </properties>
  </object>
  <object id="87" name="wies_poludnie_32_DOOR" x="944" y="1264" width="16" height="16">
   <properties>
    <property name="obj_type" value="exit"/>
    <property name="to_map" value="JACOBS_CHAMBER"/>
    <property name="destination_entry_point" value="Door"/>
   </properties>
  </object>
  <object id="90" name="wies_poludnie_34_DOOR" x="1232" y="1376" width="16" height="16">
   <properties>
    <property name="obj_type" value="exit"/>
    <property name="to_map" value="JACOBS_CHAMBER"/>
    <property name="destination_entry_point" value="Door"/>
   </properties>
  </object>
  <object id="92" name="wies_poludnie_35_DOOR" x="1360" y="1296" width="16" height="16">
   <properties>
    <property name="obj_type" value="exit"/>
    <property name="to_map" value="JACOBS_CHAMBER"/>
    <property name="destination_entry_point" value="Door"/>
   </properties>
  </object>
  <object id="95" name="wies_poludnie_37_DOOR" x="1632" y="1168" width="16" height="16">
   <properties>
    <property name="obj_type" value="exit"/>
    <property name="to_map" value="JACOBS_CHAMBER"/>
    <property name="destination_entry_point" value="Door"/>
   </properties>
  </object>
  <object id="97" name="wies_poludnie_38_DOOR" x="2032" y="1168" width="16" height="16">
   <properties>
    <property name="obj_type" value="exit"/>
    <property name="to_map" value="JACOBS_CHAMBER"/>
    <property name="destination_entry_point" value="Door"/>
   </properties>
  </object>
  <object id="99" name="wies_poludnie_39_DOOR" x="2272" y="1360" width="16" height="16">
   <properties>
    <property name="obj_type" value="exit"/>
    <property name="to_map" value="JACOBS_CHAMBER"/>
    <property name="destination_entry_point" value="Door"/>
   </properties>
  </object>
  <object id="102" name="wies_poludnie_41_DOOR" x="2432" y="1424" width="16" height="16">
   <properties>
    <property name="obj_type" value="exit"/>
    <property name="to_map" value="JACOBS_CHAMBER"/>
    <property name="destination_entry_point" value="Door"/>
   </properties>
  </object>
  <object id="104" name="wies_poludnie_42_DOOR" x="2560" y="1328" width="16" height="16">
   <properties>
    <property name="obj_type" value="exit"/>
    <property name="to_map" value="JACOBS_CHAMBER"/>
    <property name="destination_entry_point" value="Door"/>
   </properties>
  </object>
  <object id="107" name="wies_poludnie_44_DOOR" x="2832" y="1200" width="16" height="16">
   <properties>
    <property name="obj_type" value="exit"/>
    <property name="to_map" value="JACOBS_CHAMBER"/>
    <property name="destination_entry_point" value="Door"/>
   </properties>
  </object>
  <object id="109" name="wies_poludnie_45_DOOR" x="3200" y="1120" width="16" height="16">
   <properties>
    <property name="obj_type" value="exit"/>
    <property name="to_map" value="JACOBS_CHAMBER"/>
    <property name="destination_entry_point" value="Door"/>
   </properties>
  </object>
  <object id="112" name="wies_poludnie_47_DOOR" x="3472" y="1168" width="16" height="16">
   <properties>
    <property name="obj_type" value="exit"/>
    <property name="to_map" value="JACOBS_CHAMBER"/>
    <property name="destination_entry_point" value="Door"/>
   </properties>
  </object>
  <object id="115" name="wies_poludnie_49_DOOR" x="3696" y="1328" width="16" height="16">
   <properties>
    <property name="obj_type" value="exit"/>
    <property name="to_map" value="JACOBS_CHAMBER"/>
    <property name="destination_entry_point" value="Door"/>
   </properties>
  </object>
 </objectgroup>
 <objectgroup id="8" name="entry_points">
  <object id="6" name="LOST_CORK_TAVERN_DOOR" x="1944" y="1240">
   <point/>
  </object>
  <object id="8" name="JACOBS_CHAMBER_DOOR" x="2136" y="1240">
   <point/>
  </object>
  <object id="11" name="SMITHY_FRONT" x="2424" y="1288">
   <point/>
  </object>
  <object id="14" name="HAMMER_HOAXHEART_FRONT" x="2840" y="1592">
   <point/>
  </object>
  <object id="17" name="POTIONEER_PUZZLEMINT_FRONT" x="568" y="1592">
   <point/>
  </object>
  <object id="20" name="BART_FRONT" x="1560" y="1656">
   <point/>
  </object>
  <object id="23" name="JOHNY_FRONT" x="2488" y="1720">
   <point/>
  </object>
  <object id="41" name="wies_polnoc_02_FRONT" x="360" y="1384">
   <point/>
  </object>
  <object id="44" name="wies_polnoc_04_FRONT" x="568" y="1320">
   <point/>
  </object>
  <object id="46" name="wies_polnoc_05_FRONT" x="680" y="1416">
   <point/>
  </object>
  <object id="49" name="wies_polnoc_07_FRONT" x="936" y="1560">
   <point/>
  </object>
  <object id="52" name="wies_polnoc_09_FRONT" x="1272" y="1720">
   <point/>
  </object>
  <object id="55" name="wies_polnoc_11_FRONT" x="1592" y="1496">
   <point/>
  </object>
  <object id="58" name="wies_polnoc_13_FRONT" x="1768" y="1400">
   <point/>
  </object>
  <object id="60" name="wies_polnoc_14_FRONT" x="1864" y="1448">
   <point/>
  </object>
  <object id="63" name="wies_polnoc_16_FRONT" x="2104" y="1624">
   <point/>
  </object>
  <object id="66" name="wies_polnoc_18_FRONT" x="2632" y="1656">
   <point/>
  </object>
  <object id="68" name="wies_polnoc_19_FRONT" x="2888" y="1480">
   <point/>
  </object>
  <object id="70" name="wies_polnoc_20_FRONT" x="3032" y="1368">
   <point/>
  </object>
  <object id="73" name="wies_polnoc_22_FRONT" x="3192" y="1400">
   <point/>
  </object>
  <object id="76" name="wies_polnoc_24_FRONT" x="3384" y="1512">
   <point/>
  </object>
  <object id="79" name="wies_polnoc_26_FRONT" x="3720" y="1608">
   <point/>
  </object>
  <object id="82" name="wies_poludnie_28_FRONT" x="360" y="1128">
   <point/>
  </object>
  <object id="85" name="wies_poludnie_30_FRONT" x="680" y="1128">
   <point/>
  </object>
  <object id="88" name="wies_poludnie_32_FRONT" x="952" y="1288">
   <point/>
  </object>
  <object id="91" name="wies_poludnie_34_FRONT" x="1240" y="1400">
   <point/>
  </object>
  <object id="93" name="wies_poludnie_35_FRONT" x="1368" y="1320">
   <point/>
  </object>
  <object id="96" name="wies_poludnie_37_FRONT" x="1640" y="1192">
   <point/>
  </object>
  <object id="98" name="wies_poludnie_38_FRONT" x="2040" y="1192">
   <point/>
  </object>
  <object id="100" name="wies_poludnie_39_FRONT" x="2280" y="1384">
   <point/>
  </object>
  <object id="103" name="wies_poludnie_41_FRONT" x="2440" y="1448">
   <point/>
  </object>
  <object id="105" name="wies_poludnie_42_FRONT" x="2568" y="1352">
   <point/>
  </object>
  <object id="108" name="wies_poludnie_44_FRONT" x="2840" y="1224">
   <point/>
  </object>
  <object id="110" name="wies_poludnie_45_FRONT" x="3208" y="1144">
   <point/>
  </object>
  <object id="113" name="wies_poludnie_47_FRONT" x="3480" y="1192">
   <point/>
  </object>
  <object id="116" name="wies_poludnie_49_FRONT" x="3704" y="1352">
   <point/>
  </object>
  <object id="117" name="start" x="2136" y="1256">
   <point/>
  </object>
  <object id="118" name="DrogaZachod" x="40" y="1352">
   <point/>
  </object>
  <object id="119" name="DrogaWschod" x="4056" y="1320">
   <point/>
  </object>
 </objectgroup>
 <objectgroup id="9" name="waypoints"/>
 <objectgroup id="10" name="places">
  <object id="120" name="well" x="2056" y="1424"/>
  <object id="121" name="smithy" x="2424" y="1296"/>
  <object id="122" name="house_smith" x="2840" y="1600"/>
  <object id="123" name="house_bart" x="1560" y="1664"/>
  <object id="124" name="house_johny" x="2488" y="1728"/>
  <object id="125" name="house_barman" x="1944" y="1248"/>
 </objectgroup>
 <objectgroup id="11" name="spawn_points">
  <object id="24" name="COW_FARMSTEAD_BIG_01" gid="2833" x="1024" y="1104" width="16" height="16"/>
  <object id="25" name="COW_FARMSTEAD_BIG_02" gid="2833" x="976" y="1056" width="16" height="16"/>
  <object id="26" name="PIG_FARMSTEAD_BIG_03" gid="2832" x="1008" y="1056" width="16" height="16"/>
  <object id="27" name="CHICKEN_WHITE_FARMSTEAD_BIG_04" gid="2831" x="1136" y="1104" width="16" height="16"/>
  <object id="28" name="CHICKEN_BROWN_FARMSTEAD_BIG_05" gid="2829" x="1280" y="1072" width="16" height="16"/>
  <object id="29" name="CHICKEN_BLACK_FARMSTEAD_BIG_06" gid="2828" x="1120" y="1104" width="16" height="16"/>
  <object id="30" name="CHICKEN_CUTE_FARMSTEAD_BIG_07" gid="2830" x="1280" y="1024" width="16" height="16"/>
  <object id="31" name="HORSE_FARMSTEAD_BIG_08" gid="2834" x="1200" y="1040" width="16" height="16"/>
  <object id="32" name="DOG_ORANGE_FARMSTEAD_BIG_09" gid="2826" x="1040" y="1008" width="16" height="16"/>
  <object id="33" name="CHICKEN_WHITE_FARMSTEAD_SMALL_01" gid="2831" x="3376" y="1136" width="16" height="16"/>
  <object id="34" name="CHICKEN_BROWN_FARMSTEAD_SMALL_02" gid="2829" x="3376" y="1088" width="16" height="16"/>
  <object id="35" name="CHICKEN_CUTE_FARMSTEAD_SMALL_03" gid="2830" x="3408" y="1072" width="16" height="16"/>
  <object id="36" name="PIG_FARMSTEAD_SMALL_04" gid="2832" x="3376" y="1040" width="16" height="16"/>
  <object id="37" name="COW_FARMSTEAD_SMALL_05" gid="2833" x="3408" y="1008" width="16" height="16"/>
  <object id="38" name="DOG_PURPLE_FARMSTEAD_SMALL_06" gid="2827" x="3392" y="1072" width="16" height="16"/>
  <object id="127" name="BARMAN_ABSINTHRAYNER" gid="2847" x="1968" y="1264" width="16" height="16"/>
  <object id="128" name="HAMMER_HOAXHEART" gid="2819" x="2432" y="1296" width="16" height="16"/>
  <object id="129" name="POTIONEER_PUZZLEMINT" gid="2849" x="576" y="1600" width="16" height="16"/>
  <object id="130" name="MARRY" gid="2822" x="1984" y="1440" width="16" height="16"/>
  <object id="131" name="BART" gid="2820" x="1568" y="1664" width="16" height="16"/>
  <object id="132" name="JOHNY" gid="2818" x="2496" y="1728" width="16" height="16"/>
  <object id="133" name="ROB" gid="2821" x="2128" y="1472" width="16" height="16"/>
  <object id="134" name="CLAPBACK_SWORD" gid="2848" x="2144" y="1248" width="16" height="16"/>
  <object id="135" name="CAT_01" gid="2825" x="2016" y="1504" width="16" height="16"/>
 </objectgroup>
 <objectgroup id="12" name="zones">
  <object id="1" name="field_west" x="736" y="544" width="224" height="288"/>
  <object id="2" name="field_north" x="1536" y="480" width="224" height="288"/>
  <object id="3" name="field_east" x="2336" y="512" width="224" height="288"/>
  <object id="4" name="field_far_east" x="3136" y="608" width="224" height="288"/>
  <object id="9" name="backyard_SMITHY" x="2384" y="1216" width="80" height="96"/>
  <object id="12" name="backyard_HAMMER_HOAXHEART" x="2784" y="1520" width="112" height="112"/>
  <object id="15" name="backyard_POTIONEER_PUZZLEMINT" x="512" y="1520" width="112" height="112"/>
  <object id="18" name="backyard_BART" x="1504" y="1584" width="128" height="112"/>
  <object id="21" name="backyard_JOHNY" x="2432" y="1648" width="128" height="112"/>
  <object id="39" name="backyard_01" x="320" y="1296" width="96" height="112"/>
  <object id="42" name="backyard_03" x="496" y="1232" width="144" height="144"/>
  <object id="47" name="backyard_06" x="864" y="1472" width="144" height="144"/>
  <object id="50" name="backyard_08" x="1200" y="1632" width="144" height="144"/>
  <object id="53" name="backyard_10" x="1536" y="1392" width="128" height="144"/>
  <object id="56" name="backyard_12" x="1712" y="1328" width="112" height="112"/>
  <object id="61" name="backyard_15" x="2048" y="1552" width="112" height="112"/>
  <object id="64" name="backyard_17" x="2592" y="1600" width="80" height="80"/>
  <object id="71" name="backyard_21" x="3152" y="1344" width="96" height="80"/>
  <object id="74" name="backyard_23" x="3328" y="1408" width="128" height="144"/>
  <object id="77" name="backyard_25" x="3648" y="1520" width="144" height="144"/>
  <object id="80" name="backyard_27" x="288" y="1040" width="144" height="144"/>
  <object id="83" name="backyard_29" x="608" y="1040" width="144" height="144"/>
  <object id="86" name="backyard_31" x="880" y="1200" width="144" height="144"/>
  <object id="89" name="backyard_33" x="1168" y="1312" width="144" height="144"/>
  <object id="94" name="backyard_36" x="1584" y="1120" width="112" height="112"/>
  <object id="101" name="backyard_40" x="2400" y="1392" width="80" height="80"/>
  <object id="106" name="backyard_43" x="2784" y="1152" width="128" height="112"/>
  <object id="111" name="backyard_46" x="3440" y="1136" width="80" height="80"/>
  <object id="114" name="backyard_48" x="3648" y="1280" width="112" height="112"/>
  <object id="126" name="plains" x="640" y="1696" width="2816" height="256"/>
 </objectgroup>
</map>
