<?xml version="1.0" encoding="UTF-8"?>
<map version="1.10" tiledversion="1.12.2" orientation="orthogonal" renderorder="right-down" width="64" height="64" tilewidth="16" tileheight="16" infinite="0" nextlayerid="16" nextobjectid="309">
 <properties>
  <property name="outdoor" type="bool" value="true"/>
  <property name="particles" value="leafs,rain"/>
 </properties>
 <tileset firstgid="1" source="../tilesets/Water.tsx"/>
 <tileset firstgid="477" source="../tilesets/Floor.tsx"/>
 <tileset firstgid="1049" source="../tilesets/Field.tsx"/>
 <tileset firstgid="1124" source="../tilesets/Nature.tsx"/>
 <tileset firstgid="1628" source="../tilesets/House.tsx"/>
 <tileset firstgid="2387" source="../tilesets/Element.tsx"/>
 <tileset firstgid="2627" source="../tilesets/FloorDetail.tsx"/>
 <tileset firstgid="2707" source="../../items/items.tsx"/>
 <tileset firstgid="2817" source="../tilesets/CharacterTileset.tsx"/>
 <layer id="1" name="ground" width="64" height="64">
  <data encoding="csv">
745,744,742,745,742,745,745,722,742,741,745,741,745,741,722,745,741,722,741,721,721,722,742,745,742,721,745,745,721,744,741,745,741,742,742,745,743,721,742,722,742,745,744,745,744,722,742,745,744,722,722,721,742,743,742,744,721,745,745,745,721,744,743,742,
722,721,722,722,722,743,741,745,741,722,722,743,742,721,741,742,744,722,721,722,745,745,742,741,741,742,744,741,745,721,743,743,741,743,741,742,744,722,722,722,722,745,742,743,721,742,743,745,742,744,745,742,743,744,744,744,745,721,721,742,745,721,742,742,
742,722,741,742,745,721,722,721,721,721,741,744,745,744,743,745,745,722,743,722,745,721,744,721,721,722,744,741,744,743,744,744,744,722,743,743,722,743,744,742,743,742,745,745,742,741,742,745,742,745,742,745,745,722,744,722,721,741,743,745,742,745,745,722,
742,744,722,741,744,742,743,741,745,744,721,744,721,741,745,745,744,722,721,744,744,745,744,743,741,745,722,721,742,742,741,742,742,743,721,741,722,741,745,721,722,721,721,745,721,743,745,742,742,742,744,745,744,743,745,742,741,745,741,743,743,722,744,743,
722,744,741,744,722,744,741,745,743,722,745,744,741,743,722,742,721,721,744,742,741,742,745,721,742,742,745,722,721,721,744,745,741,742,741,741,745,745,741,744,741,741,721,743,742,721,742,745,742,721,743,745,745,745,744,721,744,745,721,742,743,742,721,745,
745,744,743,741,745,743,744,745,741,742,741,743,742,722,742,722,742,744,745,722,745,722,743,745,744,743,741,743,744,741,722,742,742,744,745,742,745,721,742,744,743,741,743,743,722,741,742,743,744,743,744,745,744,745,745,742,745,742,741,744,744,742,721,722,
721,745,722,722,742,722,743,745,741,743,744,744,743,742,722,721,721,722,742,722,744,722,742,742,722,741,741,742,745,721,743,721,741,743,744,743,744,743,745,722,742,742,744,741,745,634,635,698,638,743,744,744,742,742,744,742,722,743,721,745,721,741,745,741,
741,722,722,721,744,745,722,742,722,742,721,743,744,743,721,741,745,741,744,721,743,744,742,744,745,744,741,742,722,721,743,742,742,745,744,742,741,721,743,722,722,743,743,745,697,726,656,700,656,743,722,744,722,741,721,722,742,741,721,745,745,741,741,745,
745,721,722,743,741,721,742,742,741,744,745,743,743,745,743,722,743,742,721,722,721,742,741,722,721,721,745,745,722,743,743,741,742,722,742,742,744,741,742,722,742,745,741,744,742,678,701,698,704,741,634,745,741,742,743,742,744,743,743,743,743,742,743,745,
722,721,721,744,742,744,741,741,741,743,722,744,745,744,745,743,744,745,722,722,741,722,745,744,721,721,743,742,722,721,745,722,722,743,743,742,743,722,722,745,741,742,745,745,634,742,721,634,745,697,705,699,745,741,743,743,743,741,743,741,745,745,741,742,
742,721,744,742,721,744,745,722,743,743,741,721,744,744,744,745,743,741,742,744,742,742,742,721,744,743,743,743,722,741,741,721,722,742,745,744,741,743,743,744,742,743,743,742,723,699,697,727,699,697,639,699,743,742,742,742,741,745,745,744,742,721,744,744,
744,745,744,741,742,744,722,745,721,744,745,721,743,743,742,745,744,741,745,722,722,745,721,744,722,745,742,744,744,721,742,742,742,722,741,744,745,722,721,742,745,742,743,744,678,741,742,678,741,742,678,744,743,742,745,743,743,741,744,742,744,742,742,721,
721,742,741,744,722,741,742,722,743,743,722,721,722,742,744,744,741,742,743,722,722,745,741,721,741,743,745,745,722,745,742,743,743,743,741,742,742,742,742,742,721,742,743,745,744,721,631,633,743,744,744,744,745,721,721,742,745,721,744,744,744,743,744,744,
722,745,742,741,741,743,743,743,741,745,722,721,742,744,721,721,744,721,722,743,743,744,722,743,745,741,743,744,722,743,743,741,722,721,721,743,721,744,745,722,741,741,742,745,745,742,653,655,743,722,744,722,721,741,743,745,742,745,721,743,742,745,741,744,
745,745,721,722,745,744,745,741,744,744,742,741,741,744,721,742,722,744,744,741,722,744,743,744,722,744,721,742,742,742,721,742,634,721,744,743,721,741,721,745,721,743,722,741,742,721,653,655,741,741,745,742,741,745,741,743,743,722,743,741,741,721,721,742,
744,744,741,745,745,741,741,741,745,634,741,741,721,741,745,744,745,745,743,742,744,721,744,744,745,743,742,743,744,722,745,744,656,742,745,722,745,743,721,743,742,721,745,741,742,721,653,655,745,742,741,721,744,745,721,742,743,742,741,721,745,722,742,743,
744,722,743,721,742,743,745,743,745,656,722,743,722,743,744,721,742,745,741,741,722,743,745,741,721,741,745,743,721,743,722,722,656,721,722,745,721,745,743,743,722,741,722,745,743,741,653,655,744,741,744,742,745,742,741,744,744,742,722,742,741,722,745,722,
743,634,722,721,745,741,744,722,742,656,722,745,742,744,745,743,743,722,745,742,721,722,744,743,741,722,722,744,722,697,698,698,661,698,698,698,699,741,744,741,743,741,743,743,722,741,653,655,742,721,744,742,722,743,721,745,721,741,742,743,743,721,722,743,
743,656,721,722,722,745,741,743,745,656,744,741,743,722,634,722,741,742,745,745,722,742,745,721,741,744,722,742,722,745,721,745,656,745,722,744,741,743,743,745,742,743,743,744,743,743,653,655,722,741,721,722,742,741,721,745,745,741,721,745,721,744,742,741,
722,656,742,743,721,743,744,721,721,656,744,745,744,744,656,743,744,722,744,721,721,634,722,741,721,741,744,745,741,722,721,722,656,741,745,745,721,721,741,744,742,741,722,744,721,721,653,655,721,742,743,722,744,741,722,743,743,742,742,742,721,742,744,741,
741,656,742,742,722,741,741,721,721,656,721,721,744,745,656,722,742,741,722,722,721,656,741,743,721,721,742,745,721,745,743,721,656,741,722,742,743,745,745,742,631,632,632,632,632,632,681,680,632,632,632,632,632,633,743,745,744,744,721,741,744,745,741,745,
744,701,698,639,698,698,698,698,698,704,745,722,743,743,701,698,698,698,698,698,698,705,698,698,698,698,698,698,698,698,698,698,705,698,638,722,743,743,741,722,675,676,676,676,676,676,659,658,676,676,676,676,676,677,745,721,741,721,745,722,743,742,722,743,
745,741,721,656,722,745,742,722,744,741,741,745,745,721,721,744,741,742,741,722,722,742,744,742,744,722,743,721,741,745,742,745,745,742,656,743,721,722,743,744,742,741,721,721,722,745,653,655,741,743,721,743,722,742,721,743,745,722,721,721,745,722,721,744,
744,721,743,678,741,722,741,741,721,742,743,744,744,721,741,722,742,721,721,745,742,744,742,722,743,743,722,721,744,722,743,741,744,743,678,722,743,721,745,741,745,722,721,722,744,741,653,655,721,722,745,743,743,722,722,743,741,745,722,743,745,744,743,744,
722,745,741,721,743,743,721,721,743,742,743,743,744,741,722,743,741,743,743,743,722,745,742,722,741,742,722,742,722,721,721,722,744,722,745,741,744,742,742,742,721,721,744,721,741,721,653,655,741,742,742,742,721,741,721,743,742,745,745,742,744,721,741,721,
744,745,741,722,722,745,742,721,743,744,743,743,742,722,741,722,743,745,721,745,743,721,743,742,722,722,742,745,722,744,744,744,741,745,742,722,745,744,744,743,744,744,744,722,743,744,653,655,744,742,743,742,722,742,743,741,741,721,721,743,742,744,744,744,
745,741,743,742,745,745,722,721,721,744,722,741,742,722,741,743,722,743,741,741,743,722,722,721,744,745,741,745,742,742,722,741,741,722,722,721,722,722,742,742,741,742,742,743,721,721,653,655,745,721,722,721,722,721,741,721,745,722,721,742,741,744,722,745,
741,721,741,745,742,721,744,742,744,722,722,743,742,742,741,742,745,743,722,742,741,722,722,721,721,743,743,721,745,743,743,745,742,742,721,742,742,744,721,721,744,745,741,742,743,721,653,655,741,744,741,741,741,722,722,742,741,722,745,721,741,741,743,722,
744,741,745,744,722,745,744,722,744,741,742,744,721,745,742,745,742,741,743,722,744,744,722,721,741,743,743,722,721,743,741,741,722,742,722,743,744,741,744,741,722,742,742,744,745,742,653,655,742,744,743,741,721,722,742,743,743,721,744,743,742,744,721,742,
721,722,743,721,745,721,721,722,721,743,741,743,741,722,742,722,722,745,743,743,722,741,721,743,721,742,744,722,721,744,742,721,721,722,722,721,741,742,745,721,743,721,741,743,744,743,675,677,745,722,742,742,742,743,721,745,721,744,744,742,744,741,743,721,
741,742,744,743,722,744,743,741,742,745,741,745,743,744,745,744,722,722,741,722,743,745,721,721,745,721,745,744,743,744,744,744,743,744,743,744,742,741,742,721,745,741,722,741,743,721,721,744,722,744,743,742,742,741,743,743,745,721,745,745,741,742,743,722,
743,744,745,743,721,744,742,742,743,721,743,741,742,721,743,742,744,741,741,744,743,721,742,744,741,741,743,744,744,722,742,745,742,743,743,741,745,742,721,742,721,742,743,745,744,721,631,633,743,744,744,744,745,721,744,745,745,722,742,744,745,741,742,722,
744,745,722,741,722,722,743,721,743,744,721,743,721,721,743,744,721,741,742,743,742,722,741,742,721,722,743,722,743,744,742,722,722,721,744,721,742,743,742,742,741,741,742,745,745,742,653,655,743,722,744,722,721,741,742,744,745,743,743,745,743,741,741,745,
744,721,722,743,743,743,745,742,742,744,745,722,744,742,744,721,721,741,745,743,745,741,745,722,745,722,721,743,744,744,743,741,722,721,743,745,722,741,745,744,721,743,722,741,742,721,653,655,741,741,745,742,741,745,745,722,743,743,745,741,721,721,721,721,
742,741,744,742,721,722,744,721,741,744,745,742,722,745,744,721,722,742,742,742,744,722,742,742,743,745,744,744,722,741,721,742,741,743,744,744,721,722,745,722,742,721,745,741,742,721,653,655,745,742,741,721,744,745,741,721,742,745,744,742,744,743,744,745,
741,721,722,742,743,722,744,742,743,741,742,721,745,722,721,745,722,743,744,743,742,741,742,743,743,721,745,742,741,745,741,721,722,741,722,744,743,741,744,742,722,741,722,745,743,741,653,655,744,741,744,742,745,742,722,743,721,721,743,741,722,744,743,722,
721,741,745,744,741,741,743,722,742,741,721,722,745,744,743,745,722,721,744,721,743,741,722,721,745,722,745,721,745,742,743,722,744,745,743,742,721,721,743,745,743,741,743,743,722,741,653,655,742,721,744,742,722,743,745,741,745,721,741,744,742,743,744,743,
745,743,745,745,722,722,722,742,722,744,722,743,744,743,744,721,722,745,722,722,744,741,741,721,744,742,742,745,745,721,744,722,742,744,744,722,741,745,721,743,742,743,743,744,743,743,653,655,722,741,721,722,742,741,722,742,722,742,745,721,721,722,742,745,
744,744,741,745,745,745,742,741,742,742,743,743,742,742,722,743,744,743,742,742,721,722,743,744,743,744,743,745,743,721,745,743,722,741,745,743,722,721,722,743,742,741,722,744,721,721,653,655,721,742,743,722,744,741,722,742,742,742,722,743,722,743,722,743,
742,745,721,744,744,745,721,745,745,743,744,745,722,722,743,742,743,741,744,741,744,745,742,744,745,741,721,744,741,745,745,745,721,744,722,742,722,741,744,721,631,632,632,632,632,632,681,680,632,632,632,632,632,633,742,721,741,743,722,721,721,744,743,744,
742,722,721,744,743,743,745,745,743,721,743,743,721,742,742,743,741,741,743,742,742,744,744,743,741,741,743,741,745,741,741,743,745,745,741,742,743,744,721,742,675,676,676,676,676,676,659,658,676,676,676,676,676,677,721,722,721,722,721,722,721,722,721,722,
741,742,744,721,743,722,743,743,722,742,743,741,745,742,744,745,742,744,743,741,744,741,744,744,744,745,741,741,741,742,743,745,744,743,745,742,745,743,743,741,742,741,721,721,722,745,653,655,741,743,721,743,722,742,741,741,742,744,743,744,743,744,743,744,
722,741,743,722,722,742,745,722,745,742,721,744,742,741,744,722,744,741,743,741,745,745,742,744,743,744,741,744,741,745,744,745,741,744,743,743,744,741,721,742,745,722,721,722,744,741,653,655,721,722,745,743,743,722,721,722,741,721,745,741,741,742,721,722,
721,721,721,744,741,745,721,741,742,742,722,722,721,722,744,721,744,722,744,744,741,742,741,742,741,741,745,745,744,742,743,741,745,744,745,742,744,743,743,742,721,721,744,721,741,721,653,655,741,742,742,742,721,741,741,745,742,744,743,741,745,745,741,744,
744,722,743,743,744,742,721,742,742,721,742,743,743,721,721,744,742,744,741,745,742,744,742,743,744,742,743,745,743,745,744,744,742,743,745,743,745,745,721,722,744,744,744,722,743,744,653,655,744,742,743,742,722,742,743,743,744,744,743,721,744,745,721,742,
742,745,743,721,742,745,745,721,744,722,745,744,745,741,721,742,741,742,743,745,741,742,742,741,744,741,743,743,743,744,745,744,744,743,744,744,743,744,743,744,741,742,742,743,721,721,653,655,745,721,722,721,722,721,741,742,721,744,721,743,743,744,721,721,
721,745,743,743,743,722,741,743,744,722,744,742,741,722,745,745,721,745,743,742,742,742,743,744,744,743,745,742,742,744,742,742,743,745,744,745,744,742,721,744,744,745,741,742,743,721,653,655,741,744,741,741,741,722,744,743,742,722,721,722,742,745,721,722,
721,721,743,721,744,745,742,744,743,722,721,741,722,722,741,742,744,721,744,745,745,743,742,745,743,742,742,743,742,744,741,742,743,741,743,742,743,743,743,741,722,742,742,744,745,742,653,655,742,744,743,741,721,722,741,741,743,744,743,744,743,742,741,744,
721,721,722,743,742,742,741,745,722,742,743,743,742,745,742,743,742,722,745,744,742,744,745,742,741,745,744,744,745,743,744,744,745,741,743,742,743,742,745,742,743,721,741,743,744,743,675,677,745,722,742,742,742,743,721,741,745,745,745,745,721,722,745,722,
743,722,742,741,722,743,745,745,741,744,722,745,743,742,742,742,743,741,741,745,744,743,744,741,741,741,742,743,745,744,744,744,741,743,742,743,743,745,742,741,743,743,745,744,745,744,743,743,741,744,743,744,743,744,743,741,743,745,745,745,745,744,742,744,
743,721,744,742,721,743,722,722,743,745,741,742,743,741,743,744,743,745,742,741,742,743,742,741,743,741,743,741,744,742,745,744,745,744,742,743,741,744,721,743,744,741,741,743,745,743,745,742,742,722,742,742,743,722,721,742,721,722,721,722,745,722,721,722,
743,741,743,741,743,741,744,741,742,744,745,722,741,741,741,742,722,742,744,745,741,744,744,743,742,741,741,744,743,742,744,743,741,745,743,743,742,741,743,744,745,745,742,743,745,745,743,744,743,741,741,742,742,744,743,742,741,741,743,744,745,744,743,744,
721,744,741,744,743,741,742,741,721,741,743,721,741,743,743,744,744,742,744,741,741,741,743,741,743,744,742,743,745,742,742,745,745,744,741,745,744,741,743,743,742,741,721,721,745,722,741,722,742,741,742,741,741,742,721,722,721,741,741,722,745,745,745,745,
745,742,741,744,743,744,743,743,722,744,721,722,722,741,744,744,745,741,742,744,744,742,741,743,742,745,742,742,742,741,742,743,743,743,742,741,744,745,743,742,741,742,742,743,742,721,743,742,743,742,742,742,743,744,743,741,742,741,743,744,743,744,743,744,
743,741,745,745,743,721,742,722,721,741,742,744,741,745,743,743,744,742,745,743,745,745,742,742,742,745,742,744,743,742,745,742,745,741,742,744,741,741,721,722,721,741,742,743,721,741,741,741,721,721,721,722,742,742,742,741,721,722,721,722,744,745,721,721,
744,722,742,741,742,743,721,745,743,721,744,743,743,743,741,721,744,743,744,745,744,745,745,741,741,745,741,745,743,745,741,741,741,745,744,742,743,742,743,744,743,744,741,741,745,744,742,744,743,741,745,744,742,741,741,742,742,741,741,742,744,745,741,742,
741,722,742,742,741,744,743,741,743,741,743,721,745,722,742,741,742,743,744,745,744,743,742,745,743,744,745,745,741,741,741,743,742,741,743,741,745,745,721,722,721,721,742,741,741,742,743,721,721,722,744,742,741,742,741,742,721,722,721,742,742,745,721,722,
744,742,743,745,743,745,741,745,744,722,742,742,722,722,741,744,721,742,744,741,744,744,744,743,743,745,744,742,741,741,741,744,742,745,743,744,745,743,722,721,744,721,741,744,744,744,744,721,722,742,741,741,742,741,741,742,721,745,743,722,722,742,722,722,
745,745,721,744,722,722,743,721,744,744,742,721,721,742,722,722,741,742,722,722,722,722,722,722,722,722,722,722,722,722,722,722,722,722,722,722,722,722,722,744,742,743,745,722,722,722,722,744,741,741,722,722,722,722,722,722,722,722,722,722,722,722,722,722,
744,741,742,743,741,745,741,745,742,742,745,742,741,742,742,745,741,741,742,742,742,742,742,745,743,745,744,743,743,742,745,743,743,741,743,743,744,744,744,743,741,744,744,742,741,744,743,743,743,744,741,741,741,742,741,743,745,743,741,742,741,744,745,741,
743,742,744,744,743,744,745,744,745,741,744,743,743,742,744,744,742,744,745,745,744,744,745,745,743,742,744,743,742,745,743,745,742,743,745,743,742,743,745,745,745,742,742,741,743,741,741,742,743,745,744,743,743,744,742,745,745,743,743,744,745,741,742,745,
742,742,745,745,744,743,742,741,743,744,745,743,741,745,743,742,742,741,744,741,744,743,741,741,741,742,744,745,743,745,741,742,744,741,741,742,742,741,742,742,743,744,743,744,741,743,742,745,745,742,743,745,743,744,745,741,742,741,744,745,743,742,745,742,
741,743,742,745,743,741,742,742,745,745,741,743,744,744,744,741,745,743,744,744,742,745,741,744,745,745,745,742,744,745,745,741,744,743,741,745,745,743,741,742,741,744,744,745,744,745,742,743,745,743,744,744,745,741,745,741,741,743,745,741,744,743,742,742,
742,741,741,743,742,743,745,741,742,743,745,742,743,741,743,742,743,744,741,744,741,741,743,741,744,744,741,744,745,741,742,741,743,742,742,742,741,742,745,741,742,745,744,745,742,742,742,743,741,742,741,743,744,741,742,741,743,743,743,742,741,745,744,743
</data>
 </layer>
 <layer id="2" name="foliage" width="64" height="64">
  <data encoding="csv">
0,0,0,0,0,0,0,0,0,0,0,0,0,0,0,0,0,0,0,0,0,0,0,0,0,0,0,0,0,0,0,0,0,0,0,0,0,0,0,0,0,0,0,0,0,0,0,0,0,0,0,0,0,0,0,0,0,0,0,0,0,0,0,0,
0,0,0,0,0,0,0,0,0,0,0,0,2659,2660,2661,2662,2663,2664,2665,2666,0,0,0,0,0,0,0,0,0,0,0,0,0,0,0,0,0,0,0,0,0,0,0,0,0,0,0,0,0,0,0,0,0,0,0,0,0,0,0,0,0,0,0,0,
0,0,0,0,0,0,0,0,0,0,0,0,0,0,0,0,0,0,0,0,0,0,0,0,0,0,0,0,0,0,0,0,0,0,0,0,0,0,0,0,0,0,0,0,0,0,0,0,0,0,0,0,0,0,0,0,0,0,0,0,0,0,0,0,
0,0,0,0,0,0,0,0,0,0,0,0,0,0,0,0,0,0,0,0,0,0,0,0,0,0,0,0,0,0,0,0,0,0,0,0,0,0,0,0,0,0,0,0,0,0,0,0,0,0,0,0,0,0,0,0,0,0,0,0,0,0,0,0,
0,0,0,0,0,0,0,0,0,0,0,0,0,0,0,0,0,0,0,0,0,0,0,0,0,0,0,0,0,0,0,0,0,0,0,0,0,0,0,0,0,0,0,0,0,0,0,0,0,0,0,0,0,0,0,0,0,0,0,0,0,0,0,0,
0,0,0,0,0,0,0,0,0,0,0,0,0,0,0,0,0,0,0,0,0,0,0,0,0,0,0,0,0,0,0,0,0,0,0,0,0,0,0,0,0,0,0,0,0,0,0,0,0,0,0,0,0,0,0,0,0,0,0,0,0,0,0,0,
0,0,1571,1572,1573,1574,0,0,0,0,0,0,0,0,0,0,0,0,0,0,0,0,0,0,0,0,0,0,0,0,0,0,0,0,0,0,0,0,0,0,0,0,0,0,0,0,0,0,0,0,0,0,0,0,0,0,0,0,0,0,0,0,0,0,
0,0,0,0,0,0,0,0,0,0,0,0,0,0,0,0,0,0,0,0,0,0,0,0,0,0,0,0,0,0,0,0,0,0,0,0,0,0,0,0,0,0,0,0,0,0,0,0,0,0,0,0,0,0,0,0,0,0,0,0,0,0,0,0,
0,0,0,0,0,0,0,0,0,0,0,0,0,0,0,0,0,0,0,0,0,0,0,0,0,0,0,0,0,0,0,0,0,0,0,0,0,0,0,0,0,0,0,0,0,0,0,0,0,0,0,0,0,0,0,0,0,0,0,0,0,0,0,0,
0,0,0,0,0,0,0,0,0,0,0,0,0,0,0,0,0,0,0,0,0,0,0,0,0,0,0,0,0,0,0,0,0,0,0,0,0,0,0,0,0,0,0,0,0,0,0,0,0,0,0,0,0,0,0,0,0,0,0,0,0,0,0,0,
0,2627,2628,1425,2630,2631,2632,0,0,0,0,0,0,0,0,0,0,0,0,0,0,0,0,0,0,0,0,0,0,0,0,0,0,0,0,0,0,0,0,0,0,0,0,0,0,0,0,0,0,0,0,0,0,0,0,0,0,0,0,0,0,0,0,0,
0,0,0,0,0,0,0,0,0,0,0,0,0,0,0,0,0,0,0,0,0,0,0,0,0,0,0,0,0,0,0,0,0,0,0,0,0,0,0,0,0,0,0,0,0,0,0,0,0,0,0,0,0,0,0,0,0,0,0,0,0,0,0,0,
0,0,0,0,0,0,0,0,0,0,0,0,0,0,0,0,0,0,0,0,0,0,0,0,0,0,0,0,0,0,0,0,0,0,0,0,0,0,0,0,1079,1080,1080,1080,1080,1081,0,0,1079,1080,1080,1080,1080,1081,0,0,0,1064,1065,1066,0,0,0,0,
0,0,0,0,0,0,0,0,0,0,0,0,0,0,0,0,0,0,0,0,0,0,0,0,0,0,0,0,0,0,0,0,0,0,0,0,0,0,0,0,1084,1085,1085,1085,1085,1086,0,0,1084,1085,1085,1085,1085,1086,0,0,0,1069,1070,1071,0,0,0,0,
0,0,0,0,0,0,0,0,0,0,0,0,0,0,0,0,0,0,0,0,0,0,0,0,0,0,0,0,0,0,0,0,0,2664,2664,2664,2664,0,0,0,1084,1085,1085,1085,1085,1086,0,0,1084,1085,1085,1085,1085,1086,0,0,0,1074,1075,1076,0,0,0,0,
0,0,0,0,0,0,0,0,0,0,0,0,0,0,0,0,0,0,0,0,0,0,0,0,0,0,0,0,0,0,0,0,0,2664,2664,2664,2664,0,0,0,1084,1085,1085,1085,1085,1086,0,0,1084,1085,1085,1085,1085,1086,0,0,0,1079,1080,1081,0,0,0,0,
0,0,0,0,0,0,0,0,0,0,0,0,0,0,0,0,0,0,0,0,0,0,0,0,0,0,0,0,0,0,0,0,0,2664,2664,2664,2664,0,0,0,1084,1085,1085,1085,1085,1086,0,0,1084,1085,1085,1085,1085,1086,0,0,0,1084,1085,1086,0,0,0,0,
0,0,0,0,0,0,0,0,0,0,0,0,0,0,0,0,0,0,0,0,0,0,0,0,0,0,0,0,0,0,0,0,0,0,0,0,0,0,0,0,1084,1085,1085,1085,1085,1086,0,0,1084,1085,1085,1085,1085,1086,0,0,0,1089,1090,1091,0,0,0,0,
0,0,0,0,0,0,0,0,0,0,0,0,0,0,0,0,0,0,0,0,0,0,0,0,0,0,0,0,0,0,0,0,0,0,0,0,0,0,0,0,1084,1085,1085,1085,1085,1086,0,0,1084,1085,1085,1085,1085,1086,0,0,0,0,0,0,0,0,0,0,
0,0,0,0,0,0,0,0,0,0,0,0,0,0,0,0,0,0,0,0,0,0,0,0,0,0,0,0,0,0,0,0,0,0,0,0,0,0,0,0,1089,1090,1090,1090,1090,1091,0,0,1089,1090,1090,1090,1090,1091,0,0,0,0,0,0,0,0,0,0,
0,0,0,0,0,0,0,0,0,0,0,0,0,0,0,0,0,0,0,0,0,0,0,0,0,0,0,0,0,0,0,0,0,0,0,0,0,0,0,0,0,0,0,0,0,0,0,0,0,0,0,0,0,0,0,0,0,0,0,0,0,0,0,0,
0,0,0,0,0,0,0,0,0,0,0,0,0,0,0,0,0,0,0,0,0,0,0,0,0,0,0,0,0,0,0,0,0,0,0,0,0,0,0,0,0,0,0,0,0,0,0,0,0,0,0,0,0,0,0,0,0,1094,1095,1096,0,0,0,0,
0,0,0,0,0,0,0,0,0,0,0,0,0,0,0,0,0,0,0,0,0,0,0,0,0,0,0,0,0,0,0,0,0,0,0,0,0,0,0,0,1079,1080,1080,1080,1080,1081,0,0,1079,1080,1080,1080,1080,1081,0,0,0,1099,1100,1101,0,0,0,0,
0,0,0,0,0,0,0,0,0,0,0,0,0,0,0,0,0,0,0,0,0,0,0,0,0,0,0,0,0,0,0,0,0,0,0,0,0,0,0,0,1084,1085,1085,1085,1085,1086,0,0,1084,1085,1085,1085,1085,1086,0,0,0,1104,1105,1106,0,0,0,0,
0,0,0,0,0,0,0,0,0,0,0,0,0,0,0,0,0,0,0,0,0,0,0,0,0,0,0,0,0,0,0,0,1571,1572,1573,1574,0,0,0,0,1084,1085,1085,1085,1085,1086,0,0,1084,1085,1085,1085,1085,1086,0,0,0,0,0,0,0,0,0,0,
0,0,0,0,0,0,0,0,0,0,0,0,0,0,0,0,0,0,0,0,0,0,0,0,0,0,0,0,0,0,0,0,0,0,0,0,0,0,0,0,1084,1085,1085,1085,1085,1086,0,0,1084,1085,1085,1085,1085,1086,0,0,0,0,0,0,0,0,0,0,
0,0,0,0,0,0,0,0,0,0,0,0,0,0,0,0,0,0,0,0,0,0,0,0,0,0,0,0,0,0,0,0,0,0,0,0,0,0,0,0,1084,1085,1085,1085,1085,1086,0,0,1084,1085,1085,1085,1085,1086,0,0,0,0,0,0,0,0,0,0,
0,0,0,0,0,0,0,0,0,0,0,0,0,0,0,0,0,0,0,0,0,0,0,0,0,0,0,0,0,0,0,0,0,0,0,0,0,0,0,0,1084,1085,1085,1085,1085,1086,0,0,1084,1085,1085,1085,1085,1086,0,0,0,0,0,0,0,0,0,0,
0,0,0,0,0,0,0,0,0,0,0,0,0,0,0,0,0,0,0,0,0,0,0,0,0,0,0,0,0,0,0,0,0,0,0,0,0,0,0,0,1084,1085,1085,1085,1085,1086,0,0,1084,1085,1085,1085,1085,1086,0,0,0,0,0,0,0,0,0,0,
0,0,0,0,0,0,0,0,0,0,0,0,0,0,0,0,0,0,0,0,0,0,0,0,0,0,0,0,0,0,0,0,0,0,0,0,0,0,0,0,1089,1090,1090,1090,1090,1091,0,0,1089,1090,1090,1090,1090,1091,0,0,0,0,0,0,0,0,0,0,
0,0,0,0,0,0,0,0,0,0,0,0,0,0,0,0,0,0,0,0,0,0,0,0,0,0,0,0,0,0,0,0,0,0,0,0,0,0,0,0,0,0,0,0,0,0,0,0,0,0,0,0,0,0,0,0,0,0,0,0,0,0,0,0,
0,0,0,0,0,0,0,0,0,0,0,0,0,0,0,0,0,0,0,0,0,0,0,0,0,0,0,0,0,0,0,0,0,0,0,0,0,0,0,0,1049,1050,1050,1050,1050,1051,0,0,1049,1050,1050,1050,1050,1051,0,1049,1050,1051,0,0,0,0,0,0,
0,0,0,0,0,0,0,0,0,0,0,0,0,0,0,0,0,0,0,0,0,0,0,0,0,0,0,0,0,0,0,0,0,0,0,0,0,0,0,0,1054,1055,1055,1055,1055,1056,0,0,1054,1055,1055,1055,1055,1056,0,1054,1055,1056,0,0,0,0,0,0,
0,0,0,0,0,0,0,0,0,0,0,0,0,0,0,0,0,0,0,0,0,0,0,0,0,0,0,0,0,0,0,0,0,0,0,0,0,0,0,0,1054,1055,1055,1055,1055,1056,0,0,1054,1055,1055,1055,1055,1056,0,1059,1060,1061,0,0,0,0,0,0,
0,0,0,0,0,0,0,0,0,0,0,0,0,0,0,0,0,0,0,0,0,0,0,0,0,0,0,0,0,0,0,0,0,0,0,0,0,0,0,0,1054,1055,1055,1055,1055,1056,0,0,1054,1055,1055,1055,1055,1056,0,0,0,0,0,0,0,0,0,0,
0,0,0,0,0,0,0,0,0,0,0,0,0,0,0,0,0,0,0,0,0,0,0,0,0,0,0,0,0,0,0,0,0,0,0,0,0,0,0,0,1054,1055,1055,1055,1055,1056,0,0,1054,1055,1055,1055,1055,1056,0,0,0,0,0,0,0,0,0,0,
0,0,0,0,0,0,0,0,0,0,0,0,0,0,0,0,0,0,0,0,0,0,0,0,0,0,0,0,0,0,0,0,0,0,0,0,0,0,0,0,1054,1055,1055,1055,1055,1056,0,0,1054,1055,1055,1055,1055,1056,0,0,0,0,0,0,0,0,0,0,
0,0,0,0,0,0,0,0,0,0,0,0,0,0,0,0,0,0,0,0,0,0,0,0,0,0,0,0,0,0,0,0,0,0,0,0,0,0,0,0,1054,1055,1055,1055,1055,1056,0,0,1054,1055,1055,1055,1055,1056,0,0,0,0,0,0,0,0,0,0,
0,0,0,0,0,0,0,0,0,0,0,0,0,0,0,0,0,0,0,0,0,0,0,0,0,0,0,0,0,0,0,0,0,0,0,0,0,0,0,0,1059,1060,1060,1060,1060,1061,0,0,1059,1060,1060,1060,1060,1061,0,0,0,0,0,0,0,0,0,0,
0,0,0,0,0,0,0,0,0,0,0,0,0,0,0,0,0,0,0,0,0,0,0,0,0,0,0,0,0,0,0,0,0,0,0,0,0,0,0,0,0,0,0,0,0,0,0,0,0,0,0,0,0,0,0,0,0,0,0,0,0,0,0,0,
0,0,0,0,0,0,0,0,0,0,0,0,0,0,0,0,0,0,0,0,0,0,0,0,0,0,0,0,0,0,0,0,0,0,0,0,0,0,0,0,0,0,0,0,0,0,0,0,0,0,0,0,0,0,0,0,0,0,0,0,0,0,0,0,
0,0,0,0,0,0,0,0,0,0,0,0,0,0,0,0,0,0,0,0,0,0,0,0,0,0,0,0,0,0,0,0,0,0,0,0,0,0,0,0,1049,1050,1050,1050,1050,1051,0,0,1049,1050,1050,1050,1050,1051,0,0,0,0,0,0,0,0,0,0,
0,0,0,0,0,0,0,0,0,0,0,0,0,0,0,0,0,0,0,0,0,0,0,0,0,0,0,0,0,0,0,0,0,0,0,0,0,0,0,0,1054,1055,1055,1055,1055,1056,0,0,1054,1055,1055,1055,1055,1056,0,0,0,0,0,0,0,0,0,0,
0,0,0,0,0,0,0,0,0,0,0,0,0,0,0,0,0,0,0,0,0,0,0,0,0,0,0,0,0,0,0,0,0,0,0,0,0,0,0,0,1054,1055,1055,1055,1055,1056,0,0,1054,1055,1055,1055,1055,1056,0,0,0,0,0,0,0,0,0,0,
0,0,0,0,0,0,0,0,0,0,0,0,0,0,0,0,0,0,0,0,0,0,0,0,0,0,0,0,0,0,0,0,0,0,0,0,0,0,0,0,1054,1055,1055,1055,1055,1056,0,0,1054,1055,1055,1055,1055,1056,0,0,0,0,0,0,0,0,0,0,
0,0,0,0,0,0,0,0,0,0,0,0,0,0,0,0,0,0,0,0,0,0,0,0,0,0,0,0,0,0,0,0,0,0,0,0,0,0,0,0,1054,1055,1055,1055,1055,1056,0,0,1054,1055,1055,1055,1055,1056,0,0,0,0,0,0,0,0,0,0,
0,0,0,0,0,0,0,0,0,0,0,0,0,0,0,0,0,0,0,0,0,0,0,0,0,0,0,0,0,0,0,0,0,0,0,0,0,0,0,0,1054,1055,1055,1055,1055,1056,0,0,1054,1055,1055,1055,1055,1056,0,0,0,0,0,0,0,0,0,0,
0,0,0,0,0,0,0,0,0,0,0,0,0,0,0,0,0,0,0,0,0,0,0,0,0,0,0,0,0,0,0,0,0,0,0,0,0,0,0,0,1054,1055,1055,1055,1055,1056,0,0,1054,1055,1055,1055,1055,1056,0,0,0,0,0,0,0,0,0,0,
0,0,0,0,0,0,0,0,0,0,0,0,0,0,0,0,0,0,0,0,0,0,0,0,0,0,0,0,0,0,0,0,0,0,0,0,0,0,0,0,1059,1060,1060,1060,1060,1061,0,0,1059,1060,1060,1060,1060,1061,0,0,0,0,0,0,0,0,0,0,
0,0,0,0,0,0,0,0,0,0,0,0,0,0,0,0,0,0,0,0,0,0,0,0,0,0,0,0,0,0,0,0,0,0,0,0,0,0,0,0,0,0,0,0,0,0,0,0,0,0,0,0,0,0,0,0,0,0,0,0,0,0,0,0,
0,0,0,0,0,0,0,0,0,0,0,0,0,0,0,0,0,0,0,0,0,0,0,0,0,0,0,0,0,0,0,0,0,0,0,0,0,0,0,0,0,0,0,0,0,0,0,0,0,0,0,0,0,0,0,0,0,0,0,0,0,0,0,0,
0,0,0,0,0,0,0,0,0,0,0,0,0,0,0,0,0,0,0,0,0,0,0,0,0,0,0,0,0,0,0,0,0,0,0,0,0,0,0,0,0,0,0,0,0,0,0,0,0,0,0,0,0,0,0,0,0,0,0,0,0,0,0,0,
0,0,0,0,0,0,0,0,0,0,0,0,0,0,0,0,0,0,0,0,0,0,0,0,0,0,0,0,0,0,0,0,0,0,0,0,0,0,0,0,0,0,0,0,0,0,0,0,0,0,0,0,0,0,0,0,0,0,0,0,0,0,0,0,
0,0,0,0,0,0,0,0,0,0,0,0,0,0,0,0,0,0,0,0,0,0,0,0,0,0,0,0,0,0,0,0,0,0,0,0,0,0,0,0,0,0,0,0,0,0,0,0,0,0,0,0,0,0,0,0,0,0,0,0,0,0,0,0,
0,0,0,0,0,0,0,0,0,0,0,0,0,0,0,0,0,0,0,0,0,0,0,0,0,0,0,0,0,0,0,0,0,0,0,0,0,0,0,0,0,0,0,0,0,0,0,0,0,0,0,0,0,0,0,0,0,0,0,0,0,0,0,0,
0,0,0,0,0,0,0,0,0,0,0,0,0,0,0,0,0,0,0,0,0,0,0,0,0,0,0,0,0,0,0,0,0,0,0,0,0,0,0,0,0,0,0,0,0,0,0,0,0,0,0,0,0,0,0,0,0,0,0,0,0,0,0,0,
0,0,0,0,0,0,0,0,0,0,0,0,0,0,0,0,0,0,0,0,0,0,0,0,0,0,0,0,0,0,0,0,0,0,0,0,0,0,0,0,0,0,0,0,0,0,0,0,0,0,0,0,0,0,0,0,0,0,0,0,0,0,0,0,
0,0,0,0,0,0,0,0,0,0,0,0,0,0,0,0,0,0,0,0,0,0,0,0,0,0,0,0,0,0,0,0,0,0,0,0,0,0,0,0,0,0,0,0,0,0,0,0,0,0,0,0,0,0,0,0,0,0,0,0,0,0,0,0,
0,0,0,0,0,0,0,0,0,0,0,0,0,0,0,0,0,0,0,0,0,0,0,0,0,0,0,0,0,0,0,0,0,0,0,0,0,0,0,0,0,0,0,0,0,0,0,0,0,0,0,0,0,0,0,0,0,0,0,0,0,0,0,0,
0,0,0,0,0,0,0,0,0,0,0,0,0,0,0,0,0,0,0,0,0,0,0,0,0,0,0,0,0,0,0,0,0,0,0,0,0,0,0,0,0,0,0,0,0,0,0,0,0,0,0,0,0,0,0,0,0,0,0,0,0,0,0,0,
0,0,0,0,0,0,0,0,0,0,0,0,0,0,0,0,0,0,0,0,0,0,0,0,0,0,0,0,0,0,0,0,0,0,0,0,0,0,0,0,0,0,0,0,0,0,0,0,0,0,0,0,0,0,0,0,0,0,0,0,0,0,0,0,
0,0,0,0,0,0,0,0,0,0,0,0,0,0,0,0,0,0,0,0,0,0,0,0,0,0,0,0,0,0,0,0,0,0,0,0,0,0,0,0,0,0,0,0,0,0,0,0,0,0,0,0,0,0,0,0,0,0,0,0,0,0,0,0,
0,0,0,0,0,0,0,0,0,0,0,0,0,0,0,0,0,0,0,0,0,0,0,0,0,0,0,0,0,0,0,0,0,0,0,0,0,0,0,0,0,0,0,0,0,0,0,0,0,0,0,0,0,0,0,0,0,0,0,0,0,0,0,0,
0,0,0,0,0,0,0,0,0,0,0,0,0,0,0,0,0,0,0,0,0,0,0,0,0,0,0,0,0,0,0,0,0,0,0,0,0,0,0,0,0,0,0,0,0,0,0,0,0,0,0,0,0,0,0,0,0,0,0,0,0,0,0,0
</data>
 </layer>
 <layer id="11" name="items" width="64" height="64">
  <data encoding="csv">
0,0,0,0,0,0,0,0,0,0,0,0,0,0,0,0,0,0,0,0,0,0,0,0,0,0,0,0,0,0,0,0,0,0,0,0,0,0,0,0,0,0,0,0,0,0,0,0,0,0,0,0,0,0,0,0,0,0,0,0,0,0,0,0,
0,0,0,0,0,0,0,0,0,0,0,0,0,0,0,0,0,0,0,0,0,0,0,0,0,0,0,0,0,0,0,0,0,0,0,0,0,0,0,0,0,0,0,0,0,0,0,0,0,0,0,0,0,0,0,0,0,0,0,0,0,0,0,0,
0,0,0,0,0,0,0,0,0,0,0,0,0,0,0,0,0,0,0,0,0,0,0,0,0,0,0,0,0,0,0,0,0,0,0,0,0,0,0,0,0,0,0,0,0,0,0,0,0,0,0,0,0,0,0,0,0,0,0,0,0,0,0,0,
0,0,0,0,0,0,0,0,0,0,0,0,0,0,0,0,0,0,0,0,0,0,0,0,0,0,0,0,0,0,0,0,0,0,0,0,0,0,0,0,0,0,0,0,0,0,0,0,0,0,0,0,0,0,0,0,0,0,0,0,0,0,0,0,
0,0,0,0,0,0,0,0,0,0,0,0,0,0,0,0,0,0,0,0,0,0,0,0,0,0,0,0,0,0,0,0,0,0,0,0,0,0,0,0,0,0,0,0,0,0,0,0,0,0,0,0,0,0,0,0,0,0,0,0,0,0,0,0,
0,0,0,0,0,0,0,0,0,0,0,0,0,0,0,0,0,0,0,0,0,0,0,0,0,0,0,0,0,0,0,0,0,0,0,0,0,0,0,0,0,0,0,0,0,0,0,0,0,0,0,0,0,0,0,0,0,0,0,0,0,0,0,0,
0,0,0,0,0,0,0,0,0,0,0,0,0,0,0,0,0,0,0,0,0,0,0,0,0,0,0,0,0,0,0,0,0,0,0,0,0,0,0,0,0,0,0,0,0,0,0,0,0,0,0,0,0,0,0,0,0,0,0,0,0,0,0,0,
0,0,0,0,0,0,0,0,0,0,0,0,0,0,0,0,0,0,0,0,0,0,0,0,0,0,0,0,0,0,0,0,0,0,0,0,0,0,0,0,0,0,0,0,0,0,0,0,0,0,0,0,0,0,0,0,0,0,0,0,0,0,0,0,
0,0,0,0,0,0,0,0,0,0,0,0,0,0,0,0,0,0,0,0,0,0,0,0,0,0,0,0,0,0,0,0,0,0,0,0,0,2751,0,0,0,2720,0,0,0,0,0,0,0,0,0,0,0,0,0,0,0,0,0,0,0,0,0,0,
0,0,0,0,0,0,0,0,0,0,0,0,0,0,0,0,0,0,0,0,0,0,0,0,0,0,0,0,0,0,0,0,0,0,0,0,0,0,0,0,0,0,0,0,0,0,0,0,0,0,0,0,0,0,0,0,0,0,0,0,0,0,0,0,
0,0,0,0,0,0,0,0,0,0,0,0,0,0,0,0,0,0,0,0,0,0,0,0,0,0,0,0,0,0,0,0,0,0,0,0,0,0,0,0,0,0,0,0,0,0,0,0,0,0,0,0,0,0,0,0,0,0,0,0,0,0,0,0,
0,0,0,0,0,0,0,0,0,0,0,0,0,0,0,0,0,0,0,0,0,0,0,0,0,0,0,0,0,0,0,0,0,0,0,0,0,0,0,0,0,0,0,0,0,0,0,0,0,0,0,0,0,0,0,0,0,0,0,0,0,0,0,0,
0,0,0,0,0,0,0,0,0,0,0,0,0,0,0,0,0,0,0,0,0,0,0,0,0,0,0,0,0,0,0,0,0,0,0,0,0,0,0,0,0,0,0,0,0,0,0,0,0,0,0,0,0,0,0,0,0,0,0,0,0,0,0,0,
0,0,0,0,0,0,0,0,0,0,0,0,0,0,0,0,0,0,0,0,0,0,0,0,0,0,0,0,0,0,0,0,0,0,0,0,0,0,0,0,0,0,0,0,0,0,0,0,0,0,0,0,0,0,0,0,0,0,0,0,0,0,0,0,
0,0,0,0,0,0,0,0,0,0,0,0,0,0,0,0,0,0,0,0,0,0,0,0,0,0,0,0,0,0,0,0,0,0,0,0,0,0,0,0,0,0,0,0,0,0,0,0,0,0,0,0,0,0,0,0,0,0,0,0,0,0,0,0,
0,0,0,0,0,0,0,0,0,0,0,0,0,0,0,0,0,0,0,0,0,0,0,0,0,0,0,0,0,0,0,0,0,0,0,0,0,0,0,0,0,0,0,0,0,0,0,0,0,0,0,0,0,0,0,0,0,0,0,0,0,0,0,0,
0,0,0,0,0,0,0,0,0,0,0,0,0,0,0,0,0,0,0,0,0,0,0,0,0,0,0,0,0,0,0,0,0,0,0,0,0,0,0,0,0,0,0,0,0,0,0,0,0,0,0,0,0,0,0,0,0,0,0,0,0,0,0,0,
0,0,0,0,0,0,0,0,0,0,0,0,0,0,0,0,0,0,0,0,0,0,0,0,0,0,0,2769,0,0,0,0,0,0,0,0,0,0,0,0,0,0,0,0,0,0,0,0,0,0,0,0,0,0,0,0,0,0,0,0,0,0,0,0,
0,0,0,0,0,0,0,0,0,0,0,0,0,0,0,0,0,0,0,0,0,0,0,0,0,0,0,0,0,0,0,0,0,0,0,0,0,0,0,0,0,0,0,0,0,0,0,0,0,0,0,0,0,0,0,0,0,0,0,0,0,0,0,0,
0,0,0,0,0,0,0,0,0,0,0,0,0,0,0,0,0,0,0,0,0,0,0,0,0,0,0,0,0,0,0,0,0,0,0,0,0,0,0,0,0,0,0,0,0,0,0,0,0,0,0,0,0,0,0,0,0,0,0,0,0,0,0,0,
0,0,0,0,0,0,0,0,0,0,0,0,0,0,0,0,0,0,0,0,0,0,0,0,0,0,0,0,0,0,0,0,0,0,0,0,0,0,0,0,0,0,0,0,0,0,0,0,0,0,0,0,0,0,0,0,0,0,0,0,0,0,0,0,
0,0,0,0,0,0,0,0,0,0,0,0,0,0,0,0,0,0,0,0,0,0,0,0,0,0,0,0,0,0,0,0,0,0,0,0,0,0,0,0,0,0,0,0,0,0,0,0,0,0,0,0,0,0,0,0,0,0,0,0,0,0,0,0,
0,0,0,0,0,0,0,0,0,0,0,0,0,0,0,0,0,0,0,0,0,0,0,0,0,0,0,0,0,0,0,0,0,0,0,0,0,0,0,0,0,0,0,0,0,0,0,0,0,0,0,0,0,0,0,0,0,0,0,0,0,0,0,0,
0,0,0,0,0,0,0,0,0,0,0,0,0,0,0,0,0,0,0,0,0,0,0,0,0,0,0,0,0,0,0,0,0,0,0,0,0,0,0,0,0,0,0,0,0,0,0,0,0,0,0,0,0,0,0,0,0,0,0,0,0,0,0,0,
0,0,0,0,0,0,0,0,0,0,0,0,0,0,0,0,0,0,0,0,0,0,0,0,0,0,0,0,0,0,0,0,0,0,0,0,0,0,0,0,0,0,0,0,0,0,0,0,0,0,0,0,0,0,0,0,0,0,0,0,0,0,0,0,
0,0,0,0,0,0,0,0,0,0,0,0,0,0,0,0,0,0,0,0,0,0,0,0,0,0,0,0,0,0,0,0,0,0,0,0,0,0,0,0,0,0,0,0,0,0,0,0,0,0,0,0,0,0,0,0,0,0,0,0,0,0,0,0,
0,0,0,0,0,0,0,0,0,0,0,0,0,0,0,0,0,0,0,0,0,0,0,0,0,0,0,0,0,0,0,0,0,0,0,0,0,0,0,0,0,0,0,0,0,0,0,0,0,0,0,0,0,0,0,0,0,0,0,0,0,0,0,0,
0,0,0,0,0,0,0,0,0,0,0,0,0,0,0,0,0,0,0,0,0,0,0,0,0,0,0,0,0,0,0,0,0,0,0,0,0,0,0,0,0,0,0,0,0,0,0,0,0,0,0,0,0,0,0,0,0,0,0,0,0,0,0,0,
0,0,0,0,0,0,0,0,0,0,0,0,0,0,0,0,0,0,0,0,0,0,0,0,0,0,0,0,0,0,0,0,0,0,0,0,0,0,0,0,0,0,0,0,0,0,0,0,0,0,0,0,0,0,0,0,0,0,0,0,0,0,0,0,
0,0,0,0,0,0,0,0,0,0,0,0,0,0,0,0,0,0,0,0,0,0,0,0,0,0,0,0,0,0,0,0,0,0,0,0,0,0,0,0,0,0,0,0,0,0,0,0,0,0,0,0,0,0,0,0,0,0,0,0,0,0,0,0,
0,0,0,0,0,0,0,0,0,0,0,0,0,0,0,0,0,0,0,0,0,0,0,0,0,0,0,0,0,0,0,0,0,0,0,0,0,0,0,0,0,0,0,0,0,0,0,0,0,0,0,0,0,0,0,0,0,0,0,0,0,0,0,0,
0,0,0,0,0,0,0,0,0,0,0,0,0,0,0,0,0,0,0,0,0,0,0,0,0,0,0,0,0,0,0,0,0,0,0,0,0,0,0,0,0,0,0,0,0,0,0,0,0,0,0,0,0,0,0,0,0,0,0,0,0,0,0,0,
0,0,0,0,0,0,0,0,0,0,0,0,0,0,0,0,0,0,0,0,0,0,0,0,0,0,0,0,0,0,0,0,0,0,0,0,0,0,0,0,0,0,0,0,0,0,0,0,0,0,0,0,0,0,0,0,0,0,0,0,0,0,0,0,
0,0,0,0,0,0,0,0,0,0,0,0,0,0,0,0,0,0,0,0,0,0,0,0,0,0,0,0,0,0,0,0,0,0,0,0,0,0,0,0,0,0,0,0,0,0,0,0,0,0,0,0,0,0,0,0,0,0,0,0,0,0,0,0,
0,0,0,0,0,0,0,0,0,0,0,0,0,0,0,0,0,0,0,0,0,0,0,0,0,0,0,0,0,0,0,0,0,0,0,0,0,0,0,0,0,0,0,0,0,0,0,0,0,0,0,0,0,0,0,0,0,0,0,0,0,0,0,0,
0,0,0,0,0,0,0,0,0,0,0,0,0,0,0,0,0,0,0,0,0,0,0,0,0,0,0,0,0,0,0,0,0,0,0,0,0,0,0,0,0,0,0,0,0,0,0,0,0,0,0,0,0,0,0,0,0,0,0,0,0,0,0,0,
0,0,0,0,0,0,0,0,0,0,0,0,0,0,0,0,0,0,0,0,0,0,0,0,0,0,0,0,0,0,0,0,0,0,0,0,0,0,0,0,0,0,0,0,0,0,0,0,0,0,0,0,0,0,0,0,0,0,0,0,0,0,0,0,
0,0,0,0,0,0,0,0,0,0,0,0,0,0,0,0,0,0,0,0,0,0,0,0,0,0,0,0,0,0,0,0,0,0,0,0,0,0,0,0,0,0,0,0,0,0,0,0,0,0,0,0,0,0,0,0,0,0,0,0,0,0,0,0,
0,0,0,0,0,0,0,0,0,0,0,0,0,0,0,0,0,0,0,0,0,0,0,0,0,0,0,0,0,0,0,0,0,0,0,0,0,0,0,0,0,0,0,0,0,0,0,0,0,0,0,0,0,0,0,0,0,0,0,0,0,0,0,0,
0,0,0,0,0,0,0,0,0,0,0,0,0,0,0,0,0,0,0,0,0,0,0,0,0,0,0,0,0,0,0,0,0,0,0,0,0,0,0,0,0,0,0,0,0,0,0,0,0,0,0,0,0,0,0,0,0,0,0,0,0,0,0,0,
0,0,0,0,0,0,0,0,0,0,0,0,0,0,0,0,0,0,0,0,0,0,0,0,0,0,0,0,0,0,0,0,0,0,0,0,0,0,0,0,0,0,0,0,0,0,0,0,0,0,0,0,0,0,0,0,0,0,0,0,0,0,0,0,
0,0,0,0,0,0,0,0,0,0,0,0,0,0,0,0,0,0,0,0,0,0,0,0,0,0,0,0,0,0,0,0,0,0,0,0,0,0,0,0,0,0,0,0,0,0,0,0,0,0,0,0,0,0,0,0,0,0,0,0,0,0,0,0,
0,0,0,0,0,0,0,0,0,0,0,0,0,0,0,0,0,0,0,0,0,0,0,0,0,0,0,0,0,0,0,0,0,0,0,0,0,0,0,0,0,0,0,0,0,0,0,0,0,0,0,0,0,0,0,0,0,0,0,0,0,0,0,0,
0,0,0,0,0,0,0,0,0,0,0,0,0,0,0,0,0,0,0,0,0,0,0,0,0,0,0,0,0,0,0,0,0,0,0,0,0,0,0,0,0,0,0,0,0,0,0,0,0,0,0,0,0,0,0,0,0,0,0,0,0,0,0,0,
0,0,0,0,0,0,0,0,0,0,0,0,0,0,0,0,0,0,0,0,0,0,0,0,0,0,0,0,0,0,0,0,0,0,0,0,0,0,0,0,0,0,0,0,0,0,0,0,0,0,0,0,0,0,0,0,0,0,0,0,0,0,0,0,
0,0,0,0,0,0,0,0,0,0,0,0,0,0,0,0,0,0,0,0,0,0,0,0,0,0,0,0,0,0,0,0,0,0,0,0,0,0,0,0,0,0,0,0,0,0,0,0,0,0,0,0,0,0,0,0,0,0,0,0,0,0,0,0,
0,0,0,0,0,0,0,0,0,0,0,0,0,0,0,0,0,0,0,0,0,0,0,0,0,0,0,0,0,0,0,0,0,0,0,0,0,0,0,0,0,0,0,0,0,0,0,0,0,0,0,0,0,0,0,0,0,0,0,0,0,0,0,0,
0,0,0,0,0,0,0,0,0,0,0,0,0,0,0,0,0,0,0,0,0,0,0,0,0,0,0,0,0,0,0,0,0,0,0,0,0,0,0,0,0,0,0,0,0,0,0,0,0,0,0,0,0,0,0,0,0,0,0,0,0,0,0,0,
0,0,0,0,0,0,0,0,0,0,0,0,0,0,0,0,0,0,0,0,0,0,0,0,0,0,0,0,0,0,0,0,0,0,0,0,0,0,0,0,0,0,0,0,0,0,0,0,0,0,0,0,0,0,0,0,0,0,0,0,0,0,0,0,
0,0,0,0,0,0,0,0,0,0,0,0,0,0,0,0,0,0,0,0,0,0,0,0,0,0,0,0,0,0,0,0,0,0,0,0,0,0,0,0,0,0,0,0,0,0,0,0,0,0,0,0,0,0,0,0,0,0,0,0,0,0,0,0,
0,0,0,0,0,0,0,0,0,0,0,0,0,0,0,0,0,0,0,0,0,0,0,0,0,0,0,0,0,0,0,0,0,0,0,0,0,0,0,0,0,0,0,0,0,0,0,0,0,0,0,0,0,0,0,0,0,0,0,0,0,0,0,0,
0,0,0,0,0,0,0,0,0,0,0,0,0,0,0,0,0,0,0,0,0,0,0,0,0,0,0,0,0,0,0,0,0,0,0,0,0,0,0,0,0,0,0,0,0,0,0,0,0,0,0,0,0,0,0,0,0,0,0,0,0,0,0,0,
0,0,0,0,0,0,0,0,0,0,0,0,0,0,0,0,0,0,0,0,0,0,0,0,0,0,0,0,0,0,0,0,0,0,0,0,0,0,0,0,0,0,0,0,0,0,0,0,0,0,0,0,0,0,0,0,0,0,0,0,0,0,0,0,
0,0,0,0,0,0,0,0,0,0,0,0,0,0,0,0,0,0,0,0,0,0,0,0,0,0,0,0,0,0,0,0,0,0,0,0,0,0,0,0,0,0,0,0,0,0,0,0,0,0,0,0,0,0,0,0,0,0,0,0,0,0,0,0,
0,0,0,0,0,0,0,0,0,0,0,0,0,0,0,0,0,0,0,0,0,0,0,0,0,0,0,0,0,0,0,0,0,0,0,0,0,0,0,0,0,0,0,0,0,0,0,0,0,0,0,0,0,0,0,0,0,0,0,0,0,0,0,0,
0,0,0,0,0,0,0,0,0,0,0,0,0,0,0,0,0,0,0,0,0,0,0,0,0,0,0,0,0,0,0,0,0,0,0,0,0,0,0,0,0,0,0,0,0,0,0,0,0,0,0,0,0,0,0,0,0,0,0,0,0,0,0,0,
0,0,0,0,0,0,0,0,0,0,0,0,0,0,0,0,0,0,0,0,0,0,0,0,0,0,0,0,0,0,0,0,0,0,0,0,0,0,0,0,0,0,0,0,0,0,0,0,0,0,0,0,0,0,0,0,0,0,0,0,0,0,0,0,
0,0,0,0,0,0,0,0,0,0,0,0,0,0,0,0,0,0,0,0,0,0,0,0,0,0,0,0,0,0,0,0,0,0,0,0,0,0,0,0,0,0,0,0,0,0,0,0,0,0,0,0,0,0,0,0,0,0,0,0,0,0,0,0,
0,0,0,0,0,0,0,0,0,0,0,0,0,0,0,0,0,0,0,0,0,0,0,0,0,0,0,0,0,0,0,0,0,0,0,0,0,0,0,0,0,0,0,0,0,0,0,0,0,0,0,0,0,0,0,0,0,0,0,0,0,0,0,0,
0,0,0,0,0,0,0,0,0,0,0,0,0,0,0,0,0,0,0,0,0,0,0,0,0,0,0,0,0,0,0,0,0,0,0,0,0,0,0,0,0,0,0,0,0,0,0,0,0,0,0,0,0,0,0,0,0,0,0,0,0,0,0,0,
0,0,0,0,0,0,0,0,0,0,0,0,0,0,0,0,0,0,0,0,0,0,0,0,0,0,0,0,0,0,0,0,0,0,0,0,0,0,0,0,0,0,0,0,0,0,0,0,0,0,0,0,0,0,0,0,0,0,0,0,0,0,0,0,
0,0,0,0,0,0,0,0,0,0,0,0,0,0,0,0,0,0,0,0,0,0,0,0,0,0,0,0,0,0,0,0,0,0,0,0,0,0,0,0,0,0,0,0,0,0,0,0,0,0,0,0,0,0,0,0,0,0,0,0,0,0,0,0,
0,0,0,0,0,0,0,0,0,0,0,0,0,0,0,0,0,0,0,0,0,0,0,0,0,0,0,0,0,0,0,0,0,0,0,0,0,0,0,0,0,0,0,0,0,0,0,0,0,0,0,0,0,0,0,0,0,0,0,0,0,0,0,0,
0,0,0,0,0,0,0,0,0,0,0,0,0,0,0,0,0,0,0,0,0,0,0,0,0,0,0,0,0,0,0,0,0,0,0,0,0,0,0,0,0,0,0,0,0,0,0,0,0,0,0,0,0,0,0,0,0,0,0,0,0,0,0,0
</data>
 </layer>
 <layer id="3" name="walls" width="64" height="64">
  <data encoding="csv">
0,0,0,0,0,0,0,1325,1326,0,0,0,1389,1390,1391,1392,1393,1394,1395,1396,1397,0,0,0,0,0,0,0,0,0,0,0,0,0,0,0,0,0,0,0,0,0,0,0,0,0,0,0,0,0,0,0,0,0,0,0,0,0,0,0,0,0,0,0,
1776,1777,1778,0,1928,1929,1930,1349,1350,2040,2041,0,0,0,0,0,0,0,0,0,0,0,0,0,0,0,0,0,0,0,0,0,0,0,0,0,0,0,0,0,0,0,0,0,0,0,0,0,0,0,0,1320,1321,0,0,0,0,0,0,0,0,0,0,0,
1809,1810,1811,0,0,0,0,0,0,0,0,0,1364,1365,1366,1367,1368,1369,1370,1371,1372,1373,0,0,0,0,0,0,0,0,0,0,0,0,0,0,0,0,0,0,0,0,0,0,0,0,0,0,0,0,0,1344,1345,1346,1347,1148,1149,1150,1151,1152,1153,1154,1155,0,
0,0,0,0,0,0,0,0,0,0,0,0,0,0,0,0,0,0,0,0,0,0,0,0,0,0,1950,1951,1952,1953,0,1950,1951,1952,1953,0,2181,2182,2183,2184,0,0,0,0,0,0,0,0,0,0,0,0,0,0,0,0,0,0,0,0,0,0,0,0,
1892,1893,1894,0,1661,1662,1663,1664,0,1665,1666,1667,1668,0,1684,1685,1686,0,1687,1688,1689,0,1855,1856,1857,0,1983,1984,1985,1986,0,2049,2050,2051,2052,0,2214,2215,2216,2217,0,0,2307,2308,2309,0,0,0,0,0,0,0,0,0,0,1196,1197,1198,1199,1200,1201,1202,1203,0,
1925,1926,1927,0,1694,1695,1696,1697,0,1698,1699,1700,1701,0,1717,1718,1719,0,1720,1721,1722,0,1888,1889,1890,0,2016,2017,2018,2019,0,2082,2083,2084,2085,0,2247,2248,2249,2250,0,0,2340,2341,2342,0,0,0,0,0,0,0,0,0,0,1220,1221,1222,1223,1224,1225,1226,1227,0,
0,0,0,0,0,0,0,0,0,0,0,0,0,0,0,0,0,0,0,0,0,0,0,0,0,0,0,0,0,0,0,0,0,0,0,0,0,0,0,0,0,0,0,0,0,0,0,0,0,0,0,0,0,0,0,0,0,0,0,0,0,0,0,0,
0,2387,2388,2389,2390,2391,2392,0,1967,1968,1969,1970,1971,0,1768,1804,1773,1804,1804,1804,1769,0,1900,1936,1905,1936,1936,1936,1901,0,1834,1870,1839,1870,1870,1835,0,0,0,0,0,0,0,0,0,0,0,0,0,0,0,0,1580,1581,1582,1583,1584,1585,1586,1587,1588,1589,1590,1591,
0,2403,2404,2405,1447,2407,2408,0,2000,2001,2002,2003,2004,0,1771,0,1771,0,0,0,1771,0,1903,0,1903,0,0,0,1903,0,1837,0,1837,0,0,1837,0,0,0,2426,0,0,0,0,0,0,0,0,0,0,0,0,1604,1605,1606,1607,1608,1609,1610,1611,1612,1613,1614,1615,
0,2419,2420,2421,2422,2423,2424,0,2033,2034,2035,2036,2037,0,1801,1804,1805,1803,0,1770,1802,0,1933,1936,1937,1935,0,1902,1934,0,1867,1870,1871,1869,1836,1868,0,0,0,0,0,0,0,0,0,0,0,0,0,0,0,0,0,0,0,0,0,0,0,0,0,0,0,0,
0,0,0,0,0,0,0,0,0,0,0,0,0,0,0,0,0,0,0,0,0,0,0,0,0,0,0,0,0,0,0,0,0,0,0,0,0,0,0,0,0,0,0,0,0,0,0,0,0,0,0,0,0,0,0,0,0,0,0,0,0,0,0,0,
0,1453,1454,1455,1355,1358,1551,0,0,0,0,0,0,0,0,0,0,0,0,0,0,0,0,0,0,0,0,0,0,0,0,0,0,0,0,0,0,0,0,0,0,0,0,0,0,0,0,0,0,0,0,0,0,0,0,0,0,0,0,0,0,0,0,0,
1768,1804,1804,1804,1804,1773,1804,1804,1804,1804,1769,0,0,1768,1804,1804,1804,1773,1804,1804,1804,1804,1804,1773,1804,1804,1804,1804,1804,1804,1804,1804,1804,1804,1804,1804,1804,1804,1769,0,0,0,0,0,0,0,0,0,0,0,0,0,0,0,0,0,0,0,0,0,0,0,0,0,
1771,0,0,0,0,1771,0,0,0,0,1771,0,0,1771,0,0,0,1771,0,0,0,0,0,1771,0,0,0,0,0,0,0,0,0,0,0,0,0,0,1771,0,0,0,0,0,0,0,0,0,0,0,0,0,0,0,0,0,0,0,0,0,0,0,0,0,
1771,0,0,0,0,1771,0,0,0,0,1771,0,0,1771,2307,2308,2309,1771,1892,1893,1894,0,0,1771,0,2040,2041,0,0,1388,1388,1388,0,0,0,0,0,0,1771,0,0,0,0,0,0,0,0,0,0,0,0,0,0,0,0,0,0,0,0,0,0,0,0,0,
1771,0,0,0,0,1771,0,0,0,0,1771,0,0,1771,2340,2341,2342,1771,1925,1926,1927,0,0,1771,0,0,0,0,0,1388,1388,1388,0,0,0,0,0,0,1771,0,0,0,0,0,0,0,0,0,0,0,0,0,0,0,0,0,0,0,0,0,0,0,0,0,
1771,0,0,0,0,1771,0,0,0,0,1771,0,0,1771,0,0,0,1771,0,0,0,0,0,1771,0,0,0,0,0,1388,1388,1388,0,0,0,0,0,0,1771,0,0,0,0,0,0,0,0,0,0,0,0,0,0,0,0,0,0,0,0,0,0,0,0,0,
1771,0,0,0,0,1771,0,0,0,0,1771,0,0,1771,0,0,0,1771,0,0,0,0,0,1771,0,2040,2041,0,0,0,0,0,0,0,0,0,0,0,1771,0,0,0,0,0,0,0,0,0,0,0,0,0,0,0,0,0,0,0,0,0,0,0,0,0,
1771,0,0,0,0,1771,0,0,0,0,1771,0,0,1771,0,0,0,1771,0,0,0,0,0,1771,0,0,0,0,0,0,0,0,0,0,0,0,0,0,1771,0,0,0,0,0,0,0,0,0,0,0,0,0,0,0,0,0,0,0,0,0,0,0,0,0,
1771,0,1770,1804,1804,1805,1804,1804,1803,0,1771,0,0,1771,0,0,0,1771,0,0,0,0,0,1771,0,0,0,0,0,0,0,0,0,1661,1662,1663,1664,0,1771,0,0,0,0,0,0,0,0,0,0,0,0,0,0,0,0,0,0,0,0,0,0,0,0,0,
1771,0,0,0,0,0,0,0,0,0,1771,0,0,1771,0,1770,1804,1805,1804,1804,1803,0,1770,1802,0,0,0,0,0,0,0,0,0,1694,1695,1696,1697,0,1771,0,0,0,0,0,0,0,0,0,0,0,0,0,0,0,0,0,0,0,0,0,0,0,0,0,
1771,0,0,0,0,0,0,0,0,0,1771,0,0,1771,0,0,0,0,0,0,0,0,0,0,0,0,0,0,0,0,0,0,0,0,0,0,0,0,1771,0,0,0,0,0,0,0,0,0,0,0,0,0,0,0,0,0,0,0,0,0,0,0,0,0,
1801,1804,1803,1729,1770,1804,1804,1804,1804,1804,1802,0,0,1801,1804,1804,1804,1804,1804,1804,1804,1804,1804,1804,1804,1804,1804,1804,1804,1804,1804,1804,1804,1803,0,1770,1804,1804,1802,0,0,0,0,0,0,0,0,0,0,0,0,0,0,0,0,0,0,0,0,0,0,0,0,0,
0,0,0,0,0,0,0,0,0,0,0,0,0,0,0,0,0,0,0,0,0,0,0,0,0,0,0,0,0,0,0,0,0,1364,0,0,0,0,0,0,0,0,0,0,0,0,0,0,0,0,0,0,0,0,0,0,0,0,0,0,0,0,0,0,
0,2073,2074,2075,2109,2110,2009,2170,2171,1923,1924,0,0,0,0,0,0,0,0,0,0,0,0,0,0,0,0,0,0,0,0,0,0,0,0,0,0,0,0,0,0,0,0,0,0,0,0,0,0,0,0,0,0,0,0,0,0,0,0,0,0,0,0,0,
0,0,0,0,2142,2143,2042,2203,2204,1956,1957,0,0,0,0,0,0,0,0,0,0,0,0,0,0,0,0,0,0,0,0,0,0,0,0,0,0,0,0,0,0,0,0,0,0,0,0,0,0,0,0,0,0,0,0,0,0,0,0,0,0,0,0,0,
0,2139,2140,2141,0,0,0,0,0,1989,1990,0,0,0,0,0,0,0,0,0,0,0,0,0,0,0,0,0,0,0,0,0,0,0,0,0,0,0,0,0,0,0,0,0,0,0,0,0,0,0,0,0,0,0,0,0,0,0,0,0,0,0,0,0,
0,0,0,0,0,0,0,0,0,2022,2023,0,0,0,0,0,0,0,0,0,0,0,0,0,0,0,0,0,0,0,0,0,0,0,0,0,0,0,0,0,0,0,0,0,0,0,0,0,0,0,0,0,0,0,0,0,0,0,0,0,0,0,0,0,
0,0,0,0,0,0,0,0,0,0,0,0,0,0,0,0,0,0,0,0,0,0,0,0,0,0,0,0,0,0,0,0,0,0,0,0,0,0,0,0,0,0,0,0,0,0,0,0,0,0,0,0,0,0,0,0,0,0,0,0,0,0,0,0,
0,0,0,0,0,0,0,0,0,0,0,0,0,0,0,0,0,0,0,0,0,0,0,0,0,0,0,0,0,0,0,0,0,0,0,0,0,0,0,0,0,0,0,0,0,0,0,0,0,0,0,0,0,0,0,0,0,0,0,0,0,0,0,0,
0,0,0,0,0,0,0,0,0,0,0,0,0,0,0,0,0,0,0,0,0,0,0,0,0,0,0,0,0,0,0,0,0,0,0,0,0,0,0,0,0,0,0,0,0,0,0,0,0,0,0,0,0,0,0,0,0,0,0,0,0,0,0,0,
0,0,0,0,0,0,0,0,0,0,0,0,0,0,0,0,0,0,0,0,0,0,0,0,0,0,0,0,0,0,0,0,0,0,0,0,0,0,0,0,0,0,0,0,0,0,0,0,0,0,0,0,0,0,0,0,0,0,0,0,0,0,0,0,
0,0,0,0,0,0,0,0,0,0,0,0,0,0,0,0,0,0,0,0,0,0,0,0,0,0,0,0,0,0,0,0,0,0,0,0,0,0,0,0,0,0,0,0,0,0,0,0,0,0,0,0,0,0,0,0,0,0,0,0,0,0,0,0,
0,0,0,0,0,0,0,0,0,0,0,0,0,0,0,0,0,0,0,0,0,0,0,0,0,0,0,0,0,0,0,0,0,0,0,0,0,0,0,0,0,0,0,0,0,0,0,0,0,0,0,0,0,0,0,0,0,0,0,0,0,0,0,0,
0,0,0,0,0,0,0,0,0,0,0,0,0,0,0,0,0,0,0,0,0,0,0,0,0,0,0,0,0,0,0,0,0,0,0,0,0,0,0,0,0,0,0,0,0,0,0,0,0,0,0,0,0,0,0,0,0,0,0,0,0,0,0,0,
0,0,0,0,0,0,0,0,0,0,0,0,0,0,0,0,0,0,0,0,0,0,0,0,0,0,0,0,0,0,0,0,0,0,0,0,0,0,0,0,0,0,0,0,0,0,0,0,0,0,0,0,0,0,0,0,0,0,0,0,0,0,0,0,
0,0,0,0,0,0,0,0,0,0,0,0,0,0,0,0,0,0,0,0,0,0,0,0,0,0,0,0,0,0,0,0,0,0,0,0,0,0,0,0,0,0,0,0,0,0,0,0,0,0,0,0,0,0,0,0,0,0,0,0,0,0,0,0,
0,0,0,0,0,0,0,0,0,0,0,0,0,0,0,0,0,0,0,0,0,0,0,0,0,0,0,0,0,0,0,0,0,0,0,0,0,0,0,0,0,0,0,0,0,0,0,0,0,0,0,0,0,0,0,0,0,0,0,0,0,0,0,0,
0,0,0,0,0,0,0,0,0,0,0,0,0,0,0,0,0,0,0,0,0,0,0,0,0,0,0,0,0,0,0,0,0,0,0,0,0,0,0,0,0,0,0,0,0,0,0,0,0,0,0,0,0,0,0,0,0,0,0,0,0,0,0,0,
0,0,0,0,0,0,0,0,0,0,0,0,0,0,0,0,0,0,0,0,0,0,0,0,0,0,0,0,0,0,0,0,0,0,0,0,0,0,0,0,0,0,0,0,0,0,0,0,0,0,0,0,0,0,0,0,0,0,0,0,0,0,0,0,
0,0,0,0,0,0,0,0,0,0,0,0,0,0,0,0,0,0,0,0,0,0,0,0,0,0,0,0,0,0,0,0,0,0,0,0,0,0,0,0,0,0,0,0,0,0,0,0,0,0,0,0,0,0,0,0,0,0,0,0,0,0,0,0,
0,0,0,0,0,0,0,0,0,0,0,0,0,0,0,0,0,0,0,0,0,0,0,0,0,0,0,0,0,0,0,0,0,0,0,0,0,0,0,0,0,0,0,0,0,0,0,0,0,0,0,0,0,0,0,0,0,0,0,0,0,0,0,0,
0,0,0,0,0,0,0,0,0,0,0,0,0,0,0,0,0,0,0,0,0,0,0,0,0,0,0,0,0,0,0,0,0,0,0,0,0,0,0,0,0,0,0,0,0,0,0,0,0,0,0,0,0,0,0,0,0,0,0,0,0,0,0,0,
0,0,0,0,0,0,0,0,0,0,0,0,0,0,0,0,0,0,0,0,0,0,0,0,0,0,0,0,0,0,0,0,0,0,0,0,0,0,0,0,0,0,0,0,0,0,0,0,0,0,0,0,0,0,0,0,0,0,0,0,0,0,0,0,
0,0,0,0,0,0,0,0,0,0,0,0,0,0,0,0,0,0,0,0,0,0,0,0,0,0,0,0,0,0,0,0,0,0,0,0,0,0,0,0,0,0,0,0,0,0,0,0,0,0,0,0,0,0,0,0,0,0,0,0,0,0,0,0,
0,0,0,0,0,0,0,0,0,0,0,0,0,0,0,0,0,0,0,0,0,0,0,0,0,0,0,0,0,0,0,0,0,0,0,0,0,0,0,0,0,0,0,0,0,0,0,0,0,0,0,0,0,0,0,0,0,0,0,0,0,0,0,0,
0,0,0,0,0,0,0,0,0,0,0,0,0,0,0,0,0,0,0,0,0,0,0,0,0,0,0,0,0,0,0,0,0,0,0,0,0,0,0,0,0,0,0,0,0,0,0,0,0,0,0,0,0,0,0,0,0,0,0,0,0,0,0,0,
0,0,0,0,0,0,0,0,0,0,0,0,0,0,0,0,0,0,0,0,0,0,0,0,0,0,0,0,0,0,0,0,0,0,0,0,0,0,0,0,0,0,0,0,0,0,0,0,0,0,0,0,0,0,0,0,0,0,0,0,0,0,0,0,
0,0,0,0,0,0,0,0,0,0,0,0,0,0,0,0,0,0,0,0,0,0,0,0,0,0,0,0,0,0,0,0,0,0,0,0,0,0,0,0,0,0,0,0,0,0,0,0,0,0,0,0,0,0,0,0,0,0,0,0,0,0,0,0,
0,0,0,0,0,0,0,0,0,0,0,0,0,0,0,0,0,0,0,0,0,0,0,0,0,0,0,0,0,0,0,0,0,0,0,0,0,0,0,0,0,0,0,0,0,0,0,0,0,0,0,0,0,0,0,0,0,0,0,0,0,0,0,0,
0,0,0,0,0,0,0,0,0,0,0,0,0,0,0,0,0,0,0,0,0,0,0,0,0,0,0,0,0,0,0,0,0,0,0,0,0,0,0,0,0,0,0,0,0,0,0,0,0,0,0,0,0,0,0,0,0,0,0,0,0,0,0,0,
0,0,0,0,0,0,0,0,0,0,0,0,0,0,0,0,0,0,0,0,0,0,0,0,0,0,0,0,0,0,0,0,0,0,0,0,0,0,0,0,0,0,0,0,0,0,0,0,0,0,0,0,0,0,0,0,0,0,0,0,0,0,0,0,
0,0,0,0,0,0,0,0,0,0,0,0,0,0,0,0,0,0,0,0,0,0,0,0,0,0,0,0,0,0,0,0,0,0,0,0,0,0,0,0,0,0,0,0,0,0,0,0,0,0,0,0,0,0,0,0,0,0,0,0,0,0,0,0,
0,0,0,0,0,0,0,0,0,0,0,0,0,0,0,0,0,0,0,0,0,0,0,0,0,0,0,0,0,0,0,0,0,0,0,0,0,0,0,0,0,0,0,0,0,0,0,0,0,0,0,0,0,0,0,0,0,0,0,0,0,0,0,0,
0,0,0,0,0,0,0,0,0,0,0,0,0,0,0,0,0,0,0,0,0,0,0,0,0,0,0,0,0,0,0,0,0,0,0,0,0,0,0,0,0,0,0,0,0,0,0,0,0,0,0,0,0,0,0,0,0,0,0,0,0,0,0,0,
0,0,0,0,0,0,0,0,0,0,0,0,0,0,0,0,0,0,0,0,0,0,0,0,0,0,0,0,0,0,0,0,0,0,0,0,0,0,0,0,0,0,0,0,0,0,0,0,0,0,0,0,0,0,0,0,0,0,0,0,0,0,0,0,
0,0,0,0,0,0,0,0,0,0,0,0,0,0,0,0,0,0,0,0,0,0,0,0,0,0,0,0,0,0,0,0,0,0,0,0,0,0,0,0,0,0,0,0,0,0,0,0,0,0,0,0,0,0,0,0,0,0,0,0,0,0,0,0,
0,0,0,0,0,0,0,0,0,0,0,0,0,0,0,0,0,0,0,0,0,0,0,0,0,0,0,0,0,0,0,0,0,0,0,0,0,0,0,0,0,0,0,0,0,0,0,0,0,0,0,0,0,0,0,0,0,0,0,0,0,0,0,0,
0,0,0,0,0,0,0,0,0,0,0,0,0,0,0,0,0,0,0,0,0,0,0,0,0,0,0,0,0,0,0,0,0,0,0,0,0,0,0,0,0,0,0,0,0,0,0,0,0,0,0,0,0,0,0,0,0,0,0,0,0,0,0,0,
0,0,0,0,0,0,0,0,0,0,0,0,0,0,0,0,0,0,0,0,0,0,0,0,0,0,0,0,0,0,0,0,0,0,0,0,0,0,0,0,0,0,0,0,0,0,0,0,0,0,0,0,0,0,0,0,0,0,0,0,0,0,0,0,
0,0,0,0,0,0,0,0,0,0,0,0,0,0,0,0,0,0,0,0,0,0,0,0,0,0,0,0,0,0,0,0,0,0,0,0,0,0,0,0,0,0,0,0,0,0,0,0,0,0,0,0,0,0,0,0,0,0,0,0,0,0,0,0,
0,0,0,0,0,0,0,0,0,0,0,0,0,0,0,0,0,0,0,0,0,0,0,0,0,0,0,0,0,0,0,0,0,0,0,0,0,0,0,0,0,0,0,0,0,0,0,0,0,0,0,0,0,0,0,0,0,0,0,0,0,0,0,0,
0,0,0,0,0,0,0,0,0,0,0,0,0,0,0,0,0,0,0,0,0,0,0,0,0,0,0,0,0,0,0,0,0,0,0,0,0,0,0,0,0,0,0,0,0,0,0,0,0,0,0,0,0,0,0,0,0,0,0,0,0,0,0,0,
0,0,0,0,0,0,0,0,0,0,0,0,0,0,0,0,0,0,0,0,0,0,0,0,0,0,0,0,0,0,0,0,0,0,0,0,0,0,0,0,0,0,0,0,0,0,0,0,0,0,0,0,0,0,0,0,0,0,0,0,0,0,0,0
</data>
 </layer>
 <layer id="6" name="sprites" width="64" height="64">
  <data encoding="csv">
0,0,0,0,0,0,0,0,0,0,0,0,0,0,0,0,0,0,0,0,0,0,0,0,0,0,0,0,0,0,0,0,0,0,0,0,0,0,0,0,0,0,0,0,0,0,0,0,0,0,0,0,0,0,0,0,0,0,0,0,0,0,0,0,
0,0,0,0,0,0,0,0,0,0,0,0,0,0,0,0,0,0,0,0,0,0,0,0,0,0,0,0,0,0,0,0,0,0,0,0,0,0,0,0,0,0,0,0,0,0,0,0,0,0,0,0,0,0,0,0,0,0,0,0,0,0,0,0,
0,0,0,0,0,0,0,0,0,0,0,0,0,0,0,0,0,0,0,0,0,0,0,0,0,0,0,0,0,0,0,0,0,0,0,0,0,0,0,0,0,0,0,0,0,0,0,0,0,0,0,0,0,0,0,0,0,0,0,0,0,0,0,0,
0,0,0,0,0,0,0,0,0,0,0,0,0,0,0,0,0,0,0,0,0,0,0,0,0,0,0,0,0,0,0,0,0,0,0,0,0,0,0,0,0,0,0,0,0,0,0,0,0,0,0,0,0,0,0,0,0,0,0,0,0,0,0,0,
0,0,0,0,0,0,0,0,0,0,0,0,0,0,0,0,0,0,0,0,0,0,0,0,0,0,0,0,0,0,0,0,0,0,0,0,0,0,0,0,0,0,0,0,0,0,0,0,0,0,0,0,0,0,0,0,0,0,0,0,0,0,0,0,
0,0,0,0,0,0,0,0,0,0,0,0,0,0,0,0,0,0,0,0,0,0,0,0,0,0,0,0,0,0,0,0,0,0,0,0,0,0,0,0,0,0,0,0,0,0,0,0,0,0,0,0,0,0,0,0,0,0,0,0,0,0,0,0,
0,0,0,0,0,0,0,0,0,0,0,0,0,0,0,0,0,0,0,0,0,0,0,0,0,0,0,0,0,0,0,0,0,0,0,0,0,0,0,0,0,0,0,0,0,0,0,0,0,0,0,0,0,0,0,0,0,0,0,0,0,0,0,0,
0,0,0,0,0,0,0,0,0,0,0,0,0,0,0,0,0,0,0,0,0,0,0,0,0,0,0,0,0,0,0,0,0,0,0,0,0,0,0,0,0,0,0,0,0,0,0,0,0,0,0,0,0,0,0,0,0,0,0,0,0,0,0,0,
0,0,0,0,0,0,0,0,0,0,0,0,0,0,0,0,0,0,0,0,0,0,0,0,0,0,0,0,0,0,0,0,0,0,0,0,0,0,0,0,0,0,0,0,0,0,0,0,0,0,0,0,0,0,0,0,0,0,0,0,0,0,0,0,
0,0,0,0,0,0,0,0,0,0,0,0,0,0,0,0,0,0,0,0,0,0,0,0,0,0,0,0,0,0,0,0,0,0,0,0,0,0,0,0,0,0,0,0,0,0,0,0,0,0,0,0,0,0,0,0,0,0,0,0,0,0,0,0,
0,0,0,0,0,0,0,0,0,0,0,0,0,0,0,0,0,0,0,0,0,0,0,0,0,0,0,0,0,0,0,0,0,0,0,0,0,0,0,0,0,0,0,0,0,0,0,0,0,0,0,0,0,0,0,0,0,0,0,0,0,0,0,0,
0,0,0,0,0,0,0,0,0,0,0,0,0,0,0,0,0,0,0,0,0,0,0,0,0,0,0,0,0,0,0,0,0,0,0,0,0,0,0,0,0,0,0,0,0,0,0,0,0,0,0,0,0,0,0,0,0,0,0,0,0,0,0,0,
0,0,0,0,0,0,0,0,0,0,0,0,0,0,0,0,0,0,0,0,0,0,0,0,0,0,0,0,0,0,0,0,0,0,0,0,0,0,0,0,0,0,0,0,0,0,0,0,0,0,0,0,0,0,0,0,0,0,0,0,0,0,0,0,
0,0,0,0,0,0,0,0,0,0,0,0,0,0,0,0,0,0,0,0,0,0,0,0,0,0,0,0,0,0,0,0,0,0,0,0,0,0,0,0,0,0,0,0,0,0,0,0,0,0,0,0,0,0,0,0,0,0,0,0,0,0,0,0,
0,0,0,0,0,0,0,0,0,0,0,0,0,0,0,0,0,0,0,0,0,0,0,0,0,0,0,0,0,0,0,0,0,0,0,0,0,0,0,0,0,0,0,0,0,0,0,0,0,0,0,0,0,0,0,0,0,0,0,0,0,0,0,0,
0,0,0,0,0,0,0,0,0,0,0,0,0,0,0,0,0,0,0,0,0,0,0,0,0,0,0,0,0,0,0,0,0,0,0,0,0,0,0,0,0,0,0,0,0,0,0,0,0,0,0,0,0,0,0,0,0,0,0,0,0,0,0,0,
0,0,0,0,0,0,0,0,0,0,0,0,0,0,0,0,0,0,0,0,0,0,0,0,0,0,0,0,0,0,0,0,0,0,0,0,0,0,0,0,0,0,0,0,0,0,0,0,0,0,0,0,0,0,0,0,0,0,0,0,0,0,0,0,
0,0,0,0,0,0,0,0,0,0,0,0,0,0,0,0,0,0,0,0,0,0,0,0,0,0,0,0,0,0,0,0,0,0,0,0,0,0,0,0,0,0,0,0,0,0,0,0,0,0,0,0,0,0,0,0,0,0,0,0,0,0,0,0,
0,0,0,0,0,0,0,0,0,0,0,0,0,0,0,0,0,0,0,0,0,0,0,0,0,0,0,0,0,0,0,0,0,0,0,0,0,0,0,0,0,0,0,0,0,0,0,0,0,0,0,0,0,0,0,0,0,0,0,0,0,0,0,0,
0,0,0,0,0,0,0,0,0,0,0,0,0,0,0,0,0,0,0,0,0,0,0,0,0,0,0,0,0,0,0,0,0,0,0,0,0,0,0,0,0,0,0,0,0,0,0,0,0,0,0,0,0,0,0,0,0,0,0,0,0,0,0,0,
0,0,0,0,0,0,0,0,0,0,0,0,0,0,0,0,0,0,0,0,0,0,0,0,0,0,0,0,0,0,0,0,0,0,0,0,0,0,0,0,0,0,0,0,0,0,0,0,0,0,0,0,0,0,0,0,0,0,0,0,0,0,0,0,
0,0,0,0,0,0,0,0,0,0,0,0,0,0,0,0,0,0,0,0,0,0,0,0,0,0,0,0,0,0,0,0,0,0,0,0,0,0,0,0,0,0,0,0,0,0,0,0,0,0,0,0,0,0,0,0,0,0,0,0,0,0,0,0,
0,0,0,0,0,0,0,0,0,0,0,0,0,0,0,0,0,0,0,0,0,0,0,0,0,0,0,0,0,0,0,0,0,0,0,0,0,0,0,0,0,0,0,0,0,0,0,0,0,0,0,0,0,0,0,0,0,0,0,0,0,0,0,0,
0,0,0,0,0,0,0,0,0,0,0,0,0,0,0,0,0,0,0,0,0,0,0,0,0,0,0,0,0,0,0,0,0,0,0,0,0,0,0,0,0,0,0,0,0,0,0,0,0,0,0,0,0,0,0,0,0,0,0,0,0,0,0,0,
0,0,0,0,0,0,0,0,0,0,0,0,0,0,0,0,0,0,0,0,0,0,0,0,0,0,0,0,0,0,0,0,0,0,0,0,0,0,0,0,0,0,0,0,0,0,0,0,0,0,0,0,0,0,0,0,0,0,0,0,0,0,0,0,
0,0,0,0,0,0,0,0,0,0,0,0,0,0,0,0,0,0,0,0,0,0,0,0,0,0,0,0,0,0,0,0,0,0,0,0,0,0,0,0,0,0,0,0,0,0,0,0,0,0,0,0,0,0,0,0,0,0,0,0,0,0,0,0,
0,0,0,0,0,0,0,0,0,0,0,0,0,0,0,0,0,0,0,0,0,0,0,0,0,0,0,0,0,0,0,0,0,0,0,0,0,0,0,0,0,0,0,0,0,0,0,0,0,0,0,0,0,0,0,0,0,0,0,0,0,0,0,0,
0,0,0,0,0,0,0,0,0,0,0,0,0,0,0,0,0,0,0,0,0,0,0,0,0,0,0,0,0,0,0,0,0,0,0,0,0,0,0,0,0,0,0,0,0,0,0,0,0,0,0,0,0,0,0,0,0,0,0,0,0,0,0,0,
0,0,0,0,0,0,0,0,0,0,0,0,0,0,0,0,0,0,0,0,0,0,0,0,0,0,0,0,0,0,0,0,0,0,0,0,0,0,0,0,0,0,0,0,0,0,0,0,0,0,0,0,0,0,0,0,0,0,0,0,0,0,0,0,
0,0,0,0,0,0,0,0,0,0,0,0,0,0,0,0,0,0,0,0,0,0,0,0,0,0,0,0,0,0,0,0,0,0,0,0,0,0,0,0,0,0,0,0,0,0,0,0,0,0,0,0,0,0,0,0,0,0,0,0,0,0,0,0,
0,0,0,0,0,0,0,0,0,0,0,0,0,0,0,0,0,0,0,0,0,0,0,0,0,0,0,0,0,0,0,0,0,0,0,0,0,0,0,0,0,0,0,0,0,0,0,0,0,0,0,0,0,0,0,0,0,0,0,0,0,0,0,0,
0,0,0,0,0,0,0,0,0,0,0,0,0,0,0,0,0,0,0,0,0,0,0,0,0,0,0,0,0,0,0,0,0,0,0,0,0,0,0,0,0,0,0,0,0,0,0,0,0,0,0,0,0,0,0,0,0,0,0,0,0,0,0,0,
0,0,0,0,0,0,0,0,0,0,0,0,0,0,0,0,0,0,0,0,0,0,0,0,0,0,0,0,0,0,0,0,0,0,0,0,0,0,0,0,0,0,0,0,0,0,0,0,0,0,0,0,0,0,0,0,0,0,0,0,0,0,0,0,
0,0,0,0,0,0,0,0,0,0,0,0,0,0,0,0,0,0,0,0,0,0,0,0,0,0,0,0,0,0,0,0,0,0,0,0,0,0,0,0,0,0,0,0,0,0,0,0,0,0,0,0,0,0,0,0,0,0,0,0,0,0,0,0,
0,0,0,0,0,0,0,0,0,0,0,0,0,0,0,0,0,0,0,0,0,0,0,0,0,0,0,0,0,0,0,0,0,0,0,0,0,0,0,0,0,0,0,0,0,0,0,0,0,0,0,0,0,0,0,0,0,0,0,0,0,0,0,0,
0,0,0,0,0,0,0,0,0,0,0,0,0,0,0,0,0,0,0,0,0,0,0,0,0,0,0,0,0,0,0,0,0,0,0,0,0,0,0,0,0,0,0,0,0,0,0,0,0,0,0,0,0,0,0,0,0,0,0,0,0,0,0,0,
0,0,0,0,0,0,0,0,0,0,0,0,0,0,0,0,0,0,0,0,0,0,0,0,0,0,0,0,0,0,0,0,0,0,0,0,0,0,0,0,0,0,0,0,0,0,0,0,0,0,0,0,0,0,0,0,0,0,0,0,0,0,0,0,
0,0,0,0,0,0,0,0,0,0,0,0,0,0,0,0,0,0,0,0,0,0,0,0,0,0,0,0,0,0,0,0,0,0,0,0,0,0,0,0,0,0,0,0,0,0,0,0,0,0,0,0,0,0,0,0,0,0,0,0,0,0,0,0,
0,0,0,0,0,0,0,0,0,0,0,0,0,0,0,0,0,0,0,0,0,0,0,0,0,0,0,0,0,0,0,0,0,0,0,0,0,0,0,0,0,0,0,0,0,0,0,0,0,0,0,0,0,0,0,0,0,0,0,0,0,0,0,0,
0,0,0,0,0,0,0,0,0,0,0,0,0,0,0,0,0,0,0,0,0,0,0,0,0,0,0,0,0,0,0,0,0,0,0,0,0,0,0,0,0,0,0,0,0,0,0,0,0,0,0,0,0,0,0,0,0,0,0,0,0,0,0,0,
0,0,0,0,0,0,0,0,0,0,0,0,0,0,0,0,0,0,0,0,0,0,0,0,0,0,0,0,0,0,0,0,0,0,0,0,0,0,0,0,0,0,0,0,0,0,0,0,0,0,0,0,0,0,0,0,0,0,0,0,0,0,0,0,
0,0,0,0,0,0,0,0,0,0,0,0,0,0,0,0,0,0,0,0,0,0,0,0,0,0,0,0,0,0,0,0,0,0,0,0,0,0,0,0,0,0,0,0,0,0,0,0,0,0,0,0,0,0,0,0,0,0,0,0,0,0,0,0,
0,0,0,0,0,0,0,0,0,0,0,0,0,0,0,0,0,0,0,0,0,0,0,0,0,0,0,0,0,0,0,0,0,0,0,0,0,0,0,0,0,0,0,0,0,0,0,0,0,0,0,0,0,0,0,0,0,0,0,0,0,0,0,0,
0,0,0,0,0,0,0,0,0,0,0,0,0,0,0,0,0,0,0,0,0,0,0,0,0,0,0,0,0,0,0,0,0,0,0,0,0,0,0,0,0,0,0,0,0,0,0,0,0,0,0,0,0,0,0,0,0,0,0,0,0,0,0,0,
0,0,0,0,0,0,0,0,0,0,0,0,0,0,0,0,0,0,0,0,0,0,0,0,0,0,0,0,0,0,0,0,0,0,0,0,0,0,0,0,0,0,0,0,0,0,0,0,0,0,0,0,0,0,0,0,0,0,0,0,0,0,0,0,
0,0,0,0,0,0,0,0,0,0,0,0,0,0,0,0,0,0,0,0,0,0,0,0,0,0,0,0,0,0,0,0,0,0,0,0,0,0,0,0,0,0,0,0,0,0,0,0,0,0,0,0,0,0,0,0,0,0,0,0,0,0,0,0,
0,0,0,0,0,0,0,0,0,0,0,0,0,0,0,0,0,0,0,0,0,0,0,0,0,0,0,0,0,0,0,0,0,0,0,0,0,0,0,0,0,0,0,0,0,0,0,0,0,0,0,0,0,0,0,0,0,0,0,0,0,0,0,0,
0,0,0,0,0,0,0,0,0,0,0,0,0,0,0,0,0,0,0,0,0,0,0,0,0,0,0,0,0,0,0,0,0,0,0,0,0,0,0,0,0,0,0,0,0,0,0,0,0,0,0,0,0,0,0,0,0,0,0,0,0,0,0,0,
0,0,0,0,0,0,0,0,0,0,0,0,0,0,0,0,0,0,0,0,0,0,0,0,0,0,0,0,0,0,0,0,0,0,0,0,0,0,0,0,0,0,0,0,0,0,0,0,0,0,0,0,0,0,0,0,0,0,0,0,0,0,0,0,
0,0,0,0,0,0,0,0,0,0,0,0,0,0,0,0,0,0,0,0,0,0,0,0,0,0,0,0,0,0,0,0,0,0,0,0,0,0,0,0,0,0,0,0,0,0,0,0,0,0,0,0,0,0,0,0,0,0,0,0,0,0,0,0,
0,0,0,0,0,0,0,0,0,0,0,0,0,0,0,0,0,0,0,0,0,0,0,0,0,0,0,0,0,0,0,0,0,0,0,0,0,0,0,0,0,0,0,0,0,0,0,0,0,0,0,0,0,0,0,0,0,0,0,0,0,0,0,0,
0,0,0,0,0,0,0,0,0,0,0,0,0,0,0,0,0,0,0,0,0,0,0,0,0,0,0,0,0,0,0,0,0,0,0,0,0,0,0,0,0,0,0,0,0,0,0,0,0,0,0,0,0,0,0,0,0,0,0,0,0,0,0,0,
0,0,0,0,0,0,0,0,0,0,0,0,0,0,0,0,0,0,0,0,0,0,0,0,0,0,0,0,0,0,0,0,0,0,0,0,0,0,0,0,0,0,0,0,0,0,0,0,0,0,0,0,0,0,0,0,0,0,0,0,0,0,0,0,
0,0,0,0,0,0,0,0,0,0,0,0,0,0,0,0,0,0,0,0,0,0,0,0,0,0,0,0,0,0,0,0,0,0,0,0,0,0,0,0,0,0,0,0,0,0,0,0,0,0,0,0,0,0,0,0,0,0,0,0,0,0,0,0,
0,0,0,0,0,0,0,0,0,0,0,0,0,0,0,0,0,0,0,0,0,0,0,0,0,0,0,0,0,0,0,0,0,0,0,0,0,0,0,0,0,0,0,0,0,0,0,0,0,0,0,0,0,0,0,0,0,0,0,0,0,0,0,0,
0,0,0,0,0,0,0,0,0,0,0,0,0,0,0,0,0,0,0,0,0,0,0,0,0,0,0,0,0,0,0,0,0,0,0,0,0,0,0,0,0,0,0,0,0,0,0,0,0,0,0,0,0,0,0,0,0,0,0,0,0,0,0,0,
0,0,0,0,0,0,0,0,0,0,0,0,0,0,0,0,0,0,0,0,0,0,0,0,0,0,0,0,0,0,0,0,0,0,0,0,0,0,0,0,0,0,0,0,0,0,0,0,0,0,0,0,0,0,0,0,0,0,0,0,0,0,0,0,
0,0,0,0,0,0,0,0,0,0,0,0,0,0,0,0,0,0,0,0,0,0,0,0,0,0,0,0,0,0,0,0,0,0,0,0,0,0,0,0,0,0,0,0,0,0,0,0,0,0,0,0,0,0,0,0,0,0,0,0,0,0,0,0,
0,0,0,0,0,0,0,0,0,0,0,0,0,0,0,0,0,0,0,0,0,0,0,0,0,0,0,0,0,0,0,0,0,0,0,0,0,0,0,0,0,0,0,0,0,0,0,0,0,0,0,0,0,0,0,0,0,0,0,0,0,0,0,0,
0,0,0,0,0,0,0,0,0,0,0,0,0,0,0,0,0,0,0,0,0,0,0,0,0,0,0,0,0,0,0,0,0,0,0,0,0,0,0,0,0,0,0,0,0,0,0,0,0,0,0,0,0,0,0,0,0,0,0,0,0,0,0,0,
0,0,0,0,0,0,0,0,0,0,0,0,0,0,0,0,0,0,0,0,0,0,0,0,0,0,0,0,0,0,0,0,0,0,0,0,0,0,0,0,0,0,0,0,0,0,0,0,0,0,0,0,0,0,0,0,0,0,0,0,0,0,0,0,
0,0,0,0,0,0,0,0,0,0,0,0,0,0,0,0,0,0,0,0,0,0,0,0,0,0,0,0,0,0,0,0,0,0,0,0,0,0,0,0,0,0,0,0,0,0,0,0,0,0,0,0,0,0,0,0,0,0,0,0,0,0,0,0,
0,0,0,0,0,0,0,0,0,0,0,0,0,0,0,0,0,0,0,0,0,0,0,0,0,0,0,0,0,0,0,0,0,0,0,0,0,0,0,0,0,0,0,0,0,0,0,0,0,0,0,0,0,0,0,0,0,0,0,0,0,0,0,0,
0,0,0,0,0,0,0,0,0,0,0,0,0,0,0,0,0,0,0,0,0,0,0,0,0,0,0,0,0,0,0,0,0,0,0,0,0,0,0,0,0,0,0,0,0,0,0,0,0,0,0,0,0,0,0,0,0,0,0,0,0,0,0,0
</data>
 </layer>
 <layer id="10" name="over" width="64" height="64" opacity="0.99">
  <data encoding="csv">
1743,1744,1745,0,1895,1896,1897,0,0,2007,2008,0,0,0,0,0,0,0,0,0,0,0,0,0,0,0,0,0,0,0,0,0,0,0,0,0,0,0,0,0,0,0,0,0,0,0,0,0,0,0,0,0,0,0,0,0,0,0,0,0,0,0,0,0,
0,0,0,0,0,0,0,0,0,0,0,0,0,0,0,0,0,0,0,0,0,0,0,0,0,0,1884,1885,1886,1887,0,1884,1885,1886,1887,0,2115,2116,2117,2118,0,0,0,0,0,0,0,0,0,0,0,0,0,1322,1323,1124,1125,1126,1127,1128,1129,1130,1131,0,
0,0,0,0,0,0,0,0,0,0,0,0,0,0,0,0,0,0,0,0,0,0,1789,1790,1791,0,1917,1918,1919,1920,0,1917,1918,1919,1920,0,2148,2149,2150,2151,0,0,0,0,0,0,0,0,0,0,0,0,0,0,0,0,0,0,0,0,0,0,0,0,
1859,1860,1861,0,1628,1629,1630,1631,0,1632,1633,1634,1635,0,1651,1652,1653,0,1654,1655,1656,0,1822,1823,1824,0,0,0,0,0,0,0,0,0,0,0,0,0,0,0,0,0,2274,2275,2276,0,0,0,0,0,0,0,0,0,0,1172,1173,1174,1175,1176,1177,1178,1179,0,
0,0,0,0,0,0,0,0,0,0,0,0,0,0,0,0,0,0,0,0,0,0,0,0,0,0,0,0,0,0,0,0,0,0,0,0,0,0,0,0,0,0,0,0,0,0,0,0,0,0,0,0,0,0,0,0,0,0,0,0,0,0,0,0,
0,0,0,0,0,0,0,0,0,0,0,0,0,0,0,0,0,0,0,0,0,0,0,0,0,0,0,0,0,0,0,0,0,0,0,0,0,0,0,0,0,0,0,0,0,0,0,0,0,0,0,0,0,0,0,0,0,0,0,0,0,0,0,0,
0,0,0,0,0,0,0,0,0,0,0,0,0,0,0,0,0,0,0,0,0,0,0,0,0,0,0,0,0,0,0,0,0,0,0,0,0,0,0,0,0,0,0,0,0,0,0,0,0,0,0,0,1556,1557,1558,1559,1560,1561,1562,1563,1564,1565,1566,1567,
0,0,0,0,0,0,0,0,0,0,0,0,0,0,0,0,0,0,0,0,0,0,0,0,0,0,0,0,0,0,0,0,0,0,0,0,0,0,0,2410,0,0,0,0,0,0,0,0,0,0,0,0,0,0,0,0,0,0,0,0,0,0,0,0,
0,0,0,0,0,0,0,0,0,0,0,0,0,0,0,0,0,0,0,0,0,0,0,0,0,0,0,0,0,0,0,0,0,0,0,0,0,0,0,0,0,0,0,0,0,0,0,0,0,0,0,0,0,0,0,0,0,0,0,0,0,0,0,0,
0,0,0,0,0,0,0,0,0,0,0,0,0,0,0,0,0,0,0,0,0,0,0,0,0,0,0,0,0,0,0,0,0,0,0,0,0,0,0,0,0,0,0,0,0,0,0,0,0,0,0,0,0,0,0,0,0,0,0,0,0,0,0,0,
0,0,0,0,0,0,0,0,0,0,0,0,0,0,0,0,0,0,0,0,0,0,0,0,0,0,0,0,0,0,0,0,0,0,0,0,0,0,0,0,0,0,0,0,0,0,0,0,0,0,0,0,0,0,0,0,0,0,0,0,0,0,0,0,
0,0,0,0,0,0,0,0,0,0,0,0,0,0,0,0,0,0,0,0,0,0,0,0,0,0,0,0,0,0,0,0,0,0,0,0,0,0,0,0,0,0,0,0,0,0,0,0,0,0,0,0,0,0,0,0,0,0,0,0,0,0,0,0,
0,0,0,0,0,0,0,0,0,0,0,0,0,0,0,0,0,0,0,0,0,0,0,0,0,0,0,0,0,0,0,0,0,0,0,0,0,0,0,0,0,0,0,0,0,0,0,0,0,0,0,0,0,0,0,0,0,0,0,0,0,0,0,0,
0,0,0,0,0,0,0,0,0,0,0,0,0,0,2274,2275,2276,0,1859,1860,1861,0,0,0,0,2007,2008,0,0,0,0,0,0,0,0,0,0,0,0,0,0,0,0,0,0,0,0,0,0,0,0,0,0,0,0,0,0,0,0,0,0,0,0,0,
0,0,0,0,0,0,0,0,0,0,0,0,0,0,0,0,0,0,0,0,0,0,0,0,0,0,0,0,0,0,0,0,0,0,0,0,0,0,0,0,0,0,0,0,0,0,0,0,0,0,0,0,0,0,0,0,0,0,0,0,0,0,0,0,
0,0,0,0,0,0,0,0,0,0,0,0,0,0,0,0,0,0,0,0,0,0,0,0,0,0,0,0,0,0,0,0,0,0,0,0,0,0,0,0,0,0,0,0,0,0,0,0,0,0,0,0,0,0,0,0,0,0,0,0,0,0,0,0,
0,0,0,0,0,0,0,0,0,0,0,0,0,0,0,0,0,0,0,0,0,0,0,0,0,2007,2008,0,0,0,0,0,0,0,0,0,0,0,0,0,0,0,0,0,0,0,0,0,0,0,0,0,0,0,0,0,0,0,0,0,0,0,0,0,
0,0,0,0,0,0,0,0,0,0,0,0,0,0,0,0,0,0,0,0,0,0,0,0,0,0,0,0,0,0,0,0,0,0,0,0,0,0,0,0,0,0,0,0,0,0,0,0,0,0,0,0,0,0,0,0,0,0,0,0,0,0,0,0,
0,0,0,0,0,0,0,0,0,0,0,0,0,0,0,0,0,0,0,0,0,0,0,0,0,0,0,0,0,0,0,0,0,1628,1629,1630,1631,0,0,0,0,0,0,0,0,0,0,0,0,0,0,0,0,0,0,0,0,0,0,0,0,0,0,0,
0,0,0,0,0,0,0,0,0,0,0,0,0,0,0,0,0,0,0,0,0,0,0,0,0,0,0,0,0,0,0,0,0,0,0,0,0,0,0,0,0,0,0,0,0,0,0,0,0,0,0,0,0,0,0,0,0,0,0,0,0,0,0,0,
0,0,0,0,0,0,0,0,0,0,0,0,0,0,0,0,0,0,0,0,0,0,0,0,0,0,0,0,0,0,0,0,0,0,0,0,0,0,0,0,0,0,0,0,0,0,0,0,0,0,0,0,0,0,0,0,0,0,0,0,0,0,0,0,
0,0,0,0,0,0,0,0,0,0,0,0,0,0,0,0,0,0,0,0,0,0,0,0,0,0,0,0,0,0,0,0,0,0,0,0,0,0,0,0,0,0,0,0,0,0,0,0,0,0,0,0,0,0,0,0,0,0,0,0,0,0,0,0,
0,0,0,0,0,0,0,0,0,0,0,0,0,0,0,0,0,0,0,0,0,0,0,0,0,0,0,0,0,0,0,0,0,0,0,0,0,0,0,0,0,0,0,0,0,0,0,0,0,0,0,0,0,0,0,0,0,0,0,0,0,0,0,0,
0,0,0,0,0,0,0,0,0,0,0,0,0,0,0,0,0,0,0,0,0,0,0,0,0,0,0,0,0,0,0,0,0,0,0,0,0,0,0,0,0,0,0,0,0,0,0,0,0,0,0,0,0,0,0,0,0,0,0,0,0,0,0,0,
0,0,0,0,0,0,0,0,0,0,0,0,0,0,0,0,0,0,0,0,0,0,0,0,0,0,0,0,0,0,0,0,0,0,0,0,0,0,0,0,0,0,0,0,0,0,0,0,0,0,0,0,0,0,0,0,0,0,0,0,0,0,0,0,
0,2106,2107,2108,0,0,0,0,0,0,0,0,0,0,0,0,0,0,0,0,0,0,0,0,0,0,0,0,0,0,0,0,0,0,0,0,0,0,0,0,0,0,0,0,0,0,0,0,0,0,0,0,0,0,0,0,0,0,0,0,0,0,0,0,
0,0,0,0,0,0,0,0,0,0,0,0,0,0,0,0,0,0,0,0,0,0,0,0,0,0,0,0,0,0,0,0,0,0,0,0,0,0,0,0,0,0,0,0,0,0,0,0,0,0,0,0,0,0,0,0,0,0,0,0,0,0,0,0,
0,0,0,0,0,0,0,0,0,0,0,0,0,0,0,0,0,0,0,0,0,0,0,0,0,0,0,0,0,0,0,0,0,0,0,0,0,0,0,0,0,0,0,0,0,0,0,0,0,0,0,0,0,0,0,0,0,0,0,0,0,0,0,0,
0,0,0,0,0,0,0,0,0,0,0,0,0,0,0,0,0,0,0,0,0,0,0,0,0,0,0,0,0,0,0,0,0,0,0,0,0,0,0,0,0,0,0,0,0,0,0,0,0,0,0,0,0,0,0,0,0,0,0,0,0,0,0,0,
0,0,0,0,0,0,0,0,0,0,0,0,0,0,0,0,0,0,0,0,0,0,0,0,0,0,0,0,0,0,0,0,0,0,0,0,0,0,0,0,0,0,0,0,0,0,0,0,0,0,0,0,0,0,0,0,0,0,0,0,0,0,0,0,
0,0,0,0,0,0,0,0,0,0,0,0,0,0,0,0,0,0,0,0,0,0,0,0,0,0,0,0,0,0,0,0,0,0,0,0,0,0,0,0,0,0,0,0,0,0,0,0,0,0,0,0,0,0,0,0,0,0,0,0,0,0,0,0,
0,0,0,0,0,0,0,0,0,0,0,0,0,0,0,0,0,0,0,0,0,0,0,0,0,0,0,0,0,0,0,0,0,0,0,0,0,0,0,0,0,0,0,0,0,0,0,0,0,0,0,0,0,0,0,0,0,0,0,0,0,0,0,0,
0,0,0,0,0,0,0,0,0,0,0,0,0,0,0,0,0,0,0,0,0,0,0,0,0,0,0,0,0,0,0,0,0,0,0,0,0,0,0,0,0,0,0,0,0,0,0,0,0,0,0,0,0,0,0,0,0,0,0,0,0,0,0,0,
0,0,0,0,0,0,0,0,0,0,0,0,0,0,0,0,0,0,0,0,0,0,0,0,0,0,0,0,0,0,0,0,0,0,0,0,0,0,0,0,0,0,0,0,0,0,0,0,0,0,0,0,0,0,0,0,0,0,0,0,0,0,0,0,
0,0,0,0,0,0,0,0,0,0,0,0,0,0,0,0,0,0,0,0,0,0,0,0,0,0,0,0,0,0,0,0,0,0,0,0,0,0,0,0,0,0,0,0,0,0,0,0,0,0,0,0,0,0,0,0,0,0,0,0,0,0,0,0,
0,0,0,0,0,0,0,0,0,0,0,0,0,0,0,0,0,0,0,0,0,0,0,0,0,0,0,0,0,0,0,0,0,0,0,0,0,0,0,0,0,0,0,0,0,0,0,0,0,0,0,0,0,0,0,0,0,0,0,0,0,0,0,0,
0,0,0,0,0,0,0,0,0,0,0,0,0,0,0,0,0,0,0,0,0,0,0,0,0,0,0,0,0,0,0,0,0,0,0,0,0,0,0,0,0,0,0,0,0,0,0,0,0,0,0,0,0,0,0,0,0,0,0,0,0,0,0,0,
0,0,0,0,0,0,0,0,0,0,0,0,0,0,0,0,0,0,0,0,0,0,0,0,0,0,0,0,0,0,0,0,0,0,0,0,0,0,0,0,0,0,0,0,0,0,0,0,0,0,0,0,0,0,0,0,0,0,0,0,0,0,0,0,
0,0,0,0,0,0,0,0,0,0,0,0,0,0,0,0,0,0,0,0,0,0,0,0,0,0,0,0,0,0,0,0,0,0,0,0,0,0,0,0,0,0,0,0,0,0,0,0,0,0,0,0,0,0,0,0,0,0,0,0,0,0,0,0,
0,0,0,0,0,0,0,0,0,0,0,0,0,0,0,0,0,0,0,0,0,0,0,0,0,0,0,0,0,0,0,0,0,0,0,0,0,0,0,0,0,0,0,0,0,0,0,0,0,0,0,0,0,0,0,0,0,0,0,0,0,0,0,0,
0,0,0,0,0,0,0,0,0,0,0,0,0,0,0,0,0,0,0,0,0,0,0,0,0,0,0,0,0,0,0,0,0,0,0,0,0,0,0,0,0,0,0,0,0,0,0,0,0,0,0,0,0,0,0,0,0,0,0,0,0,0,0,0,
0,0,0,0,0,0,0,0,0,0,0,0,0,0,0,0,0,0,0,0,0,0,0,0,0,0,0,0,0,0,0,0,0,0,0,0,0,0,0,0,0,0,0,0,0,0,0,0,0,0,0,0,0,0,0,0,0,0,0,0,0,0,0,0,
0,0,0,0,0,0,0,0,0,0,0,0,0,0,0,0,0,0,0,0,0,0,0,0,0,0,0,0,0,0,0,0,0,0,0,0,0,0,0,0,0,0,0,0,0,0,0,0,0,0,0,0,0,0,0,0,0,0,0,0,0,0,0,0,
0,0,0,0,0,0,0,0,0,0,0,0,0,0,0,0,0,0,0,0,0,0,0,0,0,0,0,0,0,0,0,0,0,0,0,0,0,0,0,0,0,0,0,0,0,0,0,0,0,0,0,0,0,0,0,0,0,0,0,0,0,0,0,0,
0,0,0,0,0,0,0,0,0,0,0,0,0,0,0,0,0,0,0,0,0,0,0,0,0,0,0,0,0,0,0,0,0,0,0,0,0,0,0,0,0,0,0,0,0,0,0,0,0,0,0,0,0,0,0,0,0,0,0,0,0,0,0,0,
0,0,0,0,0,0,0,0,0,0,0,0,0,0,0,0,0,0,0,0,0,0,0,0,0,0,0,0,0,0,0,0,0,0,0,0,0,0,0,0,0,0,0,0,0,0,0,0,0,0,0,0,0,0,0,0,0,0,0,0,0,0,0,0,
0,0,0,0,0,0,0,0,0,0,0,0,0,0,0,0,0,0,0,0,0,0,0,0,0,0,0,0,0,0,0,0,0,0,0,0,0,0,0,0,0,0,0,0,0,0,0,0,0,0,0,0,0,0,0,0,0,0,0,0,0,0,0,0,
0,0,0,0,0,0,0,0,0,0,0,0,0,0,0,0,0,0,0,0,0,0,0,0,0,0,0,0,0,0,0,0,0,0,0,0,0,0,0,0,0,0,0,0,0,0,0,0,0,0,0,0,0,0,0,0,0,0,0,0,0,0,0,0,
0,0,0,0,0,0,0,0,0,0,0,0,0,0,0,0,0,0,0,0,0,0,0,0,0,0,0,0,0,0,0,0,0,0,0,0,0,0,0,0,0,0,0,0,0,0,0,0,0,0,0,0,0,0,0,0,0,0,0,0,0,0,0,0,
0,0,0,0,0,0,0,0,0,0,0,0,0,0,0,0,0,0,0,0,0,0,0,0,0,0,0,0,0,0,0,0,0,0,0,0,0,0,0,0,0,0,0,0,0,0,0,0,0,0,0,0,0,0,0,0,0,0,0,0,0,0,0,0,
0,0,0,0,0,0,0,0,0,0,0,0,0,0,0,0,0,0,0,0,0,0,0,0,0,0,0,0,0,0,0,0,0,0,0,0,0,0,0,0,0,0,0,0,0,0,0,0,0,0,0,0,0,0,0,0,0,0,0,0,0,0,0,0,
0,0,0,0,0,0,0,0,0,0,0,0,0,0,0,0,0,0,0,0,0,0,0,0,0,0,0,0,0,0,0,0,0,0,0,0,0,0,0,0,0,0,0,0,0,0,0,0,0,0,0,0,0,0,0,0,0,0,0,0,0,0,0,0,
0,0,0,0,0,0,0,0,0,0,0,0,0,0,0,0,0,0,0,0,0,0,0,0,0,0,0,0,0,0,0,0,0,0,0,0,0,0,0,0,0,0,0,0,0,0,0,0,0,0,0,0,0,0,0,0,0,0,0,0,0,0,0,0,
0,0,0,0,0,0,0,0,0,0,0,0,0,0,0,0,0,0,0,0,0,0,0,0,0,0,0,0,0,0,0,0,0,0,0,0,0,0,0,0,0,0,0,0,0,0,0,0,0,0,0,0,0,0,0,0,0,0,0,0,0,0,0,0,
0,0,0,0,0,0,0,0,0,0,0,0,0,0,0,0,0,0,0,0,0,0,0,0,0,0,0,0,0,0,0,0,0,0,0,0,0,0,0,0,0,0,0,0,0,0,0,0,0,0,0,0,0,0,0,0,0,0,0,0,0,0,0,0,
0,0,0,0,0,0,0,0,0,0,0,0,0,0,0,0,0,0,0,0,0,0,0,0,0,0,0,0,0,0,0,0,0,0,0,0,0,0,0,0,0,0,0,0,0,0,0,0,0,0,0,0,0,0,0,0,0,0,0,0,0,0,0,0,
0,0,0,0,0,0,0,0,0,0,0,0,0,0,0,0,0,0,0,0,0,0,0,0,0,0,0,0,0,0,0,0,0,0,0,0,0,0,0,0,0,0,0,0,0,0,0,0,0,0,0,0,0,0,0,0,0,0,0,0,0,0,0,0,
0,0,0,0,0,0,0,0,0,0,0,0,0,0,0,0,0,0,0,0,0,0,0,0,0,0,0,0,0,0,0,0,0,0,0,0,0,0,0,0,0,0,0,0,0,0,0,0,0,0,0,0,0,0,0,0,0,0,0,0,0,0,0,0,
0,0,0,0,0,0,0,0,0,0,0,0,0,0,0,0,0,0,0,0,0,0,0,0,0,0,0,0,0,0,0,0,0,0,0,0,0,0,0,0,0,0,0,0,0,0,0,0,0,0,0,0,0,0,0,0,0,0,0,0,0,0,0,0,
0,0,0,0,0,0,0,0,0,0,0,0,0,0,0,0,0,0,0,0,0,0,0,0,0,0,0,0,0,0,0,0,0,0,0,0,0,0,0,0,0,0,0,0,0,0,0,0,0,0,0,0,0,0,0,0,0,0,0,0,0,0,0,0,
0,0,0,0,0,0,0,0,0,0,0,0,0,0,0,0,0,0,0,0,0,0,0,0,0,0,0,0,0,0,0,0,0,0,0,0,0,0,0,0,0,0,0,0,0,0,0,0,0,0,0,0,0,0,0,0,0,0,0,0,0,0,0,0,
0,0,0,0,0,0,0,0,0,0,0,0,0,0,0,0,0,0,0,0,0,0,0,0,0,0,0,0,0,0,0,0,0,0,0,0,0,0,0,0,0,0,0,0,0,0,0,0,0,0,0,0,0,0,0,0,0,0,0,0,0,0,0,0,
0,0,0,0,0,0,0,0,0,0,0,0,0,0,0,0,0,0,0,0,0,0,0,0,0,0,0,0,0,0,0,0,0,0,0,0,0,0,0,0,0,0,0,0,0,0,0,0,0,0,0,0,0,0,0,0,0,0,0,0,0,0,0,0,
0,0,0,0,0,0,0,0,0,0,0,0,0,0,0,0,0,0,0,0,0,0,0,0,0,0,0,0,0,0,0,0,0,0,0,0,0,0,0,0,0,0,0,0,0,0,0,0,0,0,0,0,0,0,0,0,0,0,0,0,0,0,0,0
</data>
 </layer>
 <objectgroup id="7" name="interactions">
  <object id="170" name="JACOBS_CHAMBER_DOOR" x="544" y="320" width="16" height="16">
   <properties>
    <property name="consumes_key" type="bool" value="false"/>
    <property name="destination_entry_point" value="Door"/>
    <property name="obj_type" value="exit"/>
    <property name="requires_item" value="golden_key"/>
    <property name="to_map" value="JACOBS_CHAMBER"/>
   </properties>
  </object>
  <object id="171" name="BLUNDERHAVEN_BIG_CHEST" gid="2749" x="560" y="384" width="16" height="16">
   <properties>
    <property name="obj_type" value="chest"/>
   </properties>
  </object>
 </objectgroup>
 <objectgroup id="5" name="entry_points">
  <object id="169" name="JACOBS_CHAMBER              _FRONT" x="552" y="344">
   <point/>
  </object>
  <object id="172" name="start" gid="2817" x="512" y="384" width="16" height="16"/>
 </objectgroup>
 <objectgroup id="8" name="waypoints">
  <object id="167" name="farmer_field" x="648" y="208">
   <polyline points="0,0 208,0 4,85.3333 208,85.3333 4,170.667 204,170.667 4,256 208,256"/>
  </object>
  <object id="168" name="farmer_feed" x="408" y="292">
   <polygon points="0,0 0,52 -60,52 -60,-28 -96,-28 -96,-12 -68,-12 -68,52 -172,52 -172,-24 -156,-24 -156,-32 -180,-32 -180,56 12,56 12,0"/>
  </object>
  <object id="214" name="farmer_field" x="648" y="512">
   <polyline points="0,0 208,0 4,85.3333 208,85.3333 4,170.667 204,170.667 4,256 208,256"/>
  </object>
 </objectgroup>
 <objectgroup id="14" name="places">
  <object id="164" name="well" x="608" y="112" width="48" height="48"/>
  <object id="166" name="house_smith" x="552" y="328"/>
 </objectgroup>
 <objectgroup id="9" name="spawn_points">
  <object id="143" gid="2833" x="284" y="288" width="23" height="16"/>
  <object id="144" gid="2833" x="332" y="240" width="23" height="16"/>
  <object id="145" gid="2834" x="348" y="256" width="23" height="16"/>
  <object id="146" gid="2832" x="304" y="312" width="16" height="16"/>
  <object id="147" gid="2832" x="312" y="276" width="16" height="16"/>
  <object id="148" gid="2832" x="348" y="296" width="16" height="16"/>
  <object id="149" gid="2828" x="224" y="316" width="16" height="16"/>
  <object id="150" gid="2829" x="252" y="296" width="16" height="16"/>
  <object id="151" gid="2831" x="232" y="276" width="16" height="16"/>
  <object id="154" gid="2826" x="432" y="316" width="16" height="16"/>
  <object id="155" gid="2825" x="448" y="236" width="16" height="16"/>
  <object id="156" gid="2830" x="24" y="292" width="16" height="16"/>
  <object id="157" gid="2831" x="60" y="228" width="16" height="16"/>
  <object id="158" gid="2831" x="28" y="256" width="16" height="16"/>
  <object id="159" gid="2829" x="24" y="232" width="16" height="16"/>
  <object id="160" gid="2829" x="56" y="276" width="16" height="16"/>
  <object id="161" gid="2834" x="104" y="232" width="23" height="16"/>
  <object id="162" gid="2834" x="128" y="256" width="23" height="16" visible="0"/>
  <object id="163" gid="2834" x="112" y="288" width="23" height="16"/>
 </objectgroup>
 <objectgroup id="12" name="zones">
  <object id="132" name="forest" x="848" y="0" width="176" height="96"/>
  <object id="134" name="orchard" x="832" y="96" width="192" height="48"/>
  <object id="136" name="field" x="640" y="192" width="96" height="128"/>
  <object id="137" name="field" x="768" y="192" width="96" height="128"/>
  <object id="138" name="field" x="768" y="352" width="96" height="128"/>
  <object id="139" name="field" x="640" y="352" width="96" height="128"/>
  <object id="140" name="backyard" x="384" y="208" width="224" height="144"/>
  <object id="141" name="hencoop" x="224" y="208" width="48" height="112"/>
  <object id="142" name="cattle" x="96" y="208" width="64" height="96"/>
  <object id="152" name="hencoop" x="16" y="208" width="64" height="96"/>
  <object id="153" name="cattle" x="288" y="208" width="80" height="112"/>
  <object id="210" name="field" x="768" y="656" width="96" height="128"/>
  <object id="211" name="field" x="640" y="496" width="96" height="128"/>
  <object id="212" name="field" x="640" y="656" width="96" height="128"/>
  <object id="213" name="field" x="768" y="496" width="96" height="128"/>
 </objectgroup>
 <objectgroup id="15" name="stamps">
  <object id="173" name="hut_awning" x="0" y="0" width="48" height="48">
   <properties>
    <property name="kind" value="prop"/>
    <property name="tags" value="shelter,canopy"/>
   </properties>
  </object>
  <object id="174" name="hut_brown" x="0" y="48" width="48" height="48">
   <properties>
    <property name="door" value="1,2"/>
    <property name="kind" value="building"/>
   </properties>
  </object>
  <object id="175" name="hut_round_straw" x="64" y="0" width="48" height="32">
   <properties>
    <property name="door" value="1,1"/>
    <property name="kind" value="building"/>
   </properties>
  </object>
  <object id="176" name="haystack" x="144" y="0" width="32" height="32">
   <properties>
    <property name="kind" value="prop"/>
    <property name="tags" value="hay,farmyard"/>
   </properties>
  </object>
  <object id="177" name="house_cottage" x="64" y="48" width="64" height="48">
   <properties>
    <property name="door" value="1,2"/>
    <property name="kind" value="building"/>
    <property name="tags" value="house,village"/>
   </properties>
  </object>
  <object id="178" name="house_cream" x="144" y="48" width="64" height="48">
   <properties>
    <property name="door" value="1,2"/>
    <property name="kind" value="building"/>
    <property name="tags" value="house,shop"/>
   </properties>
  </object>
  <object id="179" name="house_ornate" x="224" y="48" width="48" height="48">
   <properties>
    <property name="door" value="1,2"/>
    <property name="kind" value="building"/>
    <property name="tags" value="house,rich"/>
   </properties>
  </object>
  <object id="180" name="house_red" x="288" y="48" width="48" height="48">
   <properties>
    <property name="door" value="1,2"/>
    <property name="kind" value="building"/>
    <property name="tags" value="house,village"/>
   </properties>
  </object>
  <object id="181" name="hut_kiln" x="352" y="32" width="48" height="64">
   <properties>
    <property name="door" value="1,3"/>
    <property name="kind" value="building"/>
    <property name="tags" value="kiln,workshop"/>
   </properties>
  </object>
  <object id="182" name="farmhouse_big_1" x="416" y="16" width="64" height="80">
   <properties>
    <property name="kind" value="building"/>
    <property name="tags" value="house,large"/>
   </properties>
  </object>
  <object id="183" name="farmhouse_big_2" x="496" y="16" width="64" height="80">
   <properties>
    <property name="door" value="1,4"/>
    <property name="kind" value="building"/>
    <property name="tags" value="house,large"/>
   </properties>
  </object>
  <object id="184" name="tavern_tall" x="576" y="16" width="64" height="80">
   <properties>
    <property name="door" value="1,4"/>
    <property name="kind" value="building"/>
    <property name="tags" value="tavern,large,storey"/>
   </properties>
  </object>
  <object id="185" name="barn_wood" x="672" y="48" width="48" height="48">
   <properties>
    <property name="door" value="1,2"/>
    <property name="kind" value="building"/>
    <property name="tags" value="barn,stable"/>
   </properties>
  </object>
  <object id="186" name="house_farmstead" x="528" y="288" width="64" height="48">
   <properties>
    <property name="door" value="1,2"/>
    <property name="kind" value="building"/>
    <property name="tags" value="house,village"/>
   </properties>
  </object>
  <object id="187" name="haystack_small" x="400" y="256" width="32" height="32">
   <properties>
    <property name="kind" value="prop"/>
    <property name="tags" value="hay,farmyard"/>
   </properties>
  </object>
  <object id="188" name="fence_blue_gate" x="128" y="112" width="80" height="48">
   <properties>
    <property name="kind" value="fence"/>
    <property name="tags" value="gate"/>
    <property name="tile" type="bool" value="true"/>
   </properties>
  </object>
  <object id="189" name="fence_wood" x="224" y="112" width="112" height="48">
   <properties>
    <property name="kind" value="fence"/>
    <property name="tile" type="bool" value="true"/>
   </properties>
  </object>
  <object id="190" name="wall_stone" x="352" y="112" width="112" height="48">
   <properties>
    <property name="kind" value="wall"/>
    <property name="tile" type="bool" value="true"/>
   </properties>
  </object>
  <object id="191" name="fence_rail_dark" x="480" y="112" width="96" height="48">
   <properties>
    <property name="kind" value="fence"/>
    <property name="tile" type="bool" value="true"/>
   </properties>
  </object>
  <object id="192" name="well" x="608" y="112" width="48" height="48">
   <properties>
    <property name="kind" value="prop"/>
    <property name="tags" value="well,meeting"/>
   </properties>
  </object>
  <object id="193" name="sunflowers" x="464" y="224" width="48" height="48">
   <properties>
    <property name="kind" value="prop"/>
    <property name="tags" value="crop"/>
    <property name="tile" type="bool" value="true"/>
   </properties>
  </object>
  <object id="194" name="farmyard_small" x="0" y="192" width="176" height="192">
   <properties>
    <property name="door" value="3,10"/>
    <property name="kind" value="farmyard"/>
    <property name="tags" value="farmyard,hencoop,cowshed"/>
   </properties>
  </object>
  <object id="195" name="farmyard_big" x="208" y="192" width="416" height="192">
   <properties>
    <property name="door" value="21,10"/>
    <property name="kind" value="farmyard"/>
    <property name="tags" value="farmyard,full"/>
   </properties>
  </object>
  <object id="196" name="tree_round" x="848" y="16" width="32" height="32">
   <properties>
    <property name="anchor" value="center"/>
    <property name="kind" value="nature"/>
    <property name="tags" value="tree,forest"/>
   </properties>
  </object>
  <object id="197" name="tree_bushy" x="880" y="16" width="32" height="32">
   <properties>
    <property name="anchor" value="center"/>
    <property name="kind" value="nature"/>
    <property name="tags" value="tree,forest"/>
   </properties>
  </object>
  <object id="198" name="tree_fir" x="912" y="16" width="32" height="32">
   <properties>
    <property name="anchor" value="center"/>
    <property name="kind" value="nature"/>
    <property name="tags" value="tree,forest,conifer"/>
   </properties>
  </object>
  <object id="199" name="tree_dead" x="944" y="16" width="32" height="32">
   <properties>
    <property name="anchor" value="center"/>
    <property name="kind" value="nature"/>
    <property name="tags" value="tree,dead"/>
   </properties>
  </object>
  <object id="200" name="tree_stump" x="976" y="16" width="32" height="32">
   <properties>
    <property name="anchor" value="center"/>
    <property name="kind" value="nature"/>
    <property name="tags" value="tree,fallen"/>
   </properties>
  </object>
  <object id="201" name="tree_fir_big" x="880" y="48" width="64" height="48">
   <properties>
    <property name="anchor" value="center"/>
    <property name="kind" value="nature"/>
    <property name="tags" value="tree,forest,large"/>
   </properties>
  </object>
  <object id="202" name="tree_oak_big" x="944" y="48" width="64" height="48">
   <properties>
    <property name="anchor" value="center"/>
    <property name="kind" value="nature"/>
    <property name="tags" value="tree,forest,large"/>
   </properties>
  </object>
  <object id="203" name="tree_blossom_pink" x="832" y="96" width="48" height="48">
   <properties>
    <property name="anchor" value="center"/>
    <property name="kind" value="nature"/>
    <property name="tags" value="tree,orchard"/>
   </properties>
  </object>
  <object id="204" name="tree_orchard_green" x="880" y="96" width="48" height="48">
   <properties>
    <property name="anchor" value="center"/>
    <property name="kind" value="nature"/>
    <property name="tags" value="tree,orchard"/>
   </properties>
  </object>
  <object id="205" name="tree_blossom_white" x="928" y="96" width="48" height="48">
   <properties>
    <property name="anchor" value="center"/>
    <property name="kind" value="nature"/>
    <property name="tags" value="tree,orchard"/>
   </properties>
  </object>
  <object id="206" name="tree_blossom_orange" x="976" y="96" width="48" height="48">
   <properties>
    <property name="anchor" value="center"/>
    <property name="kind" value="nature"/>
    <property name="tags" value="tree,orchard"/>
   </properties>
  </object>
  <object id="207" name="grass" x="0" y="480" width="512" height="256">
   <properties>
    <property name="kind" value="terrain"/>
    <property name="tags" value="grass,base"/>
   </properties>
  </object>
  <object id="208" name="field_crop" x="640" y="192" width="224" height="288">
   <properties>
    <property name="kind" value="terrain"/>
    <property name="tags" value="field,crop,green"/>
   </properties>
  </object>
  <object id="209" name="path_narrow" x="704" y="96" width="128" height="96">
   <properties>
    <property name="kind" value="pathkit"/>
    <property name="tags" value="path,trail,narrow"/>
   </properties>
  </object>
  <object id="215" name="field_crop" x="640" y="496" width="224" height="288">
   <properties>
    <property name="kind" value="terrain"/>
    <property name="tags" value="field,crop,ripe"/>
   </properties>
  </object>
  <object id="216" name="decorations" x="16" y="112" width="16" height="16">
   <properties>
    <property name="kind" value="prop"/>
    <property name="tags" value="box"/>
   </properties>
  </object>
  <object id="217" name="greenery" x="192" y="16" width="16" height="16">
   <properties>
    <property name="kind" value="nature"/>
    <property name="tags" value="grass"/>
   </properties>
  </object>
  <object id="218" name="baskets" x="16" y="384" width="16" height="16">
   <properties>
    <property name="kind" value="prop"/>
    <property name="tags" value="basket"/>
   </properties>
  </object>
  <object id="220" name="decorations" x="32" y="112" width="16" height="16">
   <properties>
    <property name="kind" value="prop"/>
    <property name="tags" value="pitcher"/>
   </properties>
  </object>
  <object id="221" name="decorations" x="48" y="112" width="16" height="16">
   <properties>
    <property name="kind" value="prop"/>
    <property name="tags" value="poles"/>
   </properties>
  </object>
  <object id="222" name="decorations" x="64" y="112" width="16" height="16">
   <properties>
    <property name="kind" value="prop"/>
    <property name="tags" value="decoration"/>
   </properties>
  </object>
  <object id="223" name="decorations" x="80" y="112" width="16" height="16">
   <properties>
    <property name="kind" value="prop"/>
    <property name="tags" value="bucket"/>
   </properties>
  </object>
  <object id="224" name="decorations" x="96" y="112" width="16" height="16">
   <properties>
    <property name="kind" value="prop"/>
    <property name="tags" value="bucket"/>
   </properties>
  </object>
  <object id="225" name="decorations" x="16" y="128" width="16" height="16">
   <properties>
    <property name="kind" value="prop"/>
    <property name="tags" value="ornament"/>
   </properties>
  </object>
  <object id="226" name="decorations" x="32" y="128" width="16" height="16">
   <properties>
    <property name="kind" value="prop"/>
    <property name="tags" value="ornament"/>
   </properties>
  </object>
  <object id="227" name="decorations" x="48" y="128" width="16" height="16">
   <properties>
    <property name="kind" value="prop"/>
    <property name="tags" value="bowl"/>
   </properties>
  </object>
  <object id="228" name="decorations" x="80" y="128" width="16" height="16">
   <properties>
    <property name="kind" value="prop"/>
    <property name="tags" value="pitcher"/>
   </properties>
  </object>
  <object id="229" name="decorations" x="96" y="128" width="16" height="16">
   <properties>
    <property name="kind" value="prop"/>
    <property name="tags" value="pitcher"/>
   </properties>
  </object>
  <object id="230" name="decorations" x="16" y="144" width="16" height="16">
   <properties>
    <property name="kind" value="prop"/>
    <property name="tags" value="sign"/>
   </properties>
  </object>
  <object id="231" name="decorations" x="32" y="144" width="16" height="16">
   <properties>
    <property name="kind" value="prop"/>
    <property name="tags" value="sign"/>
   </properties>
  </object>
  <object id="232" name="decorations" x="48" y="144" width="16" height="16">
   <properties>
    <property name="kind" value="prop"/>
    <property name="tags" value="statue"/>
   </properties>
  </object>
  <object id="233" name="decorations" x="64" y="144" width="16" height="16">
   <properties>
    <property name="kind" value="prop"/>
    <property name="tags" value="cross"/>
   </properties>
  </object>
  <object id="234" name="decorations" x="80" y="144" width="16" height="16">
   <properties>
    <property name="kind" value="prop"/>
    <property name="tags" value="tombstone"/>
   </properties>
  </object>
  <object id="235" name="decorations" x="96" y="144" width="16" height="16">
   <properties>
    <property name="kind" value="prop"/>
    <property name="tags" value="tombstone"/>
   </properties>
  </object>
  <object id="236" name="decorations" x="16" y="160" width="16" height="16">
   <properties>
    <property name="kind" value="prop"/>
    <property name="tags" value="sticks"/>
   </properties>
  </object>
  <object id="237" name="decorations" x="32" y="160" width="16" height="16">
   <properties>
    <property name="kind" value="prop"/>
    <property name="tags" value="sticks"/>
   </properties>
  </object>
  <object id="238" name="decorations" x="96" y="160" width="16" height="16">
   <properties>
    <property name="kind" value="prop"/>
    <property name="tags" value="sticks"/>
   </properties>
  </object>
  <object id="239" name="decorations" x="80" y="160" width="16" height="16">
   <properties>
    <property name="kind" value="prop"/>
    <property name="tags" value="stones"/>
   </properties>
  </object>
  <object id="240" name="decorations" x="64" y="160" width="16" height="16">
   <properties>
    <property name="kind" value="prop"/>
    <property name="tags" value="gravel"/>
   </properties>
  </object>
  <object id="241" name="decorations" x="64" y="128" width="16" height="16">
   <properties>
    <property name="kind" value="prop"/>
    <property name="tags" value="stone"/>
   </properties>
  </object>
  <object id="242" name="decorations" x="48" y="160" width="16" height="16">
   <properties>
    <property name="kind" value="prop"/>
    <property name="tags" value="hay"/>
   </properties>
  </object>
  <object id="243" name="greenery" x="208" y="16" width="16" height="16">
   <properties>
    <property name="kind" value="nature"/>
    <property name="tags" value="grass"/>
   </properties>
  </object>
  <object id="244" name="greenery" x="224" y="16" width="16" height="16">
   <properties>
    <property name="kind" value="nature"/>
    <property name="tags" value="grass"/>
   </properties>
  </object>
  <object id="245" name="greenery" x="240" y="16" width="16" height="16">
   <properties>
    <property name="kind" value="nature"/>
    <property name="tags" value="grass"/>
   </properties>
  </object>
  <object id="246" name="greenery" x="256" y="16" width="16" height="16">
   <properties>
    <property name="kind" value="nature"/>
    <property name="tags" value="grass"/>
   </properties>
  </object>
  <object id="247" name="greenery" x="288" y="16" width="16" height="16">
   <properties>
    <property name="kind" value="nature"/>
    <property name="tags" value="grass"/>
   </properties>
  </object>
  <object id="248" name="greenery" x="304" y="16" width="16" height="16">
   <properties>
    <property name="kind" value="nature"/>
    <property name="tags" value="grass"/>
   </properties>
  </object>
  <object id="249" name="greenery" x="272" y="16" width="16" height="16">
   <properties>
    <property name="kind" value="nature"/>
    <property name="tags" value="flower"/>
   </properties>
  </object>
  <object id="250" name="baskets" x="32" y="384" width="16" height="16">
   <properties>
    <property name="kind" value="prop"/>
    <property name="tags" value="basket"/>
   </properties>
  </object>
  <object id="251" name="baskets" x="48" y="384" width="16" height="16">
   <properties>
    <property name="kind" value="prop"/>
    <property name="tags" value="basket"/>
   </properties>
  </object>
  <object id="252" name="baskets" x="64" y="384" width="16" height="16">
   <properties>
    <property name="kind" value="prop"/>
    <property name="tags" value="basket"/>
   </properties>
  </object>
  <object id="253" name="baskets" x="80" y="384" width="16" height="16">
   <properties>
    <property name="kind" value="prop"/>
    <property name="tags" value="basket"/>
   </properties>
  </object>
  <object id="254" name="baskets" x="96" y="384" width="16" height="16">
   <properties>
    <property name="kind" value="prop"/>
    <property name="tags" value="basket"/>
   </properties>
  </object>
  <object id="255" name="baskets" x="64" y="400" width="16" height="16">
   <properties>
    <property name="kind" value="prop"/>
    <property name="tags" value="basket"/>
   </properties>
  </object>
  <object id="256" name="baskets" x="80" y="400" width="16" height="16">
   <properties>
    <property name="kind" value="prop"/>
    <property name="tags" value="basket"/>
   </properties>
  </object>
  <object id="257" name="baskets" x="96" y="400" width="16" height="16">
   <properties>
    <property name="kind" value="prop"/>
    <property name="tags" value="basket"/>
   </properties>
  </object>
  <object id="258" name="baskets" x="160" y="384" width="16" height="16">
   <properties>
    <property name="kind" value="prop"/>
    <property name="tags" value="basket"/>
   </properties>
  </object>
  <object id="259" name="baskets" x="160" y="400" width="16" height="16">
   <properties>
    <property name="kind" value="prop"/>
    <property name="tags" value="basket"/>
   </properties>
  </object>
  <object id="260" name="baskets" x="144" y="384" width="16" height="16">
   <properties>
    <property name="kind" value="prop"/>
    <property name="tags" value="bowl"/>
   </properties>
  </object>
  <object id="261" name="baskets" x="144" y="400" width="16" height="16">
   <properties>
    <property name="kind" value="prop"/>
    <property name="tags" value="bowl"/>
   </properties>
  </object>
  <object id="262" name="baskets" x="144" y="416" width="16" height="16">
   <properties>
    <property name="kind" value="prop"/>
    <property name="tags" value="bowl"/>
   </properties>
  </object>
  <object id="263" name="baskets" x="160" y="416" width="16" height="16">
   <properties>
    <property name="kind" value="prop"/>
    <property name="tags" value="bowl"/>
   </properties>
  </object>
  <object id="264" name="baskets" x="144" y="432" width="16" height="16">
   <properties>
    <property name="kind" value="prop"/>
    <property name="tags" value="bowl"/>
   </properties>
  </object>
  <object id="265" name="baskets" x="160" y="432" width="16" height="16">
   <properties>
    <property name="kind" value="prop"/>
    <property name="tags" value="bowl"/>
   </properties>
  </object>
  <object id="266" name="baskets" x="112" y="400" width="16" height="16">
   <properties>
    <property name="kind" value="prop"/>
    <property name="tags" value="rope"/>
   </properties>
  </object>
  <object id="267" name="baskets" x="112" y="384" width="16" height="16">
   <properties>
    <property name="kind" value="prop"/>
    <property name="tags" value="scarecrow"/>
   </properties>
  </object>
  <object id="268" name="baskets" x="128" y="400" width="16" height="16">
   <properties>
    <property name="kind" value="prop"/>
    <property name="tags" value="bowl"/>
   </properties>
  </object>
  <object id="269" name="baskets" x="16" y="400" width="16" height="32">
   <properties>
    <property name="kind" value="prop"/>
    <property name="tags" value="basket"/>
   </properties>
  </object>
  <object id="270" name="baskets" x="32" y="400" width="16" height="32">
   <properties>
    <property name="kind" value="prop"/>
    <property name="tags" value="basket"/>
   </properties>
  </object>
  <object id="271" name="baskets" x="48" y="400" width="16" height="32">
   <properties>
    <property name="kind" value="prop"/>
    <property name="tags" value="basket"/>
   </properties>
  </object>
  <object id="272" name="greenery" x="192" y="0" width="16" height="16">
   <properties>
    <property name="kind" value="nature"/>
    <property name="tags" value="flower"/>
   </properties>
  </object>
  <object id="273" name="greenery" x="208" y="0" width="16" height="16">
   <properties>
    <property name="kind" value="nature"/>
    <property name="tags" value="flower"/>
   </properties>
  </object>
  <object id="274" name="greenery" x="224" y="0" width="16" height="16">
   <properties>
    <property name="kind" value="nature"/>
    <property name="tags" value="flower"/>
   </properties>
  </object>
  <object id="275" name="greenery" x="272" y="0" width="16" height="16">
   <properties>
    <property name="kind" value="nature"/>
    <property name="tags" value="flower"/>
   </properties>
  </object>
  <object id="276" name="greenery" x="240" y="0" width="16" height="16">
   <properties>
    <property name="kind" value="nature"/>
    <property name="tags" value="bush"/>
   </properties>
  </object>
  <object id="277" name="greenery" x="256" y="0" width="16" height="16">
   <properties>
    <property name="kind" value="nature"/>
    <property name="tags" value="bush"/>
   </properties>
  </object>
  <object id="278" name="greenery" x="288" y="0" width="16" height="16">
   <properties>
    <property name="kind" value="nature"/>
    <property name="tags" value="bush"/>
   </properties>
  </object>
  <object id="279" name="greenery" x="304" y="0" width="16" height="16">
   <properties>
    <property name="kind" value="nature"/>
    <property name="tags" value="bush"/>
   </properties>
  </object>
  <object id="280" name="greenery" x="192" y="32" width="16" height="16">
   <properties>
    <property name="kind" value="nature"/>
    <property name="tags" value="bush"/>
   </properties>
  </object>
  <object id="281" name="greenery" x="208" y="32" width="16" height="16">
   <properties>
    <property name="kind" value="nature"/>
    <property name="tags" value="bush"/>
   </properties>
  </object>
  <object id="282" name="greenery" x="224" y="32" width="16" height="16">
   <properties>
    <property name="kind" value="nature"/>
    <property name="tags" value="bush"/>
   </properties>
  </object>
  <object id="283" name="greenery" x="240" y="32" width="16" height="16">
   <properties>
    <property name="kind" value="nature"/>
    <property name="tags" value="bush"/>
   </properties>
  </object>
  <object id="284" name="greenery" x="256" y="32" width="16" height="16">
   <properties>
    <property name="kind" value="nature"/>
    <property name="tags" value="bush"/>
   </properties>
  </object>
  <object id="285" name="greenery" x="320" y="0" width="16" height="16">
   <properties>
    <property name="kind" value="nature"/>
    <property name="tags" value="bush"/>
   </properties>
  </object>
  <object id="286" name="greenery" x="272" y="32" width="16" height="16">
   <properties>
    <property name="kind" value="nature"/>
    <property name="tags" value="bush"/>
   </properties>
  </object>
  <object id="287" name="greenery" x="288" y="32" width="16" height="16">
   <properties>
    <property name="kind" value="nature"/>
    <property name="tags" value="bush"/>
   </properties>
  </object>
  <object id="288" name="greenery" x="304" y="32" width="16" height="16">
   <properties>
    <property name="kind" value="nature"/>
    <property name="tags" value="bush"/>
   </properties>
  </object>
  <object id="289" name="greenery" x="320" y="32" width="16" height="16">
   <properties>
    <property name="kind" value="nature"/>
    <property name="tags" value="bush"/>
   </properties>
  </object>
  <object id="290" name="greenery" x="336" y="32" width="16" height="16">
   <properties>
    <property name="kind" value="nature"/>
    <property name="tags" value="bush"/>
   </properties>
  </object>
  <object id="291" name="baskets" x="112" y="0" width="16" height="16">
   <properties>
    <property name="kind" value="prop"/>
    <property name="tags" value="hay"/>
   </properties>
  </object>
  <object id="292" name="baskets" x="112" y="16" width="16" height="16">
   <properties>
    <property name="kind" value="prop"/>
    <property name="tags" value="hay"/>
   </properties>
  </object>
  <object id="293" name="baskets" x="128" y="16" width="16" height="16">
   <properties>
    <property name="kind" value="prop"/>
    <property name="tags" value="hay"/>
   </properties>
  </object>
  <object id="294" name="baskets" x="128" y="0" width="16" height="16">
   <properties>
    <property name="kind" value="prop"/>
    <property name="tags" value="hay"/>
   </properties>
  </object>
  <object id="295" name="trunk" x="816" y="16" width="16" height="16">
   <properties>
    <property name="kind" value="prop"/>
    <property name="tags" value="trunk"/>
   </properties>
  </object>
  <object id="296" name="trunk" x="832" y="16" width="16" height="16">
   <properties>
    <property name="kind" value="prop"/>
    <property name="tags" value="trunk"/>
   </properties>
  </object>
  <object id="297" name="bush" x="816" y="32" width="16" height="16">
   <properties>
    <property name="kind" value="nature"/>
    <property name="tags" value="dry,bush"/>
   </properties>
  </object>
  <object id="298" name="bush" x="832" y="32" width="16" height="16">
   <properties>
    <property name="kind" value="nature"/>
    <property name="tags" value="bush"/>
   </properties>
  </object>
  <object id="299" name="decorations" x="16" y="176" width="16" height="16">
   <properties>
    <property name="kind" value="prop"/>
    <property name="tags" value="stone"/>
   </properties>
  </object>
  <object id="300" name="decorations" x="32" y="176" width="16" height="16">
   <properties>
    <property name="kind" value="prop"/>
    <property name="tags" value="stone"/>
   </properties>
  </object>
  <object id="301" name="decorations" x="48" y="176" width="16" height="16">
   <properties>
    <property name="kind" value="prop"/>
    <property name="tags" value="stone"/>
   </properties>
  </object>
  <object id="302" name="decorations" x="64" y="176" width="16" height="16">
   <properties>
    <property name="kind" value="prop"/>
    <property name="tags" value="stone"/>
   </properties>
  </object>
  <object id="303" name="decorations" x="80" y="176" width="16" height="16">
   <properties>
    <property name="kind" value="prop"/>
    <property name="tags" value="stone"/>
   </properties>
  </object>
  <object id="304" name="decorations" x="96" y="176" width="16" height="16">
   <properties>
    <property name="kind" value="prop"/>
    <property name="tags" value="stone"/>
   </properties>
  </object>
  <object id="305" name="pavement" x="32" y="96" width="16" height="16">
   <properties>
    <property name="kind" value="pathkit"/>
    <property name="tags" value="pathway"/>
   </properties>
  </object>
  <object id="306" name="pavement" x="48" y="96" width="16" height="16">
   <properties>
    <property name="kind" value="pathkit"/>
    <property name="tags" value="pathway"/>
   </properties>
  </object>
  <object id="307" name="pavement" x="64" y="96" width="16" height="16">
   <properties>
    <property name="kind" value="pathkit"/>
    <property name="tags" value="pathway"/>
   </properties>
  </object>
  <object id="308" name="pavement" x="80" y="96" width="16" height="16">
   <properties>
    <property name="kind" value="pathkit"/>
    <property name="tags" value="pathway"/>
   </properties>
  </object>
 </objectgroup>
</map>
